(G-CODE GENERATED BY FLATCAM v8.994 - www.flatcam.org - Version Date: 2020/11/7)

(Name: F_Cu.gbr_mt_paint_cnc)
(Type: G-code from Geometry)
(Units: MM)

(Created on Monday, 20 March 2023 at 00:40)

(This preprocessor is the default preprocessor used by FlatCAM.)
(It is made to work with MACH3 compatible motion controllers.)

(TOOL DIAMETER: 0.35 mm)
(Feedrate_XY: 120.0 mm/min)
(Feedrate_Z: 60.0 mm/min)
(Feedrate rapids 1500.0 mm/min)

(Z_Cut: -2.4 mm)
(Z_Move: 2.0 mm)
(Z Start: None mm)
(Z End: 15.0 mm)
(X,Y End: 0.0000, 0.0000 mm)
(Steps per circle: 64)
(Preprocessor Geometry: default)

(X range:  114.2950 ...  157.9395  mm)
(Y range: -105.2345 ...  -65.5805  mm)

(Spindle Speed: None RPM)
G21
G90
G94

G01 F120.00
G00 Z2.0000

M03
G00 X115.0355 Y-66.6961
G01 F60.00
G01 Z-2.4000
G01 F120.00
G01 X115.0355 Y-66.1405
G01 X115.3453 Y-66.1405
G01 X115.3259 Y-66.1679
G01 X115.3073 Y-66.1968
G01 X115.1568 Y-66.4480
G01 X115.1443 Y-66.4696
G01 X115.1338 Y-66.4893
G01 X115.1235 Y-66.5100
G01 X115.0355 Y-66.6961
G00 Z2.0000
G00 X116.2049 Y-68.2111
G01 F60.00
G01 Z-2.4000
G01 F120.00
G01 X116.2131 Y-68.0218
G01 X116.2136 Y-68.0164
G01 X116.2375 Y-67.8342
G01 X116.2385 Y-67.8289
G01 X116.2782 Y-67.6495
G01 X116.2796 Y-67.6443
G01 X116.3349 Y-67.4691
G01 X116.3367 Y-67.4640
G01 X116.4070 Y-67.2943
G01 X116.4093 Y-67.2893
G01 X116.4941 Y-67.1264
G01 X116.4969 Y-67.1217
G01 X116.5956 Y-66.9668
G01 X116.5987 Y-66.9623
G01 X116.7105 Y-66.8166
G01 X116.7140 Y-66.8124
G01 X116.8379 Y-66.6772
G01 X116.8422 Y-66.6729
G01 X116.9774 Y-66.5490
G01 X116.9816 Y-66.5455
G01 X117.1273 Y-66.4337
G01 X117.1318 Y-66.4306
G01 X117.2867 Y-66.3319
G01 X117.2914 Y-66.3291
G01 X117.4543 Y-66.2443
G01 X117.4593 Y-66.2420
G01 X117.6290 Y-66.1717
G01 X117.6341 Y-66.1699
G01 X117.8093 Y-66.1146
G01 X117.8145 Y-66.1132
G01 X117.9939 Y-66.0735
G01 X117.9992 Y-66.0725
G01 X118.1814 Y-66.0485
G01 X118.1868 Y-66.0481
G01 X118.3700 Y-66.0401
G01 X118.3760 Y-66.0399
G01 X135.5380 Y-66.0399
G01 X135.5441 Y-66.0401
G01 X136.0713 Y-66.0660
G01 X136.0774 Y-66.0666
G01 X136.5996 Y-66.1440
G01 X136.6056 Y-66.1452
G01 X137.1177 Y-66.2735
G01 X137.1235 Y-66.2753
G01 X137.6206 Y-66.4531
G01 X137.6262 Y-66.4555
G01 X138.1034 Y-66.6812
G01 X138.1088 Y-66.6841
G01 X138.5616 Y-66.9554
G01 X138.5667 Y-66.9588
G01 X138.9907 Y-67.2733
G01 X138.9954 Y-67.2772
G01 X139.3866 Y-67.6317
G01 X139.3910 Y-67.6359
G01 X140.6452 Y-68.8900
G01 X141.0397 Y-69.2477
G01 X141.0469 Y-69.2534
G01 X141.4709 Y-69.5678
G01 X141.9236 Y-69.8393
G01 X141.9344 Y-69.8450
G01 X142.4117 Y-70.0706
G01 X142.9144 Y-70.2505
G01 X143.4324 Y-70.3802
G01 X143.9545 Y-70.4578
G01 X143.9667 Y-70.4590
G01 X144.4953 Y-70.4849
G01 X146.8630 Y-70.4849
G01 X147.0925 Y-70.4948
G01 X147.0979 Y-70.4953
G01 X147.3199 Y-70.5245
G01 X147.3252 Y-70.5255
G01 X147.5438 Y-70.5739
G01 X147.5491 Y-70.5753
G01 X147.7626 Y-70.6427
G01 X147.7678 Y-70.6445
G01 X147.9746 Y-70.7302
G01 X147.9795 Y-70.7325
G01 X148.1781 Y-70.8359
G01 X148.1829 Y-70.8386
G01 X148.3717 Y-70.9589
G01 X148.3762 Y-70.9621
G01 X148.5538 Y-71.0983
G01 X148.5580 Y-71.1019
G01 X148.7228 Y-71.2529
G01 X148.7272 Y-71.2571
G01 X149.0439 Y-71.5738
G01 X149.0481 Y-71.5782
G01 X149.1345 Y-71.6725
G01 X149.1381 Y-71.6767
G01 X149.2161 Y-71.7785
G01 X149.2193 Y-71.7830
G01 X149.2882 Y-71.8912
G01 X149.2909 Y-71.8959
G01 X149.3502 Y-72.0097
G01 X149.3525 Y-72.0146
G01 X149.4016 Y-72.1331
G01 X149.4034 Y-72.1383
G01 X149.4420 Y-72.2606
G01 X149.4756 Y-72.3885
G01 X149.4868 Y-72.4323
G01 X149.4766 Y-72.4334
G01 X149.4724 Y-72.3992
G01 X149.4710 Y-72.3911
G01 X149.4433 Y-72.2659
G01 X149.4411 Y-72.2580
G01 X149.4041 Y-72.1409
G01 X149.4004 Y-72.1307
G01 X149.3534 Y-72.0172
G01 X149.3488 Y-72.0073
G01 X149.2895 Y-71.8936
G01 X149.2176 Y-71.7808
G01 X149.1362 Y-71.6747
G01 X149.0459 Y-71.5760
G01 X148.7229 Y-71.2532
G01 X148.5558 Y-71.1002
G01 X148.3761 Y-70.9622
G01 X148.3693 Y-70.9576
G01 X148.1851 Y-70.8402
G01 X148.1757 Y-70.8347
G01 X147.9770 Y-70.7315
G01 X147.7702 Y-70.6457
G01 X147.7626 Y-70.6428
G01 X147.5464 Y-70.5748
G01 X147.3279 Y-70.5262
G01 X147.3171 Y-70.5243
G01 X147.1006 Y-70.4958
G01 X147.0897 Y-70.4948
G01 X146.8629 Y-70.4851
G01 X144.4970 Y-70.4851
G01 X143.9637 Y-70.4590
G01 X143.9576 Y-70.4584
G01 X143.4354 Y-70.3810
G01 X143.4294 Y-70.3798
G01 X142.9173 Y-70.2515
G01 X142.9115 Y-70.2497
G01 X142.4144 Y-70.0719
G01 X142.4088 Y-70.0695
G01 X141.9316 Y-69.8438
G01 X141.9262 Y-69.8409
G01 X141.4734 Y-69.5696
G01 X141.4683 Y-69.5662
G01 X141.0443 Y-69.2517
G01 X141.0396 Y-69.2478
G01 X140.6440 Y-68.8891
G01 X139.3876 Y-67.6328
G01 X138.9930 Y-67.2753
G01 X138.5666 Y-66.9590
G01 X138.5589 Y-66.9540
G01 X138.1061 Y-66.6827
G01 X137.6233 Y-66.4544
G01 X137.1206 Y-66.2745
G01 X136.6026 Y-66.1448
G01 X136.0744 Y-66.0664
G01 X135.5382 Y-66.0401
G01 X118.3717 Y-66.0401
G01 X118.1841 Y-66.0484
G01 X117.9966 Y-66.0731
G01 X117.8119 Y-66.1140
G01 X117.6316 Y-66.1709
G01 X117.4569 Y-66.2433
G01 X117.2891 Y-66.3306
G01 X117.1296 Y-66.4322
G01 X116.9838 Y-66.5439
G01 X116.9755 Y-66.5509
G01 X116.8402 Y-66.6750
G01 X116.7160 Y-66.8105
G01 X116.7089 Y-66.8188
G01 X116.6005 Y-66.9602
G01 X116.5942 Y-66.9691
G01 X116.4956 Y-67.1241
G01 X116.4107 Y-67.2870
G01 X116.4061 Y-67.2968
G01 X116.3359 Y-67.4666
G01 X116.2791 Y-67.6469
G01 X116.2381 Y-67.8316
G01 X116.2137 Y-68.0164
G01 X116.2131 Y-68.0245
G01 X116.2051 Y-68.2096
G01 X116.2051 Y-68.9454
G01 X116.2152 Y-69.1556
G01 X116.2164 Y-69.1678
G01 X116.2470 Y-69.3730
G01 X116.2973 Y-69.5743
G01 X116.2999 Y-69.5831
G01 X116.3709 Y-69.7813
G01 X116.4594 Y-69.9689
G01 X116.4652 Y-69.9797
G01 X116.5720 Y-70.1575
G01 X116.6955 Y-70.3243
G01 X116.7012 Y-70.3314
G01 X116.9839 Y-70.6435
G01 X116.9878 Y-70.6482
G01 X117.1114 Y-70.8148
G01 X117.1148 Y-70.8199
G01 X117.2215 Y-70.9979
G01 X117.2244 Y-71.0033
G01 X117.3131 Y-71.1908
G01 X117.3154 Y-71.1965
G01 X117.3853 Y-71.3918
G01 X117.3871 Y-71.3977
G01 X117.4375 Y-71.5989
G01 X117.4387 Y-71.6050
G01 X117.4691 Y-71.8102
G01 X117.4697 Y-71.8163
G01 X117.4799 Y-72.0235
G01 X117.4801 Y-72.0296
G01 X117.4799 Y-73.4974
G01 X117.4799 Y-72.0262
G01 X117.4693 Y-71.8132
G01 X117.4390 Y-71.6080
G01 X117.4366 Y-71.5960
G01 X117.3861 Y-71.3948
G01 X117.3163 Y-71.1994
G01 X117.3116 Y-71.1881
G01 X117.2256 Y-71.0061
G01 X117.2198 Y-70.9953
G01 X117.1130 Y-70.8174
G01 X116.9877 Y-70.6483
G01 X116.9818 Y-70.6413
G01 X116.7011 Y-70.3315
G01 X116.6972 Y-70.3268
G01 X116.5736 Y-70.1602
G01 X116.5702 Y-70.1551
G01 X116.4635 Y-69.9771
G01 X116.4606 Y-69.9717
G01 X116.3719 Y-69.7842
G01 X116.3696 Y-69.7785
G01 X116.2997 Y-69.5832
G01 X116.2979 Y-69.5773
G01 X116.2475 Y-69.3761
G01 X116.2463 Y-69.3700
G01 X116.2159 Y-69.1648
G01 X116.2153 Y-69.1587
G01 X116.2049 Y-68.9454
G01 X116.2049 Y-68.2111
G00 Z2.0000
G00 X115.0355 Y-70.4623
G01 F60.00
G01 Z-2.4000
G01 F120.00
G01 X115.1245 Y-70.6504
G01 X115.1348 Y-70.6712
G01 X115.1453 Y-70.6909
G01 X115.1578 Y-70.7125
G01 X115.3070 Y-70.9615
G01 X115.3193 Y-70.9812
G01 X115.3337 Y-71.0026
G01 X115.3462 Y-71.0200
G01 X115.5181 Y-71.2518
G01 X115.5381 Y-71.2775
G01 X115.5627 Y-71.3063
G01 X115.7068 Y-71.4653
G01 X115.7227 Y-71.4849
G01 X115.7408 Y-71.5057
G01 X115.7550 Y-71.5210
G01 X115.7780 Y-71.5448
G01 X115.7943 Y-71.5608
G01 X115.8074 Y-71.5729
G01 X115.8425 Y-71.6129
G01 X115.8919 Y-71.6868
G01 X115.9312 Y-71.7665
G01 X115.9598 Y-71.8507
G01 X115.9771 Y-71.9379
G01 X115.9804 Y-71.9871
G01 X115.9798 Y-72.0183
G01 X115.9806 Y-72.0506
G01 X115.9822 Y-72.0750
G01 X115.9844 Y-72.0989
G01 X115.9844 Y-72.3145
G01 X115.6958 Y-72.3145
G01 X115.6759 Y-72.3148
G01 X115.6471 Y-72.3161
G01 X115.5950 Y-72.3202
G01 X115.5684 Y-72.3231
G01 X115.5427 Y-72.3267
G01 X115.5058 Y-72.3337
G01 X115.4694 Y-72.3424
G01 X115.2886 Y-72.3949
G01 X115.2539 Y-72.4066
G01 X115.2252 Y-72.4177
G01 X115.1970 Y-72.4301
G01 X115.1691 Y-72.4437
G01 X115.1358 Y-72.4467
G01 X115.1043 Y-72.4510
G01 X115.0772 Y-72.4558
G01 X115.0355 Y-72.4644
G01 X115.0355 Y-70.4623
G01 X115.3155 Y-71.4475
G01 X115.3332 Y-71.4691
G01 X115.3495 Y-71.4879
G01 X115.4930 Y-71.6463
G01 X115.5115 Y-71.6689
G01 X115.5340 Y-71.6945
G01 X115.5690 Y-71.7315
G01 X115.5890 Y-71.7516
G01 X115.6067 Y-71.7687
G01 X115.6199 Y-71.7837
G01 X115.6489 Y-71.8271
G01 X115.6720 Y-71.8739
G01 X115.6887 Y-71.9233
G01 X115.6989 Y-71.9745
G01 X115.7001 Y-71.9919
G01 X115.7000 Y-72.0345
G01 X115.6587 Y-72.0352
G01 X115.6162 Y-72.0376
G01 X115.5731 Y-72.0411
G01 X115.5508 Y-72.0432
G01 X115.5233 Y-72.0466
G01 X115.4995 Y-72.0501
G01 X115.4573 Y-72.0578
G01 X115.4163 Y-72.0670
G01 X115.3844 Y-72.0754
G01 X115.3155 Y-72.0954
G01 X115.3155 Y-71.4475
G01 X114.7555 Y-72.7319
G01 X114.7555 Y-65.8605
G01 X115.9342 Y-65.8605
G01 X115.7694 Y-66.0424
G01 X115.7526 Y-66.0620
G01 X115.7411 Y-66.0769
G01 X115.5696 Y-66.3080
G01 X115.5587 Y-66.3234
G01 X115.5466 Y-66.3422
G01 X115.3952 Y-66.5949
G01 X115.3843 Y-66.6144
G01 X115.3759 Y-66.6313
G01 X115.2528 Y-66.8914
G01 X115.2451 Y-66.9087
G01 X115.2358 Y-66.9327
G01 X115.1388 Y-67.2036
G01 X115.1328 Y-67.2215
G01 X115.1259 Y-67.2463
G01 X115.0559 Y-67.5255
G01 X115.0504 Y-67.5506
G01 X115.0472 Y-67.5693
G01 X115.0050 Y-67.8539
G01 X115.0016 Y-67.8838
G01 X114.9921 Y-68.0715
G01 X114.9901 Y-68.1013
G01 X114.9895 Y-68.1227
G01 X114.9867 Y-68.1474
G01 X114.9857 Y-68.1616
G01 X114.9850 Y-68.1803
G01 X114.9847 Y-68.2061
G01 X114.9851 Y-68.2259
G01 X114.9865 Y-68.2489
G01 X114.9895 Y-68.2778
G01 X114.9895 Y-68.8614
G01 X114.9867 Y-68.8878
G01 X114.9853 Y-68.9108
G01 X114.9847 Y-68.9520
G01 X114.9855 Y-68.9751
G01 X114.9883 Y-69.0066
G01 X115.0007 Y-69.2590
G01 X115.0027 Y-69.2847
G01 X115.0050 Y-69.3034
G01 X115.0474 Y-69.5889
G01 X115.0519 Y-69.6143
G01 X115.0561 Y-69.6327
G01 X115.1262 Y-69.9126
G01 X115.1332 Y-69.9374
G01 X115.1392 Y-69.9553
G01 X115.2364 Y-70.2270
G01 X115.2432 Y-70.2447
G01 X115.2503 Y-70.2613
G01 X115.3769 Y-70.5292
G01 X115.3886 Y-70.5521
G01 X115.3979 Y-70.5685
G01 X115.5463 Y-70.8161
G01 X115.5602 Y-70.8378
G01 X115.5711 Y-70.8532
G01 X115.7430 Y-71.0850
G01 X115.7589 Y-71.1052
G01 X115.7713 Y-71.1195
G01 X115.9211 Y-71.2848
G01 X115.9346 Y-71.3019
G01 X115.9475 Y-71.3169
G01 X115.9603 Y-71.3306
G01 X115.9798 Y-71.3506
G01 X116.0086 Y-71.3777
G01 X116.0660 Y-71.4435
G01 X116.1356 Y-71.5480
G01 X116.1910 Y-71.6607
G01 X116.2311 Y-71.7797
G01 X116.2554 Y-71.9029
G01 X116.2608 Y-71.9852
G01 X116.2598 Y-72.0134
G01 X116.2604 Y-72.0389
G01 X116.2616 Y-72.0564
G01 X116.2645 Y-72.0877
G01 X116.2645 Y-72.5945
G01 X115.6896 Y-72.5945
G01 X115.6663 Y-72.5955
G01 X115.6206 Y-72.5990
G01 X115.6046 Y-72.6007
G01 X115.5860 Y-72.6034
G01 X115.5632 Y-72.6077
G01 X115.5363 Y-72.6144
G01 X115.3787 Y-72.6602
G01 X115.3542 Y-72.6681
G01 X115.3276 Y-72.6784
G01 X115.3017 Y-72.6904
G01 X115.2797 Y-72.7022
G01 X115.2461 Y-72.7220
G01 X115.2000 Y-72.7224
G01 X115.1820 Y-72.7235
G01 X115.1598 Y-72.7259
G01 X115.1378 Y-72.7293
G01 X115.1018 Y-72.7365
G01 X115.0801 Y-72.7417
G01 X115.0628 Y-72.7467
G01 X115.0481 Y-72.7516
G01 X115.0312 Y-72.7579
G01 X115.0169 Y-72.7638
G01 X115.0005 Y-72.7713
G01 X114.9867 Y-72.7783
G01 X114.9709 Y-72.7870
G01 X114.9576 Y-72.7949
G01 X114.9400 Y-72.8065
G01 X114.9187 Y-72.7927
G01 X114.8994 Y-72.7815
G01 X114.8795 Y-72.7713
G01 X114.8528 Y-72.7595
G01 X114.8278 Y-72.7502
G01 X114.8065 Y-72.7436
G01 X114.7849 Y-72.7380
G01 X114.7555 Y-72.7319
G01 X114.4846 Y-72.9525
G01 X114.4755 Y-72.9068
G01 X114.4755 Y-65.6757
G01 X114.4846 Y-65.6300
G01 X114.5008 Y-65.6058
G01 X114.5250 Y-65.5896
G01 X114.5707 Y-65.5805
G01 X116.4526 Y-65.5805
G01 X116.4984 Y-65.5896
G01 X116.5226 Y-65.6058
G01 X116.5387 Y-65.6300
G01 X116.5444 Y-65.6585
G01 X116.5387 Y-65.6870
G01 X116.5164 Y-65.7204
G01 X116.5111 Y-65.7250
G01 X116.4087 Y-65.8009
G01 X116.3986 Y-65.8090
G01 X116.2259 Y-65.9655
G01 X116.2144 Y-65.9750
G01 X116.2045 Y-65.9826
G01 X116.1922 Y-65.9935
G01 X116.1692 Y-66.0163
G01 X116.1493 Y-66.0402
G01 X115.9768 Y-66.2304
G01 X115.9686 Y-66.2403
G01 X115.7896 Y-66.4818
G01 X115.6371 Y-66.7359
G01 X115.6309 Y-66.7472
G01 X115.6263 Y-66.7567
G01 X115.5060 Y-67.0112
G01 X115.4994 Y-67.0270
G01 X115.3998 Y-67.3061
G01 X115.3276 Y-67.5935
G01 X115.3242 Y-67.6103
G01 X115.2814 Y-67.8992
G01 X115.2803 Y-67.9121
G01 X115.2714 Y-68.0927
G01 X115.2697 Y-68.1164
G01 X115.2691 Y-68.1403
G01 X115.2677 Y-68.1552
G01 X115.2660 Y-68.1678
G01 X115.2650 Y-68.1842
G01 X115.2649 Y-68.2166
G01 X115.2685 Y-68.2515
G01 X115.2695 Y-68.2700
G01 X115.2695 Y-68.8712
G01 X115.2679 Y-68.8942
G01 X115.2660 Y-68.9082
G01 X115.2652 Y-68.9191
G01 X115.2647 Y-68.9515
G01 X115.2653 Y-68.9625
G01 X115.2677 Y-68.9878
G01 X115.2810 Y-69.2538
G01 X115.3258 Y-69.5563
G01 X115.4001 Y-69.8529
G01 X115.5000 Y-70.1327
G01 X115.5048 Y-70.1447
G01 X115.6339 Y-70.4171
G01 X115.7865 Y-70.6721
G01 X115.7935 Y-70.6829
G01 X115.9732 Y-70.9249
G01 X116.1329 Y-71.1014
G01 X116.1424 Y-71.1130
G01 X116.1501 Y-71.1230
G01 X116.1572 Y-71.1313
G01 X116.1798 Y-71.1545
G01 X116.1898 Y-71.1635
G01 X116.2110 Y-71.1838
G01 X116.2806 Y-71.2631
G01 X116.2938 Y-71.2803
G01 X116.3719 Y-71.3972
G01 X116.3827 Y-71.4159
G01 X116.4449 Y-71.5421
G01 X116.4532 Y-71.5620
G01 X116.4984 Y-71.6952
G01 X116.5040 Y-71.7161
G01 X116.5314 Y-71.8540
G01 X116.5342 Y-71.8754
G01 X116.5413 Y-71.9827
G01 X116.5415 Y-71.9913
G01 X116.5399 Y-72.0086
G01 X116.5399 Y-72.0232
G01 X116.5437 Y-72.0647
G01 X116.5445 Y-72.0808
G01 X116.5445 Y-72.7793
G01 X116.5354 Y-72.8250
G01 X116.5192 Y-72.8492
G01 X116.4950 Y-72.8654
G01 X116.4493 Y-72.8745
G01 X115.6958 Y-72.8745
G01 X115.6855 Y-72.8748
G01 X115.6461 Y-72.8779
G01 X115.6328 Y-72.8794
G01 X115.6240 Y-72.8810
G01 X115.6110 Y-72.8843
G01 X115.4568 Y-72.9291
G01 X115.4429 Y-72.9338
G01 X115.4328 Y-72.9380
G01 X115.4197 Y-72.9447
G01 X115.3559 Y-72.9824
G01 X115.3012 Y-73.0016
G01 X115.2952 Y-73.0020
G01 X115.2146 Y-73.0021
G01 X115.2018 Y-73.0028
G01 X115.1890 Y-73.0046
G01 X115.1598 Y-73.0104
G01 X115.1473 Y-73.0137
G01 X115.1392 Y-73.0164
G01 X115.1233 Y-73.0229
G01 X115.1119 Y-73.0289
G01 X115.1009 Y-73.0356
G01 X115.0871 Y-73.0459
G01 X115.0775 Y-73.0544
G01 X115.0656 Y-73.0668
G01 X115.0551 Y-73.0804
G01 X115.0480 Y-73.0912
G01 X115.0438 Y-73.0986
G01 X115.0381 Y-73.1102
G01 X115.0334 Y-73.1222
G01 X115.0295 Y-73.1345
G01 X115.0265 Y-73.1470
G01 X115.0216 Y-73.1720
G01 X115.0203 Y-73.1805
G01 X115.0192 Y-73.1933
G01 X115.0190 Y-73.3148
G01 X115.0172 Y-73.3247
G01 X115.0160 Y-73.3336
G01 X115.0151 Y-73.3514
G01 X115.0151 Y-73.6850
G01 X115.0160 Y-73.7022
G01 X115.0170 Y-73.7107
G01 X115.0194 Y-73.7233
G01 X115.0227 Y-73.7358
G01 X115.0284 Y-73.7520
G01 X115.0358 Y-73.7675
G01 X115.0446 Y-73.7822
G01 X115.0522 Y-73.7927
G01 X115.0634 Y-73.8057
G01 X115.0758 Y-73.8175
G01 X115.0894 Y-73.8281
G01 X115.1039 Y-73.8373
G01 X115.1192 Y-73.8450
G01 X115.1352 Y-73.8512
G01 X115.1476 Y-73.8548
G01 X115.1644 Y-73.8581
G01 X115.1773 Y-73.8595
G01 X115.1858 Y-73.8599
G01 X115.2150 Y-73.8600
G01 X115.2150 Y-75.0100
G01 X114.6650 Y-75.0100
G01 X114.6650 Y-73.8600
G01 X114.6942 Y-73.8599
G01 X114.7027 Y-73.8595
G01 X114.7156 Y-73.8581
G01 X114.7324 Y-73.8548
G01 X114.7448 Y-73.8512
G01 X114.7608 Y-73.8450
G01 X114.7761 Y-73.8373
G01 X114.7871 Y-73.8305
G01 X114.7975 Y-73.8230
G01 X114.8105 Y-73.8117
G01 X114.8224 Y-73.7993
G01 X114.8304 Y-73.7892
G01 X114.8377 Y-73.7786
G01 X114.8462 Y-73.7637
G01 X114.8531 Y-73.7480
G01 X114.8585 Y-73.7317
G01 X114.8615 Y-73.7191
G01 X114.8636 Y-73.7064
G01 X114.8644 Y-73.6979
G01 X114.8649 Y-73.6850
G01 X114.8649 Y-73.3576
G01 X114.8641 Y-73.3412
G01 X114.8631 Y-73.3330
G01 X114.8610 Y-73.3208
G01 X114.8610 Y-73.2019
G01 X114.8602 Y-73.1848
G01 X114.8576 Y-73.1678
G01 X114.8526 Y-73.1428
G01 X114.8505 Y-73.1345
G01 X114.8480 Y-73.1262
G01 X114.8435 Y-73.1142
G01 X114.8382 Y-73.1025
G01 X114.8341 Y-73.0949
G01 X114.8297 Y-73.0875
G01 X114.8224 Y-73.0769
G01 X114.8144 Y-73.0668
G01 X114.8086 Y-73.0605
G01 X114.7994 Y-73.0515
G01 X114.7929 Y-73.0459
G01 X114.7826 Y-73.0381
G01 X114.7755 Y-73.0333
G01 X114.7644 Y-73.0268
G01 X114.7567 Y-73.0229
G01 X114.7448 Y-73.0179
G01 X114.7368 Y-73.0150
G01 X114.7202 Y-73.0104
G01 X114.6910 Y-73.0046
G01 X114.6782 Y-73.0028
G01 X114.6654 Y-73.0021
G01 X114.5707 Y-73.0020
G01 X114.5250 Y-72.9929
G01 X114.5008 Y-72.9767
G01 X114.4846 Y-72.9525
G00 Z2.0000
G00 X115.9350 Y-75.0100
G01 F60.00
G01 Z-2.4000
G01 F120.00
G01 X115.9350 Y-73.8600
G01 X116.4850 Y-73.8600
G01 X116.4850 Y-75.0100
G01 X115.9350 Y-75.0100
G00 Z2.0000
G00 X114.4755 Y-75.9632
G01 F60.00
G01 Z-2.4000
G01 F120.00
G01 X114.4846 Y-75.9175
G01 X114.5008 Y-75.8933
G01 X114.5250 Y-75.8771
G01 X114.5707 Y-75.8680
G01 X114.6697 Y-75.8678
G01 X114.6825 Y-75.8667
G01 X114.6910 Y-75.8654
G01 X114.7244 Y-75.8586
G01 X114.7368 Y-75.8550
G01 X114.7488 Y-75.8505
G01 X114.7605 Y-75.8452
G01 X114.7718 Y-75.8390
G01 X114.7826 Y-75.8319
G01 X114.7929 Y-75.8241
G01 X114.8025 Y-75.8156
G01 X114.8115 Y-75.8064
G01 X114.8224 Y-75.7931
G01 X114.8297 Y-75.7825
G01 X114.8362 Y-75.7714
G01 X114.8419 Y-75.7598
G01 X114.8466 Y-75.7478
G01 X114.8505 Y-75.7355
G01 X114.8526 Y-75.7272
G01 X114.8576 Y-75.7022
G01 X114.8597 Y-75.6895
G01 X114.8609 Y-75.6724
G01 X114.8610 Y-75.5499
G01 X114.8701 Y-75.5041
G01 X114.8863 Y-75.4799
G01 X114.9105 Y-75.4638
G01 X114.9390 Y-75.4581
G01 X114.9675 Y-75.4638
G01 X114.9923 Y-75.4803
G01 X115.0084 Y-75.5040
G01 X115.0190 Y-75.5552
G01 X115.0192 Y-75.6767
G01 X115.0203 Y-75.6895
G01 X115.0216 Y-75.6980
G01 X115.0265 Y-75.7230
G01 X115.0295 Y-75.7355
G01 X115.0334 Y-75.7478
G01 X115.0399 Y-75.7637
G01 X115.0459 Y-75.7751
G01 X115.0551 Y-75.7896
G01 X115.0656 Y-75.8032
G01 X115.0744 Y-75.8126
G01 X115.0838 Y-75.8214
G01 X115.0974 Y-75.8319
G01 X115.1082 Y-75.8390
G01 X115.1156 Y-75.8432
G01 X115.1233 Y-75.8471
G01 X115.1352 Y-75.8521
G01 X115.1473 Y-75.8563
G01 X115.1556 Y-75.8586
G01 X115.1848 Y-75.8646
G01 X115.1975 Y-75.8667
G01 X115.2146 Y-75.8679
G01 X115.2841 Y-75.8680
G01 X115.3410 Y-75.8793
G01 X115.3464 Y-75.8820
G01 X115.4229 Y-75.9271
G01 X115.4361 Y-75.9335
G01 X115.4498 Y-75.9387
G01 X115.6196 Y-75.9880
G01 X115.6328 Y-75.9906
G01 X115.6416 Y-75.9917
G01 X115.6889 Y-75.9954
G01 X116.7276 Y-75.9955
G01 X116.7379 Y-75.9950
G01 X116.7784 Y-75.9917
G01 X116.7916 Y-75.9898
G01 X116.8065 Y-75.9864
G01 X116.8631 Y-75.9815
G01 X116.8740 Y-75.9837
G01 X116.8940 Y-75.9890
G01 X116.9072 Y-75.9912
G01 X116.9521 Y-75.9950
G01 X116.9658 Y-75.9955
G01 X117.9976 Y-75.9955
G01 X118.0079 Y-75.9950
G01 X118.0484 Y-75.9917
G01 X118.0616 Y-75.9898
G01 X118.0765 Y-75.9864
G01 X118.1331 Y-75.9815
G01 X118.1440 Y-75.9837
G01 X118.1640 Y-75.9890
G01 X118.1772 Y-75.9912
G01 X118.2221 Y-75.9950
G01 X118.2358 Y-75.9955
G01 X119.2676 Y-75.9955
G01 X119.2779 Y-75.9950
G01 X119.3184 Y-75.9917
G01 X119.3316 Y-75.9898
G01 X119.3465 Y-75.9864
G01 X119.4031 Y-75.9815
G01 X119.4140 Y-75.9837
G01 X119.4340 Y-75.9890
G01 X119.4472 Y-75.9912
G01 X119.4921 Y-75.9950
G01 X119.5058 Y-75.9955
G01 X120.5376 Y-75.9955
G01 X120.5479 Y-75.9950
G01 X120.5884 Y-75.9917
G01 X120.6016 Y-75.9898
G01 X120.6165 Y-75.9864
G01 X120.6731 Y-75.9815
G01 X120.6840 Y-75.9837
G01 X120.7040 Y-75.9890
G01 X120.7172 Y-75.9912
G01 X120.7621 Y-75.9950
G01 X120.7758 Y-75.9955
G01 X121.8076 Y-75.9955
G01 X121.8179 Y-75.9950
G01 X121.8584 Y-75.9917
G01 X121.8716 Y-75.9898
G01 X121.8865 Y-75.9864
G01 X121.9431 Y-75.9815
G01 X121.9540 Y-75.9837
G01 X121.9740 Y-75.9890
G01 X121.9872 Y-75.9912
G01 X122.0321 Y-75.9950
G01 X122.0458 Y-75.9955
G01 X123.0776 Y-75.9955
G01 X123.0879 Y-75.9950
G01 X123.1284 Y-75.9917
G01 X123.1416 Y-75.9898
G01 X123.1565 Y-75.9864
G01 X123.2131 Y-75.9815
G01 X123.2240 Y-75.9837
G01 X123.2440 Y-75.9890
G01 X123.2572 Y-75.9912
G01 X123.3021 Y-75.9950
G01 X123.3158 Y-75.9955
G01 X124.3476 Y-75.9955
G01 X124.3579 Y-75.9950
G01 X124.3984 Y-75.9917
G01 X124.4116 Y-75.9898
G01 X124.4265 Y-75.9864
G01 X124.4831 Y-75.9815
G01 X124.4940 Y-75.9837
G01 X124.5140 Y-75.9890
G01 X124.5272 Y-75.9912
G01 X124.5721 Y-75.9950
G01 X124.5858 Y-75.9955
G01 X125.6176 Y-75.9955
G01 X125.6279 Y-75.9950
G01 X125.6684 Y-75.9917
G01 X125.6816 Y-75.9898
G01 X125.6965 Y-75.9864
G01 X125.7531 Y-75.9815
G01 X125.7640 Y-75.9837
G01 X125.7840 Y-75.9890
G01 X125.7972 Y-75.9912
G01 X125.8421 Y-75.9950
G01 X125.8558 Y-75.9955
G01 X126.8876 Y-75.9955
G01 X126.8979 Y-75.9950
G01 X126.9384 Y-75.9917
G01 X126.9516 Y-75.9898
G01 X126.9665 Y-75.9864
G01 X127.0231 Y-75.9815
G01 X127.0340 Y-75.9837
G01 X127.0540 Y-75.9890
G01 X127.0672 Y-75.9912
G01 X127.1121 Y-75.9950
G01 X127.1258 Y-75.9955
G01 X128.1576 Y-75.9955
G01 X128.1679 Y-75.9950
G01 X128.2084 Y-75.9917
G01 X128.2216 Y-75.9898
G01 X128.2365 Y-75.9864
G01 X128.2931 Y-75.9815
G01 X128.3040 Y-75.9837
G01 X128.3240 Y-75.9890
G01 X128.3372 Y-75.9912
G01 X128.3821 Y-75.9950
G01 X128.3958 Y-75.9955
G01 X129.4276 Y-75.9955
G01 X129.4379 Y-75.9950
G01 X129.4784 Y-75.9917
G01 X129.4916 Y-75.9898
G01 X129.5065 Y-75.9864
G01 X129.5631 Y-75.9815
G01 X129.5740 Y-75.9837
G01 X129.5940 Y-75.9890
G01 X129.6072 Y-75.9912
G01 X129.6521 Y-75.9950
G01 X129.6658 Y-75.9955
G01 X130.6976 Y-75.9955
G01 X130.7079 Y-75.9950
G01 X130.7484 Y-75.9917
G01 X130.7616 Y-75.9898
G01 X130.7765 Y-75.9864
G01 X130.8331 Y-75.9815
G01 X130.8440 Y-75.9837
G01 X130.8640 Y-75.9890
G01 X130.8772 Y-75.9912
G01 X130.9221 Y-75.9950
G01 X130.9324 Y-75.9955
G01 X131.9710 Y-75.9954
G01 X132.0184 Y-75.9917
G01 X132.0316 Y-75.9898
G01 X132.0404 Y-75.9880
G01 X132.2032 Y-75.9409
G01 X132.2171 Y-75.9362
G01 X132.2306 Y-75.9304
G01 X132.2435 Y-75.9235
G01 X132.3817 Y-75.8418
G01 X132.3910 Y-75.8359
G01 X132.3999 Y-75.8294
G01 X132.4083 Y-75.8224
G01 X132.4163 Y-75.8149
G01 X132.5299 Y-75.7013
G01 X132.5398 Y-75.6906
G01 X132.5488 Y-75.6790
G01 X132.5568 Y-75.6667
G01 X132.6421 Y-75.5221
G01 X132.6485 Y-75.5089
G01 X132.6525 Y-75.4987
G01 X132.6605 Y-75.4724
G01 X132.6820 Y-75.4310
G01 X132.7043 Y-75.4122
G01 X132.7358 Y-75.4023
G01 X132.7686 Y-75.4037
G01 X132.8545 Y-75.4208
G01 X132.8754 Y-75.4264
G01 X133.0440 Y-75.4836
G01 X133.0639 Y-75.4919
G01 X133.2236 Y-75.5706
G01 X133.2423 Y-75.5814
G01 X133.3903 Y-75.6803
G01 X133.4075 Y-75.6935
G01 X133.5166 Y-75.7892
G01 X133.5227 Y-75.7949
G01 X133.5305 Y-75.8046
G01 X133.5406 Y-75.8153
G01 X133.5515 Y-75.8250
G01 X133.5762 Y-75.8453
G01 X133.5881 Y-75.8561
G01 X133.6618 Y-75.9298
G01 X133.6755 Y-75.9454
G01 X133.6886 Y-75.9621
G01 X133.6950 Y-75.9695
G01 X133.7054 Y-75.9799
G01 X133.7186 Y-75.9911
G01 X133.7378 Y-76.0094
G01 X133.8451 Y-76.1295
G01 X133.8688 Y-76.1697
G01 X133.8729 Y-76.1985
G01 X133.8656 Y-76.2267
G01 X133.8482 Y-76.2499
G01 X133.8231 Y-76.2647
G01 X133.7925 Y-76.2691
G01 X133.7616 Y-76.2617
G01 X133.5904 Y-76.2120
G01 X133.5772 Y-76.2094
G01 X133.5684 Y-76.2083
G01 X133.5279 Y-76.2050
G01 X133.5176 Y-76.2045
G01 X131.8858 Y-76.2045
G01 X131.8721 Y-76.2050
G01 X131.8316 Y-76.2083
G01 X131.8184 Y-76.2102
G01 X131.8053 Y-76.2131
G01 X131.6433 Y-76.2601
G01 X131.6261 Y-76.2665
G01 X131.6162 Y-76.2712
G01 X131.6065 Y-76.2765
G01 X131.4683 Y-76.3582
G01 X131.4590 Y-76.3641
G01 X131.4501 Y-76.3706
G01 X131.4417 Y-76.3776
G01 X131.4337 Y-76.3851
G01 X131.3201 Y-76.4987
G01 X131.3079 Y-76.5123
G01 X131.3012 Y-76.5210
G01 X131.2951 Y-76.5302
G01 X131.2115 Y-76.6715
G01 X131.2030 Y-76.6878
G01 X131.1988 Y-76.6979
G01 X131.1941 Y-76.7118
G01 X131.1470 Y-76.8746
G01 X131.1452 Y-76.8834
G01 X131.1433 Y-76.8966
G01 X131.1400 Y-76.9371
G01 X131.1395 Y-76.9508
G01 X131.1395 Y-77.9792
G01 X131.1400 Y-77.9929
G01 X131.1433 Y-78.0334
G01 X131.1452 Y-78.0466
G01 X131.1486 Y-78.0615
G01 X131.1535 Y-78.1181
G01 X131.1513 Y-78.1290
G01 X131.1460 Y-78.1490
G01 X131.1438 Y-78.1622
G01 X131.1400 Y-78.2071
G01 X131.1395 Y-78.2174
G01 X131.1395 Y-79.2492
G01 X131.1400 Y-79.2629
G01 X131.1433 Y-79.3034
G01 X131.1452 Y-79.3166
G01 X131.1486 Y-79.3315
G01 X131.1535 Y-79.3881
G01 X131.1513 Y-79.3990
G01 X131.1460 Y-79.4190
G01 X131.1438 Y-79.4322
G01 X131.1400 Y-79.4771
G01 X131.1395 Y-79.4874
G01 X131.1395 Y-80.5192
G01 X131.1400 Y-80.5329
G01 X131.1433 Y-80.5734
G01 X131.1452 Y-80.5866
G01 X131.1486 Y-80.6015
G01 X131.1535 Y-80.6581
G01 X131.1513 Y-80.6690
G01 X131.1460 Y-80.6890
G01 X131.1438 Y-80.7022
G01 X131.1400 Y-80.7471
G01 X131.1395 Y-80.7574
G01 X131.1395 Y-81.7892
G01 X131.1400 Y-81.8029
G01 X131.1433 Y-81.8434
G01 X131.1452 Y-81.8566
G01 X131.1486 Y-81.8715
G01 X131.1535 Y-81.9281
G01 X131.1513 Y-81.9390
G01 X131.1460 Y-81.9590
G01 X131.1438 Y-81.9722
G01 X131.1400 Y-82.0171
G01 X131.1395 Y-82.0274
G01 X131.1395 Y-83.0592
G01 X131.1400 Y-83.0729
G01 X131.1433 Y-83.1134
G01 X131.1452 Y-83.1266
G01 X131.1486 Y-83.1415
G01 X131.1535 Y-83.1981
G01 X131.1513 Y-83.2090
G01 X131.1460 Y-83.2290
G01 X131.1438 Y-83.2422
G01 X131.1400 Y-83.2871
G01 X131.1395 Y-83.2974
G01 X131.1395 Y-84.3292
G01 X131.1400 Y-84.3429
G01 X131.1433 Y-84.3834
G01 X131.1452 Y-84.3966
G01 X131.1486 Y-84.4115
G01 X131.1535 Y-84.4681
G01 X131.1513 Y-84.4790
G01 X131.1460 Y-84.4990
G01 X131.1438 Y-84.5122
G01 X131.1400 Y-84.5571
G01 X131.1395 Y-84.5674
G01 X131.1395 Y-85.5992
G01 X131.1400 Y-85.6129
G01 X131.1433 Y-85.6534
G01 X131.1452 Y-85.6666
G01 X131.1486 Y-85.6815
G01 X131.1535 Y-85.7381
G01 X131.1513 Y-85.7490
G01 X131.1460 Y-85.7690
G01 X131.1438 Y-85.7822
G01 X131.1400 Y-85.8271
G01 X131.1395 Y-85.8374
G01 X131.1395 Y-86.8692
G01 X131.1400 Y-86.8829
G01 X131.1433 Y-86.9234
G01 X131.1452 Y-86.9366
G01 X131.1486 Y-86.9515
G01 X131.1535 Y-87.0081
G01 X131.1513 Y-87.0190
G01 X131.1460 Y-87.0390
G01 X131.1438 Y-87.0522
G01 X131.1400 Y-87.0971
G01 X131.1395 Y-87.1074
G01 X131.1395 Y-88.1392
G01 X131.1400 Y-88.1529
G01 X131.1433 Y-88.1934
G01 X131.1452 Y-88.2066
G01 X131.1470 Y-88.2154
G01 X131.1951 Y-88.3817
G01 X131.2001 Y-88.3955
G01 X131.2079 Y-88.4121
G01 X131.2474 Y-88.4791
G01 X131.2666 Y-88.5338
G01 X131.2670 Y-88.5398
G01 X131.2671 Y-88.6204
G01 X131.2678 Y-88.6332
G01 X131.2696 Y-88.6460
G01 X131.2754 Y-88.6752
G01 X131.2775 Y-88.6835
G01 X131.2814 Y-88.6958
G01 X131.2845 Y-88.7038
G01 X131.2898 Y-88.7155
G01 X131.2960 Y-88.7268
G01 X131.3031 Y-88.7376
G01 X131.3109 Y-88.7479
G01 X131.3224 Y-88.7606
G01 X131.3318 Y-88.7694
G01 X131.3454 Y-88.7799
G01 X131.3562 Y-88.7870
G01 X131.3713 Y-88.7951
G01 X131.3872 Y-88.8016
G01 X131.3995 Y-88.8055
G01 X131.4120 Y-88.8085
G01 X131.4370 Y-88.8134
G01 X131.4455 Y-88.8147
G01 X131.4583 Y-88.8158
G01 X131.5798 Y-88.8160
G01 X131.6304 Y-88.8265
G01 X131.6559 Y-88.8441
G01 X131.6717 Y-88.8685
G01 X131.6769 Y-88.8972
G01 X131.6708 Y-88.9256
G01 X131.6542 Y-88.9496
G01 X131.6292 Y-88.9657
G01 X131.5858 Y-88.9740
G01 X131.4669 Y-88.9740
G01 X131.4498 Y-88.9748
G01 X131.4370 Y-88.9766
G01 X131.4120 Y-88.9815
G01 X131.3995 Y-88.9845
G01 X131.3912 Y-88.9870
G01 X131.3752 Y-88.9931
G01 X131.3599 Y-89.0009
G01 X131.3454 Y-89.0101
G01 X131.3318 Y-89.0206
G01 X131.3194 Y-89.0325
G01 X131.3109 Y-89.0421
G01 X131.3056 Y-89.0489
G01 X131.2960 Y-89.0632
G01 X131.2879 Y-89.0783
G01 X131.2814 Y-89.0942
G01 X131.2764 Y-89.1106
G01 X131.2696 Y-89.1440
G01 X131.2678 Y-89.1568
G01 X131.2672 Y-89.1653
G01 X131.2670 Y-89.3862
G01 X131.2683 Y-89.4141
G01 X131.2731 Y-89.4583
G01 X131.2746 Y-89.4692
G01 X131.2768 Y-89.4799
G01 X131.2854 Y-89.5159
G01 X131.2905 Y-89.5315
G01 X131.3296 Y-89.6360
G01 X131.3371 Y-89.6531
G01 X131.3571 Y-89.6899
G01 X131.3635 Y-89.7006
G01 X131.3706 Y-89.7108
G01 X131.4362 Y-89.7984
G01 X131.4441 Y-89.8081
G01 X131.4525 Y-89.8172
G01 X131.4778 Y-89.8425
G01 X131.4917 Y-89.8549
G01 X131.5892 Y-89.9280
G01 X131.6051 Y-89.9379
G01 X131.6419 Y-89.9579
G01 X131.6532 Y-89.9631
G01 X131.7687 Y-90.0064
G01 X131.7844 Y-90.0109
G01 X131.8151 Y-90.0182
G01 X131.8258 Y-90.0204
G01 X131.8367 Y-90.0219
G01 X131.8786 Y-90.0265
G01 X131.9088 Y-90.0280
G01 X132.4211 Y-90.0280
G01 X132.4340 Y-90.0275
G01 X132.4468 Y-90.0261
G01 X132.4802 Y-90.0196
G01 X132.4927 Y-90.0163
G01 X132.5048 Y-90.0121
G01 X132.5167 Y-90.0071
G01 X132.5318 Y-89.9990
G01 X132.5426 Y-89.9919
G01 X132.5529 Y-89.9841
G01 X132.5625 Y-89.9756
G01 X132.5744 Y-89.9632
G01 X132.5824 Y-89.9531
G01 X132.5897 Y-89.9425
G01 X132.5982 Y-89.9275
G01 X132.6035 Y-89.9158
G01 X132.6080 Y-89.9038
G01 X132.6116 Y-89.8914
G01 X132.6184 Y-89.8580
G01 X132.6205 Y-89.8410
G01 X132.6210 Y-89.8281
G01 X132.6209 Y-89.3407
G01 X132.6197 Y-89.3236
G01 X132.6176 Y-89.3109
G01 X132.6147 Y-89.2983
G01 X132.6093 Y-89.2820
G01 X132.6060 Y-89.2741
G01 X132.6003 Y-89.2625
G01 X132.5939 Y-89.2514
G01 X132.5891 Y-89.2442
G01 X132.5813 Y-89.2340
G01 X132.5757 Y-89.2275
G01 X132.5667 Y-89.2183
G01 X132.5603 Y-89.2125
G01 X132.5502 Y-89.2044
G01 X132.5432 Y-89.1995
G01 X132.5360 Y-89.1949
G01 X132.5247 Y-89.1887
G01 X132.5169 Y-89.1850
G01 X132.5050 Y-89.1802
G01 X132.4968 Y-89.1775
G01 X132.4843 Y-89.1743
G01 X132.4717 Y-89.1719
G01 X132.4632 Y-89.1708
G01 X132.4460 Y-89.1700
G01 X132.1250 Y-89.1700
G01 X132.1250 Y-88.6200
G01 X133.2750 Y-88.6200
G01 X133.2751 Y-89.2956
G01 X133.2755 Y-89.3041
G01 X133.2769 Y-89.3169
G01 X133.2802 Y-89.3338
G01 X133.2852 Y-89.3502
G01 X133.2918 Y-89.3661
G01 X133.2999 Y-89.3812
G01 X133.3069 Y-89.3920
G01 X133.3147 Y-89.4023
G01 X133.3233 Y-89.4119
G01 X133.7122 Y-89.8009
G01 X133.7219 Y-89.8099
G01 X133.7358 Y-89.8207
G01 X133.7508 Y-89.8301
G01 X133.7666 Y-89.8379
G01 X133.7831 Y-89.8440
G01 X133.8001 Y-89.8485
G01 X133.8175 Y-89.8512
G01 X133.8351 Y-89.8522
G01 X133.8528 Y-89.8514
G01 X133.8702 Y-89.8488
G01 X133.8830 Y-89.8457
G01 X133.8956 Y-89.8417
G01 X133.9119 Y-89.8348
G01 X133.9236 Y-89.8287
G01 X133.9348 Y-89.8216
G01 X133.9488 Y-89.8109
G01 X133.9586 Y-89.8020
G01 X133.9676 Y-89.7924
G01 X133.9733 Y-89.7856
G01 X134.0330 Y-89.7058
G01 X134.0429 Y-89.6899
G01 X134.0629 Y-89.6531
G01 X134.0681 Y-89.6418
G01 X134.1114 Y-89.5263
G01 X134.1146 Y-89.5159
G01 X134.1232 Y-89.4799
G01 X134.1263 Y-89.4638
G01 X134.1315 Y-89.4164
G01 X134.1330 Y-89.3886
G01 X134.1330 Y-89.1739
G01 X134.1325 Y-89.1610
G01 X134.1317 Y-89.1525
G01 X134.1304 Y-89.1440
G01 X134.1255 Y-89.1190
G01 X134.1225 Y-89.1065
G01 X134.1186 Y-89.0942
G01 X134.1155 Y-89.0862
G01 X134.1082 Y-89.0706
G01 X134.1017 Y-89.0595
G01 X134.0969 Y-89.0524
G01 X134.0864 Y-89.0388
G01 X134.0776 Y-89.0294
G01 X134.0714 Y-89.0235
G01 X134.0615 Y-89.0152
G01 X134.0546 Y-89.0101
G01 X134.0475 Y-89.0053
G01 X134.0364 Y-88.9988
G01 X134.0248 Y-88.9931
G01 X134.0128 Y-88.9884
G01 X134.0005 Y-88.9845
G01 X133.9922 Y-88.9824
G01 X133.9588 Y-88.9759
G01 X133.9460 Y-88.9745
G01 X133.9374 Y-88.9741
G01 X133.8149 Y-88.9740
G01 X133.7691 Y-88.9649
G01 X133.7449 Y-88.9487
G01 X133.7288 Y-88.9245
G01 X133.7231 Y-88.8960
G01 X133.7288 Y-88.8675
G01 X133.7453 Y-88.8427
G01 X133.7690 Y-88.8266
G01 X133.8202 Y-88.8160
G01 X133.9374 Y-88.8159
G01 X133.9502 Y-88.8152
G01 X133.9630 Y-88.8134
G01 X133.9964 Y-88.8066
G01 X134.0088 Y-88.8030
G01 X134.0208 Y-88.7985
G01 X134.0325 Y-88.7932
G01 X134.0438 Y-88.7870
G01 X134.0546 Y-88.7799
G01 X134.0649 Y-88.7721
G01 X134.0745 Y-88.7636
G01 X134.0835 Y-88.7544
G01 X134.0918 Y-88.7445
G01 X134.0994 Y-88.7341
G01 X134.1061 Y-88.7231
G01 X134.1121 Y-88.7117
G01 X134.1155 Y-88.7038
G01 X134.1200 Y-88.6918
G01 X134.1236 Y-88.6794
G01 X134.1255 Y-88.6710
G01 X134.1304 Y-88.6460
G01 X134.1322 Y-88.6332
G01 X134.1330 Y-88.6161
G01 X134.1330 Y-88.5509
G01 X134.1443 Y-88.4940
G01 X134.1470 Y-88.4886
G01 X134.1656 Y-88.4572
G01 X134.1967 Y-88.4225
G01 X134.2230 Y-88.4099
G01 X134.2520 Y-88.4083
G01 X134.2795 Y-88.4179
G01 X134.3011 Y-88.4373
G01 X134.3165 Y-88.4693
G01 X134.3195 Y-88.4931
G01 X134.3195 Y-89.0087
G01 X134.3179 Y-89.0317
G01 X134.3160 Y-89.0457
G01 X134.3152 Y-89.0567
G01 X134.3147 Y-89.0835
G01 X134.3149 Y-89.0945
G01 X134.3176 Y-89.1236
G01 X134.3317 Y-89.3387
G01 X134.3328 Y-89.3501
G01 X134.3347 Y-89.3614
G01 X134.3819 Y-89.5985
G01 X134.3861 Y-89.6152
G01 X134.4655 Y-89.8496
G01 X134.4696 Y-89.8603
G01 X134.4743 Y-89.8708
G01 X134.5812 Y-90.0876
G01 X134.5866 Y-90.0977
G01 X134.5927 Y-90.1074
G01 X134.7270 Y-90.3085
G01 X134.7337 Y-90.3178
G01 X134.7409 Y-90.3267
G01 X134.8607 Y-90.4632
G01 X134.8836 Y-90.4922
G01 X134.8983 Y-90.5080
G01 X134.9127 Y-90.5223
G01 X134.9231 Y-90.5336
G01 X134.9403 Y-90.5634
G01 X134.9500 Y-90.5995
G01 X134.9498 Y-90.6108
G01 X134.9502 Y-90.6205
G01 X134.9537 Y-90.6571
G01 X134.9545 Y-90.6733
G01 X134.9545 Y-91.4584
G01 X134.9555 Y-91.4766
G01 X134.9583 Y-91.4946
G01 X134.9630 Y-91.5123
G01 X134.9677 Y-91.5251
G01 X134.9714 Y-91.5335
G01 X134.9801 Y-91.5495
G01 X134.9904 Y-91.5646
G01 X134.9991 Y-91.5751
G01 X135.0086 Y-91.5849
G01 X135.0618 Y-91.6332
G01 X135.1030 Y-91.6786
G01 X135.1395 Y-91.7279
G01 X135.1710 Y-91.7805
G01 X135.1972 Y-91.8359
G01 X135.2179 Y-91.8936
G01 X135.2328 Y-91.9531
G01 X135.2418 Y-92.0138
G01 X135.2448 Y-92.0750
G01 X135.2418 Y-92.1362
G01 X135.2328 Y-92.1969
G01 X135.2179 Y-92.2564
G01 X135.1972 Y-92.3141
G01 X135.1710 Y-92.3695
G01 X135.1395 Y-92.4221
G01 X135.1030 Y-92.4714
G01 X135.0618 Y-92.5168
G01 X135.0054 Y-92.5682
G01 X134.9961 Y-92.5783
G01 X134.9850 Y-92.5928
G01 X134.9778 Y-92.6044
G01 X134.9734 Y-92.6124
G01 X134.9677 Y-92.6249
G01 X134.9630 Y-92.6377
G01 X134.9593 Y-92.6509
G01 X134.9574 Y-92.6598
G01 X134.9555 Y-92.6734
G01 X134.9546 Y-92.6870
G01 X134.9545 Y-100.1834
G01 X134.9532 Y-100.2041
G01 X134.9506 Y-100.2252
G01 X134.9498 Y-100.2398
G01 X134.9502 Y-100.2545
G01 X134.9513 Y-100.2669
G01 X134.9520 Y-100.2935
G01 X134.9402 Y-100.5030
G01 X134.9381 Y-100.5215
G01 X134.8977 Y-100.7592
G01 X134.8936 Y-100.7773
G01 X134.8268 Y-101.0091
G01 X134.8207 Y-101.0266
G01 X134.7284 Y-101.2494
G01 X134.7204 Y-101.2661
G01 X134.6037 Y-101.4772
G01 X134.5938 Y-101.4929
G01 X134.4543 Y-101.6896
G01 X134.4427 Y-101.7041
G01 X134.3089 Y-101.8538
G01 X134.3001 Y-101.8629
G01 X134.2891 Y-101.8718
G01 X134.2785 Y-101.8818
G01 X134.2719 Y-101.8890
G01 X134.2639 Y-101.8986
G01 X134.2456 Y-101.9178
G01 X134.0891 Y-102.0577
G01 X134.0746 Y-102.0693
G01 X133.8779 Y-102.2088
G01 X133.8622 Y-102.2187
G01 X133.6511 Y-102.3353
G01 X133.6344 Y-102.3434
G01 X133.4116 Y-102.4357
G01 X133.3941 Y-102.4418
G01 X133.1623 Y-102.5086
G01 X133.1442 Y-102.5127
G01 X132.9065 Y-102.5531
G01 X132.8880 Y-102.5552
G01 X132.6870 Y-102.5665
G01 X132.6749 Y-102.5667
G01 X132.6560 Y-102.5649
G01 X132.6413 Y-102.5649
G01 X132.5998 Y-102.5687
G01 X132.5837 Y-102.5695
G01 X124.9585 Y-102.5695
G01 X124.9293 Y-102.5669
G01 X124.9165 Y-102.5654
G01 X124.7840 Y-102.5584
G01 X124.7634 Y-102.5561
G01 X124.7316 Y-102.5504
G01 X124.7097 Y-102.5448
G01 X124.6907 Y-102.5368
G01 X124.6757 Y-102.5279
G01 X124.6542 Y-102.5132
G01 X124.6442 Y-102.5058
G01 X124.5798 Y-102.4542
G01 X124.4742 Y-102.3666
G01 X124.3521 Y-102.2715
G01 X124.3307 Y-102.2554
G01 X124.3056 Y-102.2379
G01 X124.1723 Y-102.1484
G01 X124.1414 Y-102.1288
G01 X124.1089 Y-102.1101
G01 X123.9536 Y-102.0256
G01 X123.9441 Y-102.0211
G01 X123.9312 Y-102.0159
G01 X123.9125 Y-102.0071
G01 X123.8793 Y-101.9889
G01 X123.8628 Y-101.9817
G01 X123.6224 Y-101.8966
G01 X123.6120 Y-101.8938
G01 X123.6015 Y-101.8916
G01 X123.4834 Y-101.8705
G01 X123.4399 Y-101.8535
G01 X123.4189 Y-101.8334
G01 X123.4072 Y-101.8067
G01 X123.4067 Y-101.7776
G01 X123.4202 Y-101.7431
G01 X123.4316 Y-101.7289
G01 X123.8042 Y-101.3563
G01 X123.8216 Y-101.3411
G01 X123.8329 Y-101.3326
G01 X123.8412 Y-101.3254
G01 X123.8644 Y-101.3028
G01 X123.8860 Y-101.2794
G01 X123.8934 Y-101.2728
G01 X123.9011 Y-101.2650
G01 X123.9968 Y-101.1628
G01 X124.0187 Y-101.1384
G01 X124.1153 Y-101.0255
G01 X124.2030 Y-100.9135
G01 X124.2388 Y-100.8800
G01 X124.2756 Y-100.8662
G01 X124.2849 Y-100.8655
G01 X124.3660 Y-100.8654
G01 X124.4134 Y-100.8617
G01 X124.4266 Y-100.8598
G01 X124.4440 Y-100.8557
G01 X124.6017 Y-100.8099
G01 X124.6189 Y-100.8035
G01 X124.6353 Y-100.7953
G01 X124.7798 Y-100.7099
G01 X124.7949 Y-100.6994
G01 X124.8087 Y-100.6874
G01 X124.9249 Y-100.5713
G01 X124.9371 Y-100.5577
G01 X124.9459 Y-100.5460
G01 X124.9518 Y-100.5367
G01 X125.0300 Y-100.4044
G01 X125.0573 Y-100.3649
G01 X125.0823 Y-100.3488
G01 X125.1257 Y-100.3405
G01 X131.4136 Y-100.3405
G01 X131.4594 Y-100.3496
G01 X131.4842 Y-100.3662
G01 X131.5090 Y-100.4027
G01 X131.5882 Y-100.5367
G01 X131.5941 Y-100.5460
G01 X131.6006 Y-100.5549
G01 X131.6076 Y-100.5633
G01 X131.6151 Y-100.5713
G01 X131.7287 Y-100.6849
G01 X131.7394 Y-100.6948
G01 X131.7481 Y-100.7016
G01 X131.7633 Y-100.7118
G01 X131.9015 Y-100.7935
G01 X131.9112 Y-100.7988
G01 X131.9211 Y-100.8035
G01 X131.9313 Y-100.8075
G01 X131.9418 Y-100.8109
G01 X132.0960 Y-100.8557
G01 X132.1134 Y-100.8598
G01 X132.1311 Y-100.8621
G01 X132.1705 Y-100.8652
G01 X132.1808 Y-100.8655
G01 X133.8626 Y-100.8655
G01 X133.8729 Y-100.8650
G01 X133.9134 Y-100.8617
G01 X133.9266 Y-100.8598
G01 X133.9354 Y-100.8580
G01 X134.1017 Y-100.8099
G01 X134.1189 Y-100.8035
G01 X134.1353 Y-100.7953
G01 X134.2767 Y-100.7118
G01 X134.2919 Y-100.7016
G01 X134.3006 Y-100.6948
G01 X134.3113 Y-100.6849
G01 X134.4249 Y-100.5713
G01 X134.4371 Y-100.5577
G01 X134.4438 Y-100.5490
G01 X134.4518 Y-100.5367
G01 X134.5335 Y-100.3985
G01 X134.5388 Y-100.3888
G01 X134.5435 Y-100.3789
G01 X134.5475 Y-100.3687
G01 X134.5509 Y-100.3582
G01 X134.5957 Y-100.2040
G01 X134.5998 Y-100.1866
G01 X134.6021 Y-100.1689
G01 X134.6052 Y-100.1295
G01 X134.6055 Y-100.1192
G01 X134.6055 Y-98.6874
G01 X134.6050 Y-98.6771
G01 X134.6017 Y-98.6366
G01 X134.5998 Y-98.6234
G01 X134.5980 Y-98.6146
G01 X134.5499 Y-98.4483
G01 X134.5435 Y-98.4311
G01 X134.5353 Y-98.4147
G01 X134.4518 Y-98.2733
G01 X134.4416 Y-98.2581
G01 X134.4348 Y-98.2494
G01 X134.4249 Y-98.2387
G01 X134.3113 Y-98.1251
G01 X134.3006 Y-98.1152
G01 X134.2919 Y-98.1084
G01 X134.2767 Y-98.0982
G01 X134.1385 Y-98.0165
G01 X134.1256 Y-98.0096
G01 X134.1121 Y-98.0038
G01 X134.0982 Y-97.9991
G01 X133.9354 Y-97.9520
G01 X133.9222 Y-97.9494
G01 X133.9134 Y-97.9483
G01 X133.8729 Y-97.9450
G01 X133.8626 Y-97.9445
G01 X132.1808 Y-97.9445
G01 X132.1705 Y-97.9448
G01 X132.1311 Y-97.9479
G01 X132.1178 Y-97.9494
G01 X132.1090 Y-97.9510
G01 X132.0960 Y-97.9543
G01 X131.9418 Y-97.9991
G01 X131.9313 Y-98.0025
G01 X131.9211 Y-98.0065
G01 X131.9112 Y-98.0112
G01 X131.9015 Y-98.0165
G01 X131.7633 Y-98.0982
G01 X131.7481 Y-98.1084
G01 X131.7394 Y-98.1152
G01 X131.7287 Y-98.1251
G01 X131.6151 Y-98.2387
G01 X131.6076 Y-98.2467
G01 X131.6006 Y-98.2551
G01 X131.5941 Y-98.2640
G01 X131.5882 Y-98.2733
G01 X131.5100 Y-98.4056
G01 X131.4827 Y-98.4451
G01 X131.4577 Y-98.4612
G01 X131.4143 Y-98.4695
G01 X125.1264 Y-98.4695
G01 X125.0806 Y-98.4604
G01 X125.0558 Y-98.4438
G01 X125.0310 Y-98.4073
G01 X124.9518 Y-98.2733
G01 X124.9438 Y-98.2610
G01 X124.9371 Y-98.2523
G01 X124.9249 Y-98.2387
G01 X124.8113 Y-98.1251
G01 X124.7977 Y-98.1129
G01 X124.7860 Y-98.1041
G01 X124.7767 Y-98.0982
G01 X124.6353 Y-98.0147
G01 X124.6222 Y-98.0080
G01 X124.6121 Y-98.0038
G01 X124.5982 Y-97.9991
G01 X124.4354 Y-97.9520
G01 X124.4222 Y-97.9494
G01 X124.4134 Y-97.9483
G01 X124.3729 Y-97.9450
G01 X124.3626 Y-97.9445
G01 X122.6808 Y-97.9445
G01 X122.6671 Y-97.9450
G01 X122.6222 Y-97.9488
G01 X122.6090 Y-97.9510
G01 X122.5960 Y-97.9543
G01 X122.4418 Y-97.9991
G01 X122.4279 Y-98.0038
G01 X122.4144 Y-98.0096
G01 X122.4015 Y-98.0165
G01 X122.2633 Y-98.0982
G01 X122.2510 Y-98.1062
G01 X122.2423 Y-98.1129
G01 X122.2313 Y-98.1226
G01 X122.1603 Y-98.1934
G01 X122.1215 Y-98.2194
G01 X122.0930 Y-98.2250
G01 X122.0610 Y-98.2187
G01 X122.0319 Y-98.2008
G01 X122.0244 Y-98.1942
G01 X122.0149 Y-98.1829
G01 X122.0045 Y-98.1725
G01 X121.9725 Y-98.1459
G01 X121.9605 Y-98.1350
G01 X121.7288 Y-97.9033
G01 X121.7110 Y-97.8822
G01 X121.7003 Y-97.8686
G01 X121.6865 Y-97.8533
G01 X121.6572 Y-97.8053
G01 X121.6540 Y-97.7934
G01 X121.6457 Y-97.7458
G01 X121.6301 Y-97.6619
G01 X121.6263 Y-97.6428
G01 X121.6199 Y-97.6146
G01 X121.6155 Y-97.5768
G01 X121.6155 Y-97.2746
G01 X121.6150 Y-97.2643
G01 X121.6081 Y-97.1790
G01 X121.6062 Y-97.1671
G01 X121.6035 Y-97.1554
G01 X121.5553 Y-96.9756
G01 X121.5512 Y-96.9625
G01 X121.5479 Y-96.9539
G01 X121.5422 Y-96.9415
G01 X121.4577 Y-96.7756
G01 X121.4509 Y-96.7636
G01 X121.4460 Y-96.7559
G01 X121.4377 Y-96.7449
G01 X121.3146 Y-96.5933
G01 X121.3051 Y-96.5835
G01 X121.2982 Y-96.5773
G01 X121.2403 Y-96.5303
G01 X121.2104 Y-96.4944
G01 X121.2018 Y-96.4667
G01 X121.2045 Y-96.4377
G01 X121.2241 Y-96.4005
G01 X121.2959 Y-96.3284
G01 X121.3059 Y-96.3169
G01 X121.3270 Y-96.2899
G01 X121.3356 Y-96.2773
G01 X121.4129 Y-96.1519
G01 X121.4180 Y-96.1431
G01 X121.4349 Y-96.1075
G01 X121.4407 Y-96.0935
G01 X121.4918 Y-95.9388
G01 X121.4998 Y-95.9027
G01 X121.5023 Y-95.8886
G01 X121.5116 Y-95.7974
G01 X121.5128 Y-95.7778
G01 X121.5129 Y-95.5246
G01 X121.5122 Y-95.5118
G01 X121.5104 Y-95.4990
G01 X121.5055 Y-95.4740
G01 X121.5025 Y-95.4615
G01 X121.4986 Y-95.4492
G01 X121.4939 Y-95.4372
G01 X121.4882 Y-95.4256
G01 X121.4840 Y-95.4182
G01 X121.4794 Y-95.4109
G01 X121.4718 Y-95.4005
G01 X121.4635 Y-95.3906
G01 X121.4576 Y-95.3844
G01 X121.4514 Y-95.3785
G01 X121.4415 Y-95.3702
G01 X121.4311 Y-95.3626
G01 X121.4238 Y-95.3580
G01 X121.4164 Y-95.3538
G01 X121.4048 Y-95.3481
G01 X121.3928 Y-95.3434
G01 X121.3847 Y-95.3407
G01 X121.3680 Y-95.3365
G01 X121.3430 Y-95.3316
G01 X121.3345 Y-95.3303
G01 X121.3217 Y-95.3292
G01 X121.3131 Y-95.3290
G01 X120.8300 Y-95.3290
G01 X120.8171 Y-95.3295
G01 X120.8086 Y-95.3303
G01 X120.8001 Y-95.3316
G01 X120.7875 Y-95.3342
G01 X120.7792 Y-95.3365
G01 X120.7670 Y-95.3407
G01 X120.7552 Y-95.3458
G01 X120.7475 Y-95.3497
G01 X120.7364 Y-95.3562
G01 X120.7292 Y-95.3609
G01 X120.7157 Y-95.3715
G01 X120.7093 Y-95.3773
G01 X120.7003 Y-95.3865
G01 X120.6947 Y-95.3930
G01 X120.6869 Y-95.4032
G01 X120.6822 Y-95.4104
G01 X120.6757 Y-95.4215
G01 X120.6718 Y-95.4292
G01 X120.6667 Y-95.4410
G01 X120.6625 Y-95.4532
G01 X120.6593 Y-95.4657
G01 X120.6563 Y-95.4826
G01 X120.6552 Y-95.4954
G01 X120.6550 Y-95.7207
G01 X120.6544 Y-95.7323
G01 X120.6534 Y-95.7396
G01 X120.6516 Y-95.7467
G01 X120.6491 Y-95.7536
G01 X120.6460 Y-95.7603
G01 X120.6422 Y-95.7666
G01 X120.6378 Y-95.7724
G01 X120.6329 Y-95.7779
G01 X120.6274 Y-95.7828
G01 X120.6216 Y-95.7872
G01 X120.6153 Y-95.7910
G01 X120.6086 Y-95.7941
G01 X120.6017 Y-95.7966
G01 X120.5946 Y-95.7984
G01 X120.5873 Y-95.7994
G01 X120.5757 Y-95.8000
G01 X120.0843 Y-95.8000
G01 X120.0727 Y-95.7994
G01 X120.0654 Y-95.7984
G01 X120.0583 Y-95.7966
G01 X120.0514 Y-95.7941
G01 X120.0447 Y-95.7910
G01 X120.0384 Y-95.7872
G01 X120.0326 Y-95.7828
G01 X120.0271 Y-95.7779
G01 X120.0222 Y-95.7724
G01 X120.0178 Y-95.7666
G01 X120.0140 Y-95.7603
G01 X120.0109 Y-95.7536
G01 X120.0084 Y-95.7467
G01 X120.0066 Y-95.7396
G01 X120.0056 Y-95.7323
G01 X120.0050 Y-95.7207
G01 X120.0050 Y-94.7793
G01 X120.0056 Y-94.7677
G01 X120.0066 Y-94.7604
G01 X120.0084 Y-94.7533
G01 X120.0109 Y-94.7464
G01 X120.0140 Y-94.7397
G01 X120.0178 Y-94.7334
G01 X120.0222 Y-94.7276
G01 X120.0271 Y-94.7221
G01 X120.0326 Y-94.7172
G01 X120.0384 Y-94.7128
G01 X120.0447 Y-94.7090
G01 X120.0514 Y-94.7059
G01 X120.0583 Y-94.7034
G01 X120.0654 Y-94.7016
G01 X120.0727 Y-94.7006
G01 X120.0929 Y-94.6994
G01 X120.1053 Y-94.6977
G01 X120.1215 Y-94.6942
G01 X120.1334 Y-94.6905
G01 X120.1451 Y-94.6860
G01 X120.1600 Y-94.6787
G01 X120.1742 Y-94.6700
G01 X120.1875 Y-94.6600
G01 X120.1969 Y-94.6518
G01 X120.2056 Y-94.6428
G01 X120.2136 Y-94.6333
G01 X120.2210 Y-94.6232
G01 X120.2276 Y-94.6126
G01 X120.2334 Y-94.6016
G01 X120.2385 Y-94.5902
G01 X120.2439 Y-94.5745
G01 X120.2470 Y-94.5624
G01 X120.2486 Y-94.5542
G01 X120.2502 Y-94.5418
G01 X120.2510 Y-94.5294
G01 X120.2510 Y-94.0419
G01 X120.2502 Y-94.0248
G01 X120.2484 Y-94.0120
G01 X120.2426 Y-93.9828
G01 X120.2393 Y-93.9703
G01 X120.2366 Y-93.9622
G01 X120.2301 Y-93.9463
G01 X120.2220 Y-93.9312
G01 X120.2124 Y-93.9169
G01 X120.2015 Y-93.9036
G01 X120.1894 Y-93.8915
G01 X120.1761 Y-93.8806
G01 X120.1618 Y-93.8710
G01 X120.1505 Y-93.8648
G01 X120.1348 Y-93.8579
G01 X120.1185 Y-93.8525
G01 X120.1060 Y-93.8495
G01 X120.0768 Y-93.8439
G01 X120.0640 Y-93.8425
G01 X120.0511 Y-93.8420
G01 X120.0317 Y-93.8421
G01 X120.0073 Y-93.8434
G01 X119.9149 Y-93.8530
G01 X119.9008 Y-93.8555
G01 X119.8692 Y-93.8624
G01 X119.8554 Y-93.8663
G01 X119.7148 Y-93.9132
G01 X119.7053 Y-93.9167
G01 X119.6960 Y-93.9208
G01 X119.6650 Y-93.9354
G01 X119.6560 Y-93.9402
G01 X119.5341 Y-94.0156
G01 X119.4904 Y-94.0320
G01 X119.4613 Y-94.0309
G01 X119.4263 Y-94.0150
G01 X119.4034 Y-93.9962
G01 X119.3690 Y-93.9548
G01 X119.3612 Y-93.9354
G01 X119.3507 Y-93.8970
G01 X119.3085 Y-93.7504
G01 X119.2644 Y-93.6068
G01 X119.2596 Y-93.5604
G01 X119.2679 Y-93.5325
G01 X119.2863 Y-93.5099
G01 X119.3205 Y-93.4915
G01 X119.3316 Y-93.4898
G01 X119.3465 Y-93.4864
G01 X119.4031 Y-93.4815
G01 X119.4140 Y-93.4837
G01 X119.4340 Y-93.4890
G01 X119.4472 Y-93.4912
G01 X119.4921 Y-93.4950
G01 X119.5058 Y-93.4955
G01 X120.5376 Y-93.4955
G01 X120.5479 Y-93.4950
G01 X120.5884 Y-93.4917
G01 X120.6016 Y-93.4898
G01 X120.6165 Y-93.4864
G01 X120.6731 Y-93.4815
G01 X120.6840 Y-93.4837
G01 X120.7040 Y-93.4890
G01 X120.7172 Y-93.4912
G01 X120.7621 Y-93.4950
G01 X120.7724 Y-93.4955
G01 X121.8042 Y-93.4955
G01 X121.8179 Y-93.4950
G01 X121.8584 Y-93.4917
G01 X121.8716 Y-93.4898
G01 X121.8865 Y-93.4864
G01 X121.9431 Y-93.4815
G01 X121.9540 Y-93.4837
G01 X121.9696 Y-93.4880
G01 X121.9828 Y-93.4906
G01 X121.9961 Y-93.4921
G01 X122.0389 Y-93.4954
G01 X122.3823 Y-93.4955
G01 X122.4281 Y-93.5046
G01 X122.4523 Y-93.5208
G01 X122.4684 Y-93.5450
G01 X122.4741 Y-93.5735
G01 X122.4684 Y-93.6020
G01 X122.4496 Y-93.6303
G01 X122.4261 Y-93.6479
G01 X122.3947 Y-93.6652
G01 X122.3842 Y-93.6720
G01 X122.2867 Y-93.7451
G01 X122.2773 Y-93.7532
G01 X122.2475 Y-93.7828
G01 X122.2391 Y-93.7919
G01 X122.2312 Y-93.8016
G01 X122.1620 Y-93.8942
G01 X122.1521 Y-93.9101
G01 X122.1321 Y-93.9469
G01 X122.1246 Y-93.9640
G01 X122.0836 Y-94.0737
G01 X122.0791 Y-94.0894
G01 X122.0706 Y-94.1254
G01 X122.0681 Y-94.1417
G01 X122.0635 Y-94.1836
G01 X122.0620 Y-94.2114
G01 X122.0620 Y-94.6261
G01 X122.0622 Y-94.6347
G01 X122.0633 Y-94.6475
G01 X122.0646 Y-94.6560
G01 X122.0695 Y-94.6810
G01 X122.0737 Y-94.6977
G01 X122.0764 Y-94.7058
G01 X122.0811 Y-94.7178
G01 X122.0868 Y-94.7294
G01 X122.0910 Y-94.7368
G01 X122.0981 Y-94.7476
G01 X122.1059 Y-94.7579
G01 X122.1115 Y-94.7644
G01 X122.1205 Y-94.7736
G01 X122.1268 Y-94.7794
G01 X122.1369 Y-94.7874
G01 X122.1475 Y-94.7947
G01 X122.1549 Y-94.7991
G01 X122.1663 Y-94.8051
G01 X122.1782 Y-94.8101
G01 X122.1903 Y-94.8143
G01 X122.1986 Y-94.8166
G01 X122.2362 Y-94.8241
G01 X122.2490 Y-94.8255
G01 X122.2576 Y-94.8259
G01 X122.7493 Y-94.8259
G01 X122.7664 Y-94.8247
G01 X122.7749 Y-94.8234
G01 X122.7875 Y-94.8208
G01 X122.8040 Y-94.8158
G01 X122.8198 Y-94.8092
G01 X122.8275 Y-94.8053
G01 X122.8386 Y-94.7988
G01 X122.8527 Y-94.7890
G01 X122.8657 Y-94.7777
G01 X122.8747 Y-94.7685
G01 X122.8803 Y-94.7620
G01 X122.8905 Y-94.7482
G01 X122.8993 Y-94.7335
G01 X122.9032 Y-94.7258
G01 X122.9083 Y-94.7140
G01 X122.9137 Y-94.6977
G01 X122.9157 Y-94.6893
G01 X122.9181 Y-94.6767
G01 X122.9192 Y-94.6682
G01 X122.9199 Y-94.6553
G01 X122.9200 Y-94.4300
G01 X124.1200 Y-94.4300
G01 X124.1201 Y-94.6553
G01 X124.1213 Y-94.6724
G01 X124.1243 Y-94.6893
G01 X124.1288 Y-94.7059
G01 X124.1317 Y-94.7140
G01 X124.1368 Y-94.7258
G01 X124.1449 Y-94.7410
G01 X124.1544 Y-94.7552
G01 X124.1653 Y-94.7685
G01 X124.1775 Y-94.7807
G01 X124.1908 Y-94.7916
G01 X124.2050 Y-94.8011
G01 X124.2125 Y-94.8053
G01 X124.2241 Y-94.8110
G01 X124.2360 Y-94.8158
G01 X124.2442 Y-94.8185
G01 X124.2525 Y-94.8208
G01 X124.2651 Y-94.8234
G01 X124.2778 Y-94.8252
G01 X124.2864 Y-94.8258
G01 X124.7781 Y-94.8260
G01 X124.7952 Y-94.8252
G01 X124.8080 Y-94.8234
G01 X124.8372 Y-94.8176
G01 X124.8497 Y-94.8143
G01 X124.8618 Y-94.8101
G01 X124.8775 Y-94.8032
G01 X124.8888 Y-94.7970
G01 X124.8996 Y-94.7899
G01 X124.9132 Y-94.7794
G01 X124.9226 Y-94.7706
G01 X124.9314 Y-94.7612
G01 X124.9419 Y-94.7476
G01 X124.9511 Y-94.7331
G01 X124.9571 Y-94.7217
G01 X124.9636 Y-94.7058
G01 X124.9675 Y-94.6935
G01 X124.9705 Y-94.6810
G01 X124.9761 Y-94.6518
G01 X124.9775 Y-94.6390
G01 X124.9780 Y-94.6261
G01 X124.9780 Y-94.2114
G01 X124.9767 Y-94.1859
G01 X124.9719 Y-94.1417
G01 X124.9694 Y-94.1254
G01 X124.9609 Y-94.0895
G01 X124.9581 Y-94.0789
G01 X124.9545 Y-94.0685
G01 X124.9154 Y-93.9640
G01 X124.9079 Y-93.9469
G01 X124.8879 Y-93.9101
G01 X124.8815 Y-93.8994
G01 X124.8744 Y-93.8892
G01 X124.8049 Y-93.7967
G01 X124.7925 Y-93.7828
G01 X124.7627 Y-93.7532
G01 X124.7484 Y-93.7412
G01 X124.6558 Y-93.6720
G01 X124.6453 Y-93.6652
G01 X124.6181 Y-93.6502
G01 X124.5823 Y-93.6202
G01 X124.5689 Y-93.5944
G01 X124.5663 Y-93.5654
G01 X124.5750 Y-93.5377
G01 X124.5937 Y-93.5154
G01 X124.6239 Y-93.4997
G01 X124.6529 Y-93.4955
G01 X125.6176 Y-93.4955
G01 X125.6279 Y-93.4950
G01 X125.6684 Y-93.4917
G01 X125.6816 Y-93.4898
G01 X125.6965 Y-93.4864
G01 X125.7531 Y-93.4815
G01 X125.7640 Y-93.4837
G01 X125.7840 Y-93.4890
G01 X125.7972 Y-93.4912
G01 X125.8421 Y-93.4950
G01 X125.8558 Y-93.4955
G01 X126.8876 Y-93.4955
G01 X126.8979 Y-93.4950
G01 X126.9384 Y-93.4917
G01 X126.9516 Y-93.4898
G01 X126.9665 Y-93.4864
G01 X127.0231 Y-93.4815
G01 X127.0340 Y-93.4837
G01 X127.0540 Y-93.4890
G01 X127.0672 Y-93.4912
G01 X127.1121 Y-93.4950
G01 X127.1258 Y-93.4955
G01 X128.1576 Y-93.4955
G01 X128.1679 Y-93.4950
G01 X128.2084 Y-93.4917
G01 X128.2216 Y-93.4898
G01 X128.2365 Y-93.4864
G01 X128.2931 Y-93.4815
G01 X128.3040 Y-93.4837
G01 X128.3240 Y-93.4890
G01 X128.3372 Y-93.4912
G01 X128.3821 Y-93.4950
G01 X128.3958 Y-93.4955
G01 X129.4276 Y-93.4955
G01 X129.4379 Y-93.4950
G01 X129.4784 Y-93.4917
G01 X129.4916 Y-93.4898
G01 X129.5065 Y-93.4864
G01 X129.5631 Y-93.4815
G01 X129.5740 Y-93.4837
G01 X129.5940 Y-93.4890
G01 X129.6072 Y-93.4912
G01 X129.6521 Y-93.4950
G01 X129.6658 Y-93.4955
G01 X130.6976 Y-93.4955
G01 X130.7079 Y-93.4950
G01 X130.7484 Y-93.4917
G01 X130.7616 Y-93.4898
G01 X130.7765 Y-93.4864
G01 X130.8331 Y-93.4815
G01 X130.8440 Y-93.4837
G01 X130.8640 Y-93.4890
G01 X130.8772 Y-93.4912
G01 X130.9221 Y-93.4950
G01 X130.9324 Y-93.4955
G01 X131.8823 Y-93.4955
G01 X131.9281 Y-93.5046
G01 X131.9606 Y-93.5263
G01 X131.9755 Y-93.5347
G01 X131.9833 Y-93.5384
G01 X131.9953 Y-93.5432
G01 X132.0034 Y-93.5459
G01 X132.0157 Y-93.5491
G01 X132.0064 Y-93.5566
G01 X132.0001 Y-93.5624
G01 X131.9911 Y-93.5716
G01 X131.9855 Y-93.5781
G01 X131.9777 Y-93.5883
G01 X131.9496 Y-93.6303
G01 X131.9261 Y-93.6479
G01 X131.8947 Y-93.6652
G01 X131.8842 Y-93.6720
G01 X131.7916 Y-93.7412
G01 X131.7819 Y-93.7491
G01 X131.7728 Y-93.7575
G01 X131.7432 Y-93.7873
G01 X131.7351 Y-93.7967
G01 X131.6620 Y-93.8942
G01 X131.6552 Y-93.9047
G01 X131.6350 Y-93.9414
G01 X131.6294 Y-93.9525
G01 X131.6246 Y-93.9640
G01 X131.5855 Y-94.0685
G01 X131.5804 Y-94.0841
G01 X131.5718 Y-94.1201
G01 X131.5687 Y-94.1362
G01 X131.5635 Y-94.1836
G01 X131.5620 Y-94.2114
G01 X131.5621 Y-94.6304
G01 X131.5628 Y-94.6432
G01 X131.5646 Y-94.6560
G01 X131.5704 Y-94.6852
G01 X131.5737 Y-94.6977
G01 X131.5795 Y-94.7138
G01 X131.5848 Y-94.7255
G01 X131.5910 Y-94.7368
G01 X131.5981 Y-94.7476
G01 X131.6059 Y-94.7579
G01 X131.6144 Y-94.7675
G01 X131.6236 Y-94.7765
G01 X131.6335 Y-94.7848
G01 X131.6439 Y-94.7924
G01 X131.6549 Y-94.7991
G01 X131.6663 Y-94.8051
G01 X131.6782 Y-94.8101
G01 X131.6903 Y-94.8143
G01 X131.6986 Y-94.8166
G01 X131.7362 Y-94.8241
G01 X131.7490 Y-94.8255
G01 X131.7619 Y-94.8260
G01 X131.9637 Y-94.8260
G01 X132.1404 Y-94.8174
G01 X132.1575 Y-94.8157
G01 X132.2707 Y-94.7989
G01 X132.2838 Y-94.7965
G01 X132.2924 Y-94.7943
G01 X132.3051 Y-94.7902
G01 X132.3175 Y-94.7851
G01 X132.3255 Y-94.7813
G01 X132.3371 Y-94.7747
G01 X132.3445 Y-94.7698
G01 X132.3552 Y-94.7618
G01 X132.3620 Y-94.7560
G01 X132.3746 Y-94.7435
G01 X132.3804 Y-94.7367
G01 X132.3884 Y-94.7261
G01 X132.3957 Y-94.7149
G01 X132.4000 Y-94.7071
G01 X132.4039 Y-94.6991
G01 X132.4090 Y-94.6868
G01 X132.4132 Y-94.6741
G01 X132.4164 Y-94.6612
G01 X132.4186 Y-94.6480
G01 X132.4198 Y-94.6347
G01 X132.4200 Y-94.4300
G01 X132.7703 Y-94.4299
G01 X132.7832 Y-94.4292
G01 X132.7959 Y-94.4274
G01 X132.8085 Y-94.4248
G01 X132.8209 Y-94.4212
G01 X132.8330 Y-94.4167
G01 X132.8485 Y-94.4093
G01 X132.8596 Y-94.4028
G01 X132.8702 Y-94.3956
G01 X132.8803 Y-94.3875
G01 X132.8897 Y-94.3787
G01 X132.8985 Y-94.3693
G01 X132.9066 Y-94.3592
G01 X132.9139 Y-94.3486
G01 X132.9203 Y-94.3375
G01 X132.9260 Y-94.3259
G01 X132.9308 Y-94.3140
G01 X132.9347 Y-94.3017
G01 X132.9376 Y-94.2891
G01 X132.9397 Y-94.2764
G01 X132.9409 Y-94.2593
G01 X132.9410 Y-93.7719
G01 X132.9402 Y-93.7548
G01 X132.9384 Y-93.7420
G01 X132.9316 Y-93.7086
G01 X132.9266 Y-93.6922
G01 X132.9219 Y-93.6802
G01 X132.9141 Y-93.6649
G01 X132.9049 Y-93.6504
G01 X132.8944 Y-93.6368
G01 X132.8825 Y-93.6244
G01 X132.8695 Y-93.6132
G01 X132.8591 Y-93.6056
G01 X132.8444 Y-93.5968
G01 X132.8288 Y-93.5895
G01 X132.8127 Y-93.5837
G01 X132.8002 Y-93.5804
G01 X132.7710 Y-93.5746
G01 X132.7582 Y-93.5728
G01 X132.7411 Y-93.5720
G01 X132.2926 Y-93.5720
G01 X132.2469 Y-93.5629
G01 X132.2144 Y-93.5412
G01 X132.1994 Y-93.5328
G01 X132.1917 Y-93.5291
G01 X132.1797 Y-93.5243
G01 X132.1715 Y-93.5216
G01 X132.1592 Y-93.5184
G01 X132.1685 Y-93.5109
G01 X132.1749 Y-93.5051
G01 X132.1839 Y-93.4959
G01 X132.1895 Y-93.4894
G01 X132.1973 Y-93.4792
G01 X132.2231 Y-93.4407
G01 X132.2576 Y-93.4172
G01 X132.2683 Y-93.4088
G01 X132.3848 Y-93.3399
G01 X132.3940 Y-93.3338
G01 X132.4027 Y-93.3271
G01 X132.4163 Y-93.3149
G01 X132.5299 Y-93.2013
G01 X132.5374 Y-93.1933
G01 X132.5466 Y-93.1819
G01 X132.5568 Y-93.1667
G01 X132.6385 Y-93.0285
G01 X132.6454 Y-93.0156
G01 X132.6512 Y-93.0021
G01 X132.6559 Y-92.9882
G01 X132.7030 Y-92.8254
G01 X132.7048 Y-92.8166
G01 X132.7067 Y-92.8034
G01 X132.7100 Y-92.7629
G01 X132.7105 Y-92.7492
G01 X132.7105 Y-91.1208
G01 X132.7100 Y-91.1071
G01 X132.7071 Y-91.0711
G01 X132.7056 Y-91.0578
G01 X132.7040 Y-91.0490
G01 X132.7007 Y-91.0360
G01 X132.6559 Y-90.8818
G01 X132.6525 Y-90.8713
G01 X132.6485 Y-90.8611
G01 X132.6438 Y-90.8512
G01 X132.6385 Y-90.8415
G01 X132.5549 Y-90.7002
G01 X132.5444 Y-90.6851
G01 X132.5324 Y-90.6713
G01 X132.4163 Y-90.5551
G01 X132.4083 Y-90.5476
G01 X132.3999 Y-90.5406
G01 X132.3910 Y-90.5341
G01 X132.3817 Y-90.5282
G01 X132.2403 Y-90.4447
G01 X132.2272 Y-90.4380
G01 X132.2137 Y-90.4325
G01 X132.2032 Y-90.4291
G01 X132.0404 Y-90.3820
G01 X132.0272 Y-90.3794
G01 X132.0184 Y-90.3783
G01 X131.9779 Y-90.3750
G01 X131.9642 Y-90.3745
G01 X130.9324 Y-90.3745
G01 X130.9221 Y-90.3750
G01 X130.8816 Y-90.3783
G01 X130.8684 Y-90.3802
G01 X130.8535 Y-90.3836
G01 X130.7969 Y-90.3885
G01 X130.7860 Y-90.3863
G01 X130.7660 Y-90.3810
G01 X130.7528 Y-90.3788
G01 X130.7079 Y-90.3750
G01 X130.6942 Y-90.3745
G01 X129.6624 Y-90.3745
G01 X129.6521 Y-90.3750
G01 X129.6116 Y-90.3783
G01 X129.5984 Y-90.3802
G01 X129.5835 Y-90.3836
G01 X129.5269 Y-90.3885
G01 X129.5160 Y-90.3863
G01 X129.4960 Y-90.3810
G01 X129.4828 Y-90.3788
G01 X129.4379 Y-90.3750
G01 X129.4242 Y-90.3745
G01 X128.3924 Y-90.3745
G01 X128.3821 Y-90.3750
G01 X128.3416 Y-90.3783
G01 X128.3284 Y-90.3802
G01 X128.3135 Y-90.3836
G01 X128.2569 Y-90.3885
G01 X128.2460 Y-90.3863
G01 X128.2260 Y-90.3810
G01 X128.2128 Y-90.3788
G01 X128.1679 Y-90.3750
G01 X128.1542 Y-90.3745
G01 X127.1224 Y-90.3745
G01 X127.1121 Y-90.3750
G01 X127.0716 Y-90.3783
G01 X127.0584 Y-90.3802
G01 X127.0435 Y-90.3836
G01 X126.9869 Y-90.3885
G01 X126.9760 Y-90.3863
G01 X126.9560 Y-90.3810
G01 X126.9428 Y-90.3788
G01 X126.8979 Y-90.3750
G01 X126.8842 Y-90.3745
G01 X125.8524 Y-90.3745
G01 X125.8421 Y-90.3750
G01 X125.8016 Y-90.3783
G01 X125.7884 Y-90.3802
G01 X125.7735 Y-90.3836
G01 X125.7169 Y-90.3885
G01 X125.7060 Y-90.3863
G01 X125.6860 Y-90.3810
G01 X125.6728 Y-90.3788
G01 X125.6279 Y-90.3750
G01 X125.6142 Y-90.3745
G01 X124.5824 Y-90.3745
G01 X124.5721 Y-90.3750
G01 X124.5316 Y-90.3783
G01 X124.5184 Y-90.3802
G01 X124.5035 Y-90.3836
G01 X124.4469 Y-90.3885
G01 X124.4360 Y-90.3863
G01 X124.4160 Y-90.3810
G01 X124.4028 Y-90.3788
G01 X124.3579 Y-90.3750
G01 X124.3442 Y-90.3745
G01 X123.3124 Y-90.3745
G01 X123.3021 Y-90.3750
G01 X123.2616 Y-90.3783
G01 X123.2484 Y-90.3802
G01 X123.2335 Y-90.3836
G01 X123.1769 Y-90.3885
G01 X123.1660 Y-90.3863
G01 X123.1460 Y-90.3810
G01 X123.1328 Y-90.3788
G01 X123.0879 Y-90.3750
G01 X123.0742 Y-90.3745
G01 X122.0424 Y-90.3745
G01 X122.0321 Y-90.3750
G01 X121.9916 Y-90.3783
G01 X121.9784 Y-90.3802
G01 X121.9635 Y-90.3836
G01 X121.9069 Y-90.3885
G01 X121.8960 Y-90.3863
G01 X121.8760 Y-90.3810
G01 X121.8628 Y-90.3788
G01 X121.8179 Y-90.3750
G01 X121.8042 Y-90.3745
G01 X120.7724 Y-90.3745
G01 X120.7621 Y-90.3750
G01 X120.7216 Y-90.3783
G01 X120.7084 Y-90.3802
G01 X120.6935 Y-90.3836
G01 X120.6369 Y-90.3885
G01 X120.6260 Y-90.3863
G01 X120.6060 Y-90.3810
G01 X120.5928 Y-90.3788
G01 X120.5479 Y-90.3750
G01 X120.5342 Y-90.3745
G01 X119.5024 Y-90.3745
G01 X119.4921 Y-90.3750
G01 X119.4516 Y-90.3783
G01 X119.4384 Y-90.3802
G01 X119.4235 Y-90.3836
G01 X119.3669 Y-90.3885
G01 X119.3560 Y-90.3863
G01 X119.3360 Y-90.3810
G01 X119.3228 Y-90.3788
G01 X119.2779 Y-90.3750
G01 X119.2642 Y-90.3745
G01 X118.2324 Y-90.3745
G01 X118.2221 Y-90.3750
G01 X118.1816 Y-90.3783
G01 X118.1684 Y-90.3802
G01 X118.1535 Y-90.3836
G01 X118.0969 Y-90.3885
G01 X118.0860 Y-90.3863
G01 X118.0660 Y-90.3810
G01 X118.0528 Y-90.3788
G01 X118.0079 Y-90.3750
G01 X117.9942 Y-90.3745
G01 X116.9624 Y-90.3745
G01 X116.9521 Y-90.3750
G01 X116.9116 Y-90.3783
G01 X116.8984 Y-90.3802
G01 X116.8835 Y-90.3836
G01 X116.8269 Y-90.3885
G01 X116.8160 Y-90.3863
G01 X116.7960 Y-90.3810
G01 X116.7828 Y-90.3788
G01 X116.7379 Y-90.3750
G01 X116.7276 Y-90.3745
G01 X115.6924 Y-90.3745
G01 X115.6821 Y-90.3750
G01 X115.6416 Y-90.3783
G01 X115.6284 Y-90.3802
G01 X115.6196 Y-90.3820
G01 X115.4533 Y-90.4301
G01 X115.4361 Y-90.4365
G01 X115.4229 Y-90.4429
G01 X115.3559 Y-90.4824
G01 X115.3012 Y-90.5016
G01 X115.2952 Y-90.5020
G01 X115.2146 Y-90.5021
G01 X115.2018 Y-90.5028
G01 X115.1890 Y-90.5046
G01 X115.1598 Y-90.5104
G01 X115.1473 Y-90.5137
G01 X115.1392 Y-90.5164
G01 X115.1272 Y-90.5211
G01 X115.1156 Y-90.5268
G01 X115.1082 Y-90.5310
G01 X115.0974 Y-90.5381
G01 X115.0838 Y-90.5486
G01 X115.0744 Y-90.5574
G01 X115.0656 Y-90.5668
G01 X115.0551 Y-90.5804
G01 X115.0459 Y-90.5949
G01 X115.0399 Y-90.6063
G01 X115.0334 Y-90.6222
G01 X115.0295 Y-90.6345
G01 X115.0265 Y-90.6470
G01 X115.0216 Y-90.6720
G01 X115.0203 Y-90.6805
G01 X115.0192 Y-90.6933
G01 X115.0190 Y-90.8148
G01 X115.0085 Y-90.8654
G01 X114.9909 Y-90.8909
G01 X114.9665 Y-90.9067
G01 X114.9378 Y-90.9119
G01 X114.9094 Y-90.9058
G01 X114.8854 Y-90.8892
G01 X114.8693 Y-90.8642
G01 X114.8610 Y-90.8208
G01 X114.8608 Y-90.6933
G01 X114.8591 Y-90.6762
G01 X114.8535 Y-90.6470
G01 X114.8505 Y-90.6345
G01 X114.8466 Y-90.6222
G01 X114.8419 Y-90.6102
G01 X114.8362 Y-90.5986
G01 X114.8297 Y-90.5875
G01 X114.8224 Y-90.5769
G01 X114.8144 Y-90.5668
G01 X114.8056 Y-90.5574
G01 X114.7962 Y-90.5486
G01 X114.7861 Y-90.5406
G01 X114.7755 Y-90.5333
G01 X114.7681 Y-90.5289
G01 X114.7605 Y-90.5248
G01 X114.7488 Y-90.5195
G01 X114.7368 Y-90.5150
G01 X114.7285 Y-90.5125
G01 X114.7160 Y-90.5095
G01 X114.6910 Y-90.5046
G01 X114.6740 Y-90.5025
G01 X114.6611 Y-90.5020
G01 X114.5707 Y-90.5020
G01 X114.5250 Y-90.4929
G01 X114.5008 Y-90.4767
G01 X114.4846 Y-90.4525
G01 X114.4755 Y-90.4068
G01 X114.4755 Y-75.9632
G00 Z2.0000
G00 X117.4800 Y-73.7974
G01 F60.00
G01 Z-2.4000
G01 F120.00
G01 X117.4898 Y-73.8082
G01 X117.4990 Y-73.8168
G01 X117.5121 Y-73.8272
G01 X117.5226 Y-73.8341
G01 X117.5335 Y-73.8403
G01 X117.5487 Y-73.8473
G01 X117.5646 Y-73.8528
G01 X117.5767 Y-73.8560
G01 X117.5932 Y-73.8587
G01 X117.6099 Y-73.8600
G01 X117.7550 Y-73.8600
G01 X117.7550 Y-75.0100
G01 X117.2050 Y-75.0100
G01 X117.2050 Y-73.8600
G01 X117.3501 Y-73.8600
G01 X117.3668 Y-73.8587
G01 X117.3833 Y-73.8560
G01 X117.3954 Y-73.8528
G01 X117.4113 Y-73.8473
G01 X117.4265 Y-73.8403
G01 X117.4374 Y-73.8341
G01 X117.4479 Y-73.8272
G01 X117.4610 Y-73.8168
G01 X117.4702 Y-73.8082
G01 X117.4800 Y-73.7974
G00 Z2.0000
G00 X118.4750 Y-75.0100
G01 F60.00
G01 Z-2.4000
G01 F120.00
G01 X118.4750 Y-73.8600
G01 X118.6201 Y-73.8600
G01 X118.6368 Y-73.8587
G01 X118.6533 Y-73.8560
G01 X118.6654 Y-73.8528
G01 X118.6813 Y-73.8473
G01 X118.6965 Y-73.8403
G01 X118.7074 Y-73.8341
G01 X118.7179 Y-73.8272
G01 X118.7310 Y-73.8168
G01 X118.7402 Y-73.8082
G01 X118.7500 Y-73.7974
G01 X118.7598 Y-73.8082
G01 X118.7690 Y-73.8168
G01 X118.7821 Y-73.8272
G01 X118.7926 Y-73.8341
G01 X118.8035 Y-73.8403
G01 X118.8187 Y-73.8473
G01 X118.8346 Y-73.8528
G01 X118.8467 Y-73.8560
G01 X118.8632 Y-73.8587
G01 X118.8799 Y-73.8600
G01 X119.0250 Y-73.8600
G01 X119.0250 Y-75.0100
G01 X118.4750 Y-75.0100
G00 Z2.0000
G00 X119.7450 Y-75.0100
G01 F60.00
G01 Z-2.4000
G01 F120.00
G01 X119.7450 Y-73.8600
G01 X119.8394 Y-73.8600
G01 X119.8567 Y-73.8591
G01 X119.8696 Y-73.8574
G01 X119.8823 Y-73.8547
G01 X119.8989 Y-73.8496
G01 X119.9109 Y-73.8447
G01 X119.9264 Y-73.8368
G01 X119.9410 Y-73.8275
G01 X119.9546 Y-73.8167
G01 X119.9671 Y-73.8047
G01 X119.9783 Y-73.7914
G01 X119.9881 Y-73.7772
G01 X119.9965 Y-73.7620
G01 X120.0028 Y-73.7476
G01 X120.0079 Y-73.7596
G01 X120.0118 Y-73.7675
G01 X120.0209 Y-73.7826
G01 X120.0314 Y-73.7966
G01 X120.0433 Y-73.8096
G01 X120.0564 Y-73.8213
G01 X120.0706 Y-73.8316
G01 X120.0858 Y-73.8405
G01 X120.1018 Y-73.8477
G01 X120.1142 Y-73.8521
G01 X120.1270 Y-73.8555
G01 X120.1399 Y-73.8580
G01 X120.1530 Y-73.8595
G01 X120.1662 Y-73.8600
G01 X120.2950 Y-73.8600
G01 X120.2950 Y-75.0100
G01 X119.7450 Y-75.0100
G00 Z2.0000
G00 X121.0150 Y-75.0100
G01 F60.00
G01 Z-2.4000
G01 F120.00
G01 X121.0150 Y-73.8600
G01 X121.2078 Y-73.8600
G01 X121.2244 Y-73.8588
G01 X121.2326 Y-73.8576
G01 X121.2448 Y-73.8551
G01 X121.2608 Y-73.8504
G01 X121.2762 Y-73.8443
G01 X121.2910 Y-73.8367
G01 X121.3050 Y-73.8277
G01 X121.3181 Y-73.8174
G01 X121.3301 Y-73.8060
G01 X121.3410 Y-73.7934
G01 X121.3460 Y-73.7868
G01 X121.3525 Y-73.7770
G01 X121.3616 Y-73.7904
G01 X121.3697 Y-73.8003
G01 X121.3815 Y-73.8125
G01 X121.3911 Y-73.8209
G01 X121.4014 Y-73.8286
G01 X121.4121 Y-73.8355
G01 X121.4233 Y-73.8416
G01 X121.4389 Y-73.8485
G01 X121.4510 Y-73.8526
G01 X121.4633 Y-73.8558
G01 X121.4759 Y-73.8581
G01 X121.4844 Y-73.8592
G01 X121.5014 Y-73.8600
G01 X121.5650 Y-73.8600
G01 X121.5650 Y-75.0100
G01 X121.0150 Y-75.0100
G00 Z2.0000
G00 X122.2850 Y-75.0100
G01 F60.00
G01 Z-2.4000
G01 F120.00
G01 X122.2850 Y-73.8600
G01 X122.8350 Y-73.8600
G01 X122.8350 Y-75.0100
G01 X122.2850 Y-75.0100
G00 Z2.0000
G00 X123.5550 Y-75.0100
G01 F60.00
G01 Z-2.4000
G01 F120.00
G01 X123.5550 Y-73.8600
G01 X123.6494 Y-73.8600
G01 X123.6667 Y-73.8591
G01 X123.6796 Y-73.8574
G01 X123.6923 Y-73.8547
G01 X123.7089 Y-73.8496
G01 X123.7209 Y-73.8447
G01 X123.7364 Y-73.8368
G01 X123.7510 Y-73.8275
G01 X123.7646 Y-73.8167
G01 X123.7771 Y-73.8047
G01 X123.7883 Y-73.7914
G01 X123.7981 Y-73.7772
G01 X123.8065 Y-73.7620
G01 X123.8128 Y-73.7476
G01 X123.8179 Y-73.7596
G01 X123.8219 Y-73.7675
G01 X123.8309 Y-73.7825
G01 X123.8414 Y-73.7966
G01 X123.8533 Y-73.8096
G01 X123.8664 Y-73.8213
G01 X123.8806 Y-73.8316
G01 X123.8958 Y-73.8404
G01 X123.9118 Y-73.8477
G01 X123.9243 Y-73.8521
G01 X123.9370 Y-73.8555
G01 X123.9499 Y-73.8580
G01 X123.9630 Y-73.8595
G01 X123.9762 Y-73.8600
G01 X124.1050 Y-73.8600
G01 X124.1050 Y-75.0100
G01 X123.5550 Y-75.0100
G00 Z2.0000
G00 X124.8250 Y-75.0100
G01 F60.00
G01 Z-2.4000
G01 F120.00
G01 X124.8250 Y-73.8600
G01 X125.0178 Y-73.8600
G01 X125.0344 Y-73.8588
G01 X125.0426 Y-73.8576
G01 X125.0548 Y-73.8551
G01 X125.0708 Y-73.8504
G01 X125.0862 Y-73.8443
G01 X125.1010 Y-73.8367
G01 X125.1150 Y-73.8277
G01 X125.1281 Y-73.8174
G01 X125.1401 Y-73.8060
G01 X125.1510 Y-73.7934
G01 X125.1560 Y-73.7868
G01 X125.1625 Y-73.7770
G01 X125.1716 Y-73.7904
G01 X125.1797 Y-73.8003
G01 X125.1915 Y-73.8125
G01 X125.2011 Y-73.8209
G01 X125.2114 Y-73.8286
G01 X125.2221 Y-73.8355
G01 X125.2333 Y-73.8416
G01 X125.2489 Y-73.8485
G01 X125.2610 Y-73.8526
G01 X125.2733 Y-73.8558
G01 X125.2859 Y-73.8581
G01 X125.2944 Y-73.8592
G01 X125.3114 Y-73.8600
G01 X125.3750 Y-73.8600
G01 X125.3750 Y-75.0100
G01 X124.8250 Y-75.0100
G00 Z2.0000
G00 X126.0950 Y-75.0100
G01 F60.00
G01 Z-2.4000
G01 F120.00
G01 X126.0950 Y-73.8600
G01 X126.6450 Y-73.8600
G01 X126.6450 Y-75.0100
G01 X126.0950 Y-75.0100
G00 Z2.0000
G00 X127.3650 Y-75.0100
G01 F60.00
G01 Z-2.4000
G01 F120.00
G01 X127.3650 Y-73.8600
G01 X127.4594 Y-73.8600
G01 X127.4767 Y-73.8591
G01 X127.4896 Y-73.8574
G01 X127.5023 Y-73.8547
G01 X127.5189 Y-73.8496
G01 X127.5309 Y-73.8447
G01 X127.5464 Y-73.8368
G01 X127.5610 Y-73.8275
G01 X127.5746 Y-73.8167
G01 X127.5871 Y-73.8047
G01 X127.5983 Y-73.7914
G01 X127.6081 Y-73.7772
G01 X127.6165 Y-73.7620
G01 X127.6228 Y-73.7476
G01 X127.6279 Y-73.7596
G01 X127.6319 Y-73.7675
G01 X127.6409 Y-73.7825
G01 X127.6514 Y-73.7966
G01 X127.6633 Y-73.8096
G01 X127.6764 Y-73.8213
G01 X127.6906 Y-73.8316
G01 X127.7058 Y-73.8404
G01 X127.7218 Y-73.8477
G01 X127.7343 Y-73.8521
G01 X127.7470 Y-73.8555
G01 X127.7599 Y-73.8580
G01 X127.7730 Y-73.8595
G01 X127.7862 Y-73.8600
G01 X127.9150 Y-73.8600
G01 X127.9150 Y-75.0100
G01 X127.3650 Y-75.0100
G00 Z2.0000
G00 X128.6350 Y-75.0100
G01 F60.00
G01 Z-2.4000
G01 F120.00
G01 X128.6350 Y-73.8600
G01 X128.8278 Y-73.8600
G01 X128.8444 Y-73.8588
G01 X128.8526 Y-73.8576
G01 X128.8648 Y-73.8551
G01 X128.8808 Y-73.8504
G01 X128.8962 Y-73.8443
G01 X128.9110 Y-73.8367
G01 X128.9250 Y-73.8277
G01 X128.9381 Y-73.8174
G01 X128.9501 Y-73.8060
G01 X128.9610 Y-73.7934
G01 X128.9660 Y-73.7868
G01 X128.9725 Y-73.7770
G01 X128.9816 Y-73.7904
G01 X128.9897 Y-73.8003
G01 X128.9985 Y-73.8096
G01 X129.0111 Y-73.8209
G01 X129.0214 Y-73.8286
G01 X129.0321 Y-73.8355
G01 X129.0433 Y-73.8416
G01 X129.0589 Y-73.8485
G01 X129.0710 Y-73.8526
G01 X129.0792 Y-73.8548
G01 X129.0917 Y-73.8575
G01 X129.1044 Y-73.8592
G01 X129.1214 Y-73.8600
G01 X129.1850 Y-73.8600
G01 X129.1850 Y-75.0100
G01 X128.6350 Y-75.0100
G00 Z2.0000
G00 X129.9050 Y-75.0100
G01 F60.00
G01 Z-2.4000
G01 F120.00
G01 X129.9050 Y-73.8600
G01 X130.4550 Y-73.8600
G01 X130.4550 Y-75.0100
G01 X129.9050 Y-75.0100
G00 Z2.0000
G00 X131.4550 Y-74.2787
G01 F60.00
G01 Z-2.4000
G01 F120.00
G01 X131.4594 Y-74.2974
G01 X131.4655 Y-74.3188
G01 X131.4726 Y-74.3399
G01 X131.4807 Y-74.3606
G01 X131.4899 Y-74.3809
G01 X131.5000 Y-74.4008
G01 X131.5111 Y-74.4201
G01 X131.5206 Y-74.4350
G01 X131.5111 Y-74.4499
G01 X131.5000 Y-74.4692
G01 X131.4899 Y-74.4891
G01 X131.4807 Y-74.5094
G01 X131.4726 Y-74.5301
G01 X131.4655 Y-74.5512
G01 X131.4594 Y-74.5726
G01 X131.4550 Y-74.5913
G01 X131.4550 Y-74.2787
G01 X132.0058 Y-74.4350
G01 X131.9499 Y-74.4568
G01 X131.9369 Y-74.4629
G01 X131.8748 Y-74.4953
G01 X131.8113 Y-74.5349
G01 X131.7988 Y-74.5433
G01 X131.7886 Y-74.5511
G01 X131.7821 Y-74.5568
G01 X131.7730 Y-74.5657
G01 X131.7645 Y-74.5754
G01 X131.7567 Y-74.5856
G01 X131.7497 Y-74.5964
G01 X131.7436 Y-74.6077
G01 X131.7366 Y-74.6233
G01 X131.7313 Y-74.6396
G01 X131.7292 Y-74.6479
G01 X131.7269 Y-74.6605
G01 X131.7252 Y-74.6775
G01 X131.7250 Y-75.0100
G01 X131.1750 Y-75.0100
G01 X131.1750 Y-73.8600
G01 X131.7250 Y-73.8600
G01 X131.7252 Y-74.1925
G01 X131.7269 Y-74.2095
G01 X131.7292 Y-74.2221
G01 X131.7313 Y-74.2304
G01 X131.7366 Y-74.2467
G01 X131.7436 Y-74.2623
G01 X131.7497 Y-74.2736
G01 X131.7567 Y-74.2844
G01 X131.7645 Y-74.2946
G01 X131.7730 Y-74.3043
G01 X131.7821 Y-74.3132
G01 X131.7919 Y-74.3215
G01 X131.7988 Y-74.3267
G01 X131.8116 Y-74.3354
G01 X131.8748 Y-74.3747
G01 X131.9369 Y-74.4071
G01 X131.9499 Y-74.4132
G01 X132.0058 Y-74.4350
G00 Z2.0000
G00 X132.7027 Y-75.9245
G01 F60.00
G01 Z-2.4000
G01 F120.00
G01 X132.7325 Y-75.8946
G01 X132.7455 Y-75.8807
G01 X132.7616 Y-75.8617
G01 X132.7753 Y-75.8436
G01 X132.7841 Y-75.8309
G01 X132.7944 Y-75.8149
G01 X132.8537 Y-75.7147
G01 X132.9483 Y-75.7471
G01 X133.0915 Y-75.8177
G01 X133.2272 Y-75.9080
G01 X133.2462 Y-75.9245
G01 X132.7027 Y-75.9245
G00 Z2.0000
G00 X132.1250 Y-77.7400
G01 F60.00
G01 Z-2.4000
G01 F120.00
G01 X132.1250 Y-77.1900
G01 X133.2750 Y-77.1900
G01 X133.2750 Y-77.7400
G01 X132.1250 Y-77.7400
G00 Z2.0000
G00 X132.1250 Y-79.0100
G01 F60.00
G01 Z-2.4000
G01 F120.00
G01 X132.1250 Y-78.4600
G01 X133.2750 Y-78.4600
G01 X133.2750 Y-79.0100
G01 X132.1250 Y-79.0100
G00 Z2.0000
G00 X132.1250 Y-80.2800
G01 F60.00
G01 Z-2.4000
G01 F120.00
G01 X132.1250 Y-79.7300
G01 X133.2750 Y-79.7300
G01 X133.2750 Y-80.2800
G01 X132.1250 Y-80.2800
G00 Z2.0000
G00 X132.1250 Y-81.5500
G01 F60.00
G01 Z-2.4000
G01 F120.00
G01 X132.1250 Y-81.0000
G01 X133.2750 Y-81.0000
G01 X133.2750 Y-81.5500
G01 X132.1250 Y-81.5500
G00 Z2.0000
G00 X132.1250 Y-82.8200
G01 F60.00
G01 Z-2.4000
G01 F120.00
G01 X132.1250 Y-82.2700
G01 X133.2750 Y-82.2700
G01 X133.2750 Y-82.8200
G01 X132.1250 Y-82.8200
G00 Z2.0000
G00 X132.1250 Y-84.0900
G01 F60.00
G01 Z-2.4000
G01 F120.00
G01 X132.1250 Y-83.5400
G01 X133.2750 Y-83.5400
G01 X133.2750 Y-84.0900
G01 X132.1250 Y-84.0900
G00 Z2.0000
G00 X132.1250 Y-85.3600
G01 F60.00
G01 Z-2.4000
G01 F120.00
G01 X132.1250 Y-84.8100
G01 X133.2750 Y-84.8100
G01 X133.2750 Y-85.3600
G01 X132.1250 Y-85.3600
G00 Z2.0000
G00 X132.1250 Y-86.6300
G01 F60.00
G01 Z-2.4000
G01 F120.00
G01 X132.1250 Y-86.0800
G01 X133.2750 Y-86.0800
G01 X133.2750 Y-86.6300
G01 X132.1250 Y-86.6300
G00 Z2.0000
G00 X132.1250 Y-87.9000
G01 F60.00
G01 Z-2.4000
G01 F120.00
G01 X132.1250 Y-87.3500
G01 X133.2750 Y-87.3500
G01 X133.2750 Y-87.9000
G01 X132.1250 Y-87.9000
G00 Z2.0000
G00 X132.8095 Y-89.0713
G01 F60.00
G01 Z-2.4000
G01 F120.00
G01 X132.7999 Y-89.0590
G01 X132.7854 Y-89.0420
G01 X132.7731 Y-89.0288
G01 X132.7572 Y-89.0131
G01 X132.7406 Y-88.9982
G01 X132.7232 Y-88.9842
G01 X132.7052 Y-88.9710
G01 X132.6923 Y-88.9624
G01 X132.6770 Y-88.9530
G01 X132.6574 Y-88.9421
G01 X132.6374 Y-88.9322
G01 X132.6169 Y-88.9233
G01 X132.5960 Y-88.9155
G01 X132.5814 Y-88.9106
G01 X132.5599 Y-88.9045
G01 X132.5408 Y-88.9000
G01 X132.9950 Y-88.9000
G01 X132.9950 Y-89.0496
G01 X132.9686 Y-89.0480
G01 X132.9463 Y-89.0478
G01 X132.9240 Y-89.0487
G01 X132.9017 Y-89.0508
G01 X132.8796 Y-89.0539
G01 X132.8577 Y-89.0581
G01 X132.8360 Y-89.0633
G01 X132.8095 Y-89.0713
G00 Z2.0000
G00 X133.3043 Y-90.0280
G01 F60.00
G01 Z-2.4000
G01 F120.00
G01 X133.3171 Y-90.0275
G01 X133.3257 Y-90.0267
G01 X133.3384 Y-90.0246
G01 X133.3509 Y-90.0217
G01 X133.3592 Y-90.0192
G01 X133.3712 Y-90.0147
G01 X133.3830 Y-90.0093
G01 X133.3942 Y-90.0031
G01 X133.4015 Y-89.9985
G01 X133.4119 Y-89.9910
G01 X133.4218 Y-89.9827
G01 X133.4310 Y-89.9737
G01 X133.4395 Y-89.9640
G01 X133.4448 Y-89.9572
G01 X133.4521 Y-89.9466
G01 X133.4586 Y-89.9355
G01 X133.4643 Y-89.9239
G01 X133.4675 Y-89.9160
G01 X133.4717 Y-89.9038
G01 X133.4750 Y-89.8913
G01 X133.4774 Y-89.8787
G01 X133.4788 Y-89.8659
G01 X133.4793 Y-89.8530
G01 X133.4791 Y-89.8444
G01 X133.4780 Y-89.8316
G01 X133.4759 Y-89.8189
G01 X133.4740 Y-89.8105
G01 X133.4704 Y-89.7981
G01 X133.4659 Y-89.7860
G01 X133.4625 Y-89.7782
G01 X133.4565 Y-89.7667
G01 X133.4498 Y-89.7558
G01 X133.4395 Y-89.7420
G01 X133.4280 Y-89.7293
G01 X133.0777 Y-89.3790
G01 X133.0650 Y-89.3675
G01 X133.0512 Y-89.3572
G01 X133.0403 Y-89.3505
G01 X133.0288 Y-89.3445
G01 X133.0170 Y-89.3395
G01 X133.0048 Y-89.3353
G01 X132.9923 Y-89.3320
G01 X132.9797 Y-89.3296
G01 X132.9669 Y-89.3282
G01 X132.9540 Y-89.3277
G01 X132.9411 Y-89.3282
G01 X132.9283 Y-89.3296
G01 X132.9157 Y-89.3320
G01 X132.9032 Y-89.3353
G01 X132.8910 Y-89.3395
G01 X132.8792 Y-89.3445
G01 X132.8677 Y-89.3505
G01 X132.8568 Y-89.3572
G01 X132.8430 Y-89.3675
G01 X132.8365 Y-89.3731
G01 X132.8273 Y-89.3821
G01 X132.8160 Y-89.3951
G01 X132.8109 Y-89.4020
G01 X132.8039 Y-89.4128
G01 X132.7977 Y-89.4240
G01 X132.7940 Y-89.4318
G01 X132.7878 Y-89.4478
G01 X132.7842 Y-89.4602
G01 X132.7824 Y-89.4686
G01 X132.7809 Y-89.4771
G01 X132.7795 Y-89.4899
G01 X132.7790 Y-89.5027
G01 X132.7790 Y-89.8281
G01 X132.7795 Y-89.8410
G01 X132.7803 Y-89.8495
G01 X132.7824 Y-89.8622
G01 X132.7874 Y-89.8872
G01 X132.7907 Y-89.8997
G01 X132.7949 Y-89.9118
G01 X132.7999 Y-89.9237
G01 X132.8059 Y-89.9351
G01 X132.8126 Y-89.9461
G01 X132.8176 Y-89.9531
G01 X132.8256 Y-89.9632
G01 X132.8344 Y-89.9726
G01 X132.8406 Y-89.9785
G01 X132.8505 Y-89.9868
G01 X132.8574 Y-89.9919
G01 X132.8719 Y-90.0011
G01 X132.8833 Y-90.0071
G01 X132.8912 Y-90.0105
G01 X132.9073 Y-90.0163
G01 X132.9198 Y-90.0196
G01 X132.9490 Y-90.0254
G01 X132.9618 Y-90.0272
G01 X132.9789 Y-90.0280
G01 X133.3043 Y-90.0280
G01 X133.1381 Y-90.5880
G01 X133.3060 Y-90.5880
G01 X133.3257 Y-90.5877
G01 X133.3472 Y-90.5867
G01 X133.3797 Y-90.5841
G01 X133.4087 Y-90.5805
G01 X133.4409 Y-90.5752
G01 X133.4720 Y-90.5686
G01 X133.4937 Y-90.5632
G01 X133.5143 Y-90.5573
G01 X133.5381 Y-90.5498
G01 X133.5583 Y-90.5427
G01 X133.5792 Y-90.5346
G01 X133.5990 Y-90.5263
G01 X133.6216 Y-90.5159
G01 X133.6378 Y-90.5080
G01 X133.6568 Y-90.4979
G01 X133.6762 Y-90.4869
G01 X133.6946 Y-90.4758
G01 X133.7155 Y-90.4622
G01 X133.7331 Y-90.4499
G01 X133.7510 Y-90.4366
G01 X133.7679 Y-90.4233
G01 X133.7834 Y-90.4103
G01 X133.8212 Y-90.4120
G01 X133.8441 Y-90.4121
G01 X133.8626 Y-90.4117
G01 X133.8996 Y-90.4094
G01 X133.9180 Y-90.4076
G01 X133.9399 Y-90.4048
G01 X133.9651 Y-90.4007
G01 X133.9833 Y-90.3973
G01 X134.0194 Y-90.3889
G01 X134.0406 Y-90.3831
G01 X134.0583 Y-90.3777
G01 X134.0759 Y-90.3719
G01 X134.0946 Y-90.3652
G01 X134.1092 Y-90.3905
G01 X134.1258 Y-90.4167
G01 X134.2614 Y-90.6196
G01 X134.2778 Y-90.6431
G01 X134.2950 Y-90.6659
G01 X134.3102 Y-90.6846
G01 X134.3940 Y-90.7803
G01 X134.3947 Y-91.4739
G01 X134.3962 Y-91.5086
G01 X134.3998 Y-91.5467
G01 X134.4054 Y-91.5846
G01 X134.4120 Y-91.6178
G01 X134.4184 Y-91.6444
G01 X134.4266 Y-91.6733
G01 X134.4376 Y-91.7062
G01 X134.4473 Y-91.7318
G01 X134.4591 Y-91.7596
G01 X134.4707 Y-91.7843
G01 X134.4846 Y-91.8110
G01 X134.4982 Y-91.8348
G01 X134.5142 Y-91.8604
G01 X134.5317 Y-91.8860
G01 X134.5525 Y-91.9137
G01 X134.5717 Y-91.9370
G01 X134.5899 Y-91.9574
G01 X134.6108 Y-91.9791
G01 X134.6305 Y-91.9981
G01 X134.6653 Y-92.0297
G01 X134.6696 Y-92.0343
G01 X134.6733 Y-92.0394
G01 X134.6765 Y-92.0448
G01 X134.6792 Y-92.0505
G01 X134.6814 Y-92.0564
G01 X134.6829 Y-92.0625
G01 X134.6838 Y-92.0687
G01 X134.6841 Y-92.0750
G01 X134.6838 Y-92.0813
G01 X134.6829 Y-92.0875
G01 X134.6814 Y-92.0936
G01 X134.6792 Y-92.0995
G01 X134.6765 Y-92.1052
G01 X134.6733 Y-92.1106
G01 X134.6696 Y-92.1157
G01 X134.6653 Y-92.1203
G01 X134.6319 Y-92.1507
G01 X134.6134 Y-92.1683
G01 X134.5924 Y-92.1899
G01 X134.5740 Y-92.2103
G01 X134.5548 Y-92.2334
G01 X134.5360 Y-92.2581
G01 X134.5162 Y-92.2866
G01 X134.5001 Y-92.3120
G01 X134.4886 Y-92.3318
G01 X134.4757 Y-92.3559
G01 X134.4625 Y-92.3830
G01 X134.4514 Y-92.4080
G01 X134.4404 Y-92.4360
G01 X134.4313 Y-92.4619
G01 X134.4225 Y-92.4907
G01 X134.4155 Y-92.5171
G01 X134.4112 Y-92.5358
G01 X134.4074 Y-92.5546
G01 X134.4012 Y-92.5924
G01 X134.3971 Y-92.6305
G01 X134.3949 Y-92.6688
G01 X134.3945 Y-92.6916
G01 X134.3945 Y-93.2833
G01 X134.3734 Y-93.2585
G01 X134.3542 Y-93.2377
G01 X134.3336 Y-93.2171
G01 X134.3095 Y-93.1950
G01 X134.2852 Y-93.1745
G01 X134.2593 Y-93.1546
G01 X134.2355 Y-93.1378
G01 X134.2117 Y-93.1224
G01 X134.1835 Y-93.1058
G01 X134.1578 Y-93.0920
G01 X134.1323 Y-93.0797
G01 X134.1024 Y-93.0667
G01 X134.0751 Y-93.0561
G01 X134.0442 Y-93.0457
G01 X134.0170 Y-93.0377
G01 X133.9887 Y-93.0306
G01 X133.9710 Y-93.0268
G01 X133.9465 Y-93.0223
G01 X133.9108 Y-93.0171
G01 X133.8749 Y-93.0138
G01 X133.8389 Y-93.0122
G01 X133.2972 Y-93.0120
G01 X133.2663 Y-93.0127
G01 X133.2313 Y-93.0151
G01 X133.2416 Y-92.9791
G01 X133.2472 Y-92.9575
G01 X133.2535 Y-92.9287
G01 X133.2583 Y-92.9023
G01 X133.2619 Y-92.8766
G01 X133.2648 Y-92.8500
G01 X133.2689 Y-92.7979
G01 X133.2703 Y-92.7664
G01 X133.2705 Y-91.1208
G01 X133.2700 Y-91.0947
G01 X133.2686 Y-91.0687
G01 X133.2653 Y-91.0254
G01 X133.2633 Y-91.0049
G01 X133.2610 Y-90.9863
G01 X133.2577 Y-90.9642
G01 X133.2544 Y-90.9457
G01 X133.2496 Y-90.9230
G01 X133.2444 Y-90.9013
G01 X133.2385 Y-90.8797
G01 X133.1937 Y-90.7255
G01 X133.1835 Y-90.6934
G01 X133.1751 Y-90.6700
G01 X133.1695 Y-90.6556
G01 X133.1673 Y-90.6502
G01 X133.1661 Y-90.6475
G01 X133.1636 Y-90.6414
G01 X133.1521 Y-90.6160
G01 X133.1381 Y-90.5880
G01 X133.5189 Y-90.8450
G01 X133.5425 Y-90.8396
G01 X133.5667 Y-90.8335
G01 X133.5907 Y-90.8267
G01 X133.6145 Y-90.8194
G01 X133.6365 Y-90.8121
G01 X133.6599 Y-90.8036
G01 X133.6831 Y-90.7946
G01 X133.7061 Y-90.7850
G01 X133.7289 Y-90.7749
G01 X133.7514 Y-90.7642
G01 X133.7736 Y-90.7530
G01 X133.7918 Y-90.7432
G01 X133.8135 Y-90.7310
G01 X133.8349 Y-90.7182
G01 X133.8560 Y-90.7050
G01 X133.8764 Y-90.6914
G01 X133.8993 Y-90.6902
G01 X133.9230 Y-90.6884
G01 X133.9674 Y-90.6836
G01 X134.0305 Y-90.7780
G01 X134.0515 Y-90.8080
G01 X134.0645 Y-90.8255
G01 X134.0807 Y-90.8463
G01 X134.0967 Y-90.8657
G01 X134.1140 Y-90.8858
G01 X134.1147 Y-91.4794
G01 X134.1162 Y-91.5168
G01 X134.1191 Y-91.5550
G01 X134.1239 Y-91.5958
G01 X134.1298 Y-91.6337
G01 X134.1354 Y-91.6632
G01 X134.1415 Y-91.6909
G01 X134.1498 Y-91.7236
G01 X134.1576 Y-91.7508
G01 X134.1672 Y-91.7813
G01 X134.1775 Y-91.8105
G01 X134.1877 Y-91.8369
G01 X134.1994 Y-91.8647
G01 X134.2111 Y-91.8905
G01 X134.2260 Y-91.9208
G01 X134.2409 Y-91.9490
G01 X134.2550 Y-91.9736
G01 X134.2711 Y-92.0001
G01 X134.2866 Y-92.0238
G01 X134.3037 Y-92.0485
G01 X134.3233 Y-92.0750
G01 X134.3101 Y-92.0926
G01 X134.2969 Y-92.1112
G01 X134.2830 Y-92.1315
G01 X134.2711 Y-92.1499
G01 X134.2582 Y-92.1709
G01 X134.2467 Y-92.1907
G01 X134.2260 Y-92.2292
G01 X134.2166 Y-92.2480
G01 X134.2061 Y-92.2703
G01 X134.1972 Y-92.2903
G01 X134.1877 Y-92.3131
G01 X134.1795 Y-92.3344
G01 X134.1711 Y-92.3575
G01 X134.1570 Y-92.4009
G01 X134.1512 Y-92.4211
G01 X134.1449 Y-92.4449
G01 X134.1399 Y-92.4662
G01 X134.1347 Y-92.4903
G01 X134.1275 Y-92.5299
G01 X134.1239 Y-92.5542
G01 X134.1210 Y-92.5769
G01 X134.1172 Y-92.6177
G01 X134.1151 Y-92.6560
G01 X134.1145 Y-92.6880
G01 X134.1145 Y-92.7744
G01 X134.0867 Y-92.7665
G01 X134.0609 Y-92.7600
G01 X134.0366 Y-92.7545
G01 X134.0079 Y-92.7488
G01 X133.9834 Y-92.7446
G01 X133.9570 Y-92.7407
G01 X133.9289 Y-92.7374
G01 X133.9024 Y-92.7350
G01 X133.8655 Y-92.7328
G01 X133.8320 Y-92.7320
G01 X133.5505 Y-92.7320
G01 X133.5504 Y-91.1050
G01 X133.5495 Y-91.0769
G01 X133.5479 Y-91.0488
G01 X133.5437 Y-90.9954
G01 X133.5403 Y-90.9625
G01 X133.5363 Y-90.9333
G01 X133.5318 Y-90.9060
G01 X133.5254 Y-90.8735
G01 X133.5225 Y-90.8604
G01 X133.5217 Y-90.8569
G01 X133.5213 Y-90.8552
G01 X133.5189 Y-90.8450
G01 X133.8342 Y-91.0346
G01 X133.8345 Y-91.4591
G01 X133.8348 Y-91.4876
G01 X133.8365 Y-91.5305
G01 X133.8394 Y-91.5705
G01 X133.8437 Y-91.6123
G01 X133.8487 Y-91.6493
G01 X133.8535 Y-91.6791
G01 X133.8586 Y-91.7069
G01 X133.8649 Y-91.7373
G01 X133.8709 Y-91.7631
G01 X133.8771 Y-91.7879
G01 X133.8844 Y-91.8143
G01 X133.8930 Y-91.8431
G01 X133.9011 Y-91.8683
G01 X133.9107 Y-91.8959
G01 X133.9212 Y-91.9241
G01 X133.9306 Y-91.9479
G01 X133.9412 Y-91.9731
G01 X133.9535 Y-92.0006
G01 X133.9648 Y-92.0246
G01 X133.9779 Y-92.0507
G01 X133.9907 Y-92.0750
G01 X133.9684 Y-92.1181
G01 X133.9475 Y-92.1627
G01 X133.9279 Y-92.2089
G01 X133.9097 Y-92.2567
G01 X133.8938 Y-92.3042
G01 X133.8800 Y-92.3515
G01 X133.8733 Y-92.3771
G01 X133.8673 Y-92.4020
G01 X133.8617 Y-92.4279
G01 X133.8568 Y-92.4524
G01 X133.8305 Y-92.4520
G01 X133.8305 Y-91.1194
G01 X133.8298 Y-91.0789
G01 X133.8278 Y-91.0374
G01 X133.8342 Y-91.0346
G01 X132.5355 Y-90.2941
G01 X132.5599 Y-90.2883
G01 X132.5813 Y-90.2820
G01 X132.6024 Y-90.2746
G01 X132.6231 Y-90.2662
G01 X132.6434 Y-90.2568
G01 X132.6631 Y-90.2464
G01 X132.6824 Y-90.2351
G01 X132.7000 Y-90.2235
G01 X132.7118 Y-90.2314
G01 X132.7272 Y-90.2409
G01 X132.7505 Y-90.2537
G01 X132.7667 Y-90.2616
G01 X132.7808 Y-90.2679
G01 X132.8081 Y-90.2784
G01 X132.8335 Y-90.2864
G01 X132.8618 Y-90.2935
G01 X132.9045 Y-90.3019
G01 X132.9309 Y-90.3055
G01 X132.9532 Y-90.3073
G01 X132.9755 Y-90.3080
G01 X132.9789 Y-90.3080
G01 X133.3043 Y-90.3080
G01 X133.3120 Y-90.3079
G01 X133.3343 Y-90.3070
G01 X133.3523 Y-90.3055
G01 X133.3744 Y-90.3025
G01 X133.3964 Y-90.2986
G01 X133.4181 Y-90.2935
G01 X133.4396 Y-90.2874
G01 X133.4608 Y-90.2802
G01 X133.4816 Y-90.2720
G01 X133.5019 Y-90.2628
G01 X133.5218 Y-90.2526
G01 X133.5411 Y-90.2415
G01 X133.5599 Y-90.2294
G01 X133.5781 Y-90.2164
G01 X133.5956 Y-90.2025
G01 X133.6124 Y-90.1878
G01 X133.6284 Y-90.1723
G01 X133.6437 Y-90.1560
G01 X133.6582 Y-90.1390
G01 X133.6718 Y-90.1213
G01 X133.6827 Y-90.1056
G01 X133.7019 Y-90.1120
G01 X133.7171 Y-90.1164
G01 X133.7351 Y-90.1209
G01 X133.7506 Y-90.1241
G01 X133.7689 Y-90.1272
G01 X133.7846 Y-90.1293
G01 X133.8075 Y-90.1313
G01 X133.8260 Y-90.1321
G01 X133.8418 Y-90.1321
G01 X133.8603 Y-90.1315
G01 X133.8762 Y-90.1304
G01 X133.8989 Y-90.1278
G01 X133.9172 Y-90.1249
G01 X133.9328 Y-90.1218
G01 X133.9508 Y-90.1174
G01 X133.9661 Y-90.1132
G01 X133.9837 Y-90.1075
G01 X133.9986 Y-90.1021
G01 X134.0198 Y-90.0934
G01 X134.0366 Y-90.0855
G01 X134.0507 Y-90.0783
G01 X134.0668 Y-90.0692
G01 X134.0804 Y-90.0609
G01 X134.0994 Y-90.0481
G01 X134.1177 Y-90.0344
G01 X134.1320 Y-90.0226
G01 X134.1439 Y-90.0121
G01 X134.1573 Y-89.9993
G01 X134.1683 Y-89.9879
G01 X134.1807 Y-89.9741
G01 X134.1908 Y-89.9619
G01 X134.2028 Y-89.9464
G01 X134.2127 Y-89.9717
G01 X134.2232 Y-89.9946
G01 X134.3322 Y-90.2156
G01 X134.3419 Y-90.2337
G01 X134.3542 Y-90.2544
G01 X134.4942 Y-90.4640
G01 X134.5088 Y-90.4846
G01 X134.5179 Y-90.4964
G01 X134.5304 Y-90.5113
G01 X134.6468 Y-90.6440
G01 X134.6591 Y-90.6600
G01 X134.6744 Y-90.6784
G01 X134.6745 Y-91.4620
G01 X134.6753 Y-91.4858
G01 X134.6774 Y-91.5094
G01 X134.6806 Y-91.5329
G01 X134.6836 Y-91.5491
G01 X134.6878 Y-91.5678
G01 X134.6941 Y-91.5906
G01 X134.7016 Y-91.6131
G01 X134.7103 Y-91.6352
G01 X134.7201 Y-91.6568
G01 X134.7275 Y-91.6715
G01 X134.7368 Y-91.6882
G01 X134.7494 Y-91.7084
G01 X134.7629 Y-91.7279
G01 X134.7729 Y-91.7409
G01 X134.7851 Y-91.7557
G01 X134.7960 Y-91.7679
G01 X134.8179 Y-91.7899
G01 X134.8636 Y-91.8314
G01 X134.8863 Y-91.8565
G01 X134.9064 Y-91.8836
G01 X134.9238 Y-91.9126
G01 X134.9382 Y-91.9432
G01 X134.9496 Y-91.9750
G01 X134.9578 Y-92.0078
G01 X134.9628 Y-92.0412
G01 X134.9645 Y-92.0750
G01 X134.9628 Y-92.1088
G01 X134.9578 Y-92.1422
G01 X134.9496 Y-92.1750
G01 X134.9382 Y-92.2068
G01 X134.9238 Y-92.2374
G01 X134.9064 Y-92.2664
G01 X134.8863 Y-92.2935
G01 X134.8636 Y-92.3186
G01 X134.8179 Y-92.3601
G01 X134.8042 Y-92.3735
G01 X134.7929 Y-92.3854
G01 X134.7804 Y-92.3999
G01 X134.7700 Y-92.4127
G01 X134.7560 Y-92.4318
G01 X134.7454 Y-92.4477
G01 X134.7368 Y-92.4618
G01 X134.7254 Y-92.4825
G01 X134.7150 Y-92.5039
G01 X134.7058 Y-92.5258
G01 X134.6977 Y-92.5481
G01 X134.6908 Y-92.5708
G01 X134.6851 Y-92.5938
G01 X134.6806 Y-92.6171
G01 X134.6779 Y-92.6361
G01 X134.6762 Y-92.6524
G01 X134.6750 Y-92.6715
G01 X134.6745 Y-92.6916
G01 X134.6745 Y-93.8579
G01 X134.6681 Y-93.8428
G01 X134.6615 Y-93.8285
G01 X134.6477 Y-93.8022
G01 X134.6397 Y-93.7886
G01 X134.6298 Y-93.7732
G01 X134.6140 Y-93.7512
G01 X134.5953 Y-93.7281
G01 X134.5848 Y-93.7164
G01 X134.5720 Y-93.7033
G01 X134.5606 Y-93.6924
G01 X134.5469 Y-93.6802
G01 X134.5257 Y-93.6633
G01 X134.5108 Y-93.6526
G01 X134.4978 Y-93.6438
G01 X134.4821 Y-93.6342
G01 X134.4622 Y-93.6232
G01 X134.4482 Y-93.6162
G01 X134.4314 Y-93.6086
G01 X134.4169 Y-93.6027
G01 X134.3955 Y-93.5950
G01 X134.3738 Y-93.5883
G01 X134.3560 Y-93.5838
G01 X134.3406 Y-93.5805
G01 X134.3226 Y-93.5773
G01 X134.3000 Y-93.5743
G01 X134.2844 Y-93.5729
G01 X134.2660 Y-93.5720
G01 X134.2442 Y-93.5718
G01 X134.2341 Y-93.5494
G01 X134.2218 Y-93.5257
G01 X134.2068 Y-93.5007
G01 X134.1943 Y-93.4822
G01 X134.1782 Y-93.4610
G01 X134.1637 Y-93.4440
G01 X134.1436 Y-93.4229
G01 X134.1273 Y-93.4076
G01 X134.1069 Y-93.3904
G01 X134.0891 Y-93.3770
G01 X134.0706 Y-93.3644
G01 X134.0455 Y-93.3494
G01 X134.0258 Y-93.3391
G01 X134.0016 Y-93.3280
G01 X133.9743 Y-93.3175
G01 X133.9531 Y-93.3106
G01 X133.9273 Y-93.3038
G01 X133.9097 Y-93.3001
G01 X133.8944 Y-93.2974
G01 X133.8654 Y-93.2939
G01 X133.8389 Y-93.2922
G01 X133.2989 Y-93.2920
G01 X133.2689 Y-93.2930
G01 X133.2466 Y-93.2950
G01 X133.2288 Y-93.2974
G01 X133.1894 Y-93.3049
G01 X133.1601 Y-93.3117
G01 X133.1322 Y-93.3202
G01 X133.1072 Y-93.3295
G01 X133.0906 Y-93.3366
G01 X133.0766 Y-93.3432
G01 X133.0606 Y-93.3515
G01 X133.0472 Y-93.3591
G01 X133.0318 Y-93.3686
G01 X133.0200 Y-93.3765
G01 X132.9987 Y-93.3627
G01 X132.9733 Y-93.3483
G01 X132.9494 Y-93.3366
G01 X132.9224 Y-93.3254
G01 X132.8972 Y-93.3167
G01 X132.8691 Y-93.3090
G01 X132.8298 Y-93.3007
G01 X132.8053 Y-93.2966
G01 X132.8857 Y-93.1602
G01 X132.8946 Y-93.1433
G01 X132.9003 Y-93.1315
G01 X132.9066 Y-93.1174
G01 X132.9137 Y-93.0997
G01 X132.9200 Y-93.0817
G01 X132.9248 Y-93.0663
G01 X132.9736 Y-92.8975
G01 X132.9787 Y-92.8748
G01 X132.9816 Y-92.8590
G01 X132.9843 Y-92.8405
G01 X132.9863 Y-92.8209
G01 X132.9895 Y-92.7787
G01 X132.9905 Y-92.7492
G01 X132.9905 Y-91.1208
G01 X132.9895 Y-91.0913
G01 X132.9860 Y-91.0456
G01 X132.9834 Y-91.0225
G01 X132.9809 Y-91.0066
G01 X132.9773 Y-90.9882
G01 X132.9718 Y-90.9656
G01 X132.9240 Y-90.8009
G01 X132.9182 Y-90.7827
G01 X132.9116 Y-90.7648
G01 X132.9003 Y-90.7385
G01 X132.8946 Y-90.7267
G01 X132.8857 Y-90.7098
G01 X132.7963 Y-90.5583
G01 X132.7808 Y-90.5342
G01 X132.7674 Y-90.5159
G01 X132.7494 Y-90.4937
G01 X132.7299 Y-90.4728
G01 X132.6143 Y-90.3571
G01 X132.5984 Y-90.3420
G01 X132.5840 Y-90.3295
G01 X132.5691 Y-90.3176
G01 X132.5538 Y-90.3063
G01 X132.5355 Y-90.2941
G00 Z2.0000
G00 X131.1750 Y-92.5100
G01 F60.00
G01 Z-2.4000
G01 F120.00
G01 X131.1750 Y-91.3600
G01 X131.7250 Y-91.3600
G01 X131.7250 Y-92.5100
G01 X131.1750 Y-92.5100
G00 Z2.0000
G00 X129.9050 Y-92.5100
G01 F60.00
G01 Z-2.4000
G01 F120.00
G01 X129.9050 Y-91.3600
G01 X130.4550 Y-91.3600
G01 X130.4550 Y-92.5100
G01 X129.9050 Y-92.5100
G00 Z2.0000
G00 X128.6350 Y-92.5100
G01 F60.00
G01 Z-2.4000
G01 F120.00
G01 X128.6350 Y-91.3600
G01 X129.1850 Y-91.3600
G01 X129.1850 Y-92.5100
G01 X128.6350 Y-92.5100
G00 Z2.0000
G00 X127.3650 Y-92.5100
G01 F60.00
G01 Z-2.4000
G01 F120.00
G01 X127.3650 Y-91.3600
G01 X127.9150 Y-91.3600
G01 X127.9150 Y-92.5100
G01 X127.3650 Y-92.5100
G00 Z2.0000
G00 X126.0950 Y-92.5100
G01 F60.00
G01 Z-2.4000
G01 F120.00
G01 X126.0950 Y-91.3600
G01 X126.6450 Y-91.3600
G01 X126.6450 Y-92.5100
G01 X126.0950 Y-92.5100
G00 Z2.0000
G00 X124.8250 Y-92.5100
G01 F60.00
G01 Z-2.4000
G01 F120.00
G01 X124.8250 Y-91.3600
G01 X125.3750 Y-91.3600
G01 X125.3750 Y-92.5100
G01 X124.8250 Y-92.5100
G00 Z2.0000
G00 X123.5550 Y-92.5100
G01 F60.00
G01 Z-2.4000
G01 F120.00
G01 X123.5550 Y-91.3600
G01 X124.1050 Y-91.3600
G01 X124.1050 Y-92.5100
G01 X123.5550 Y-92.5100
G00 Z2.0000
G00 X122.2850 Y-92.5100
G01 F60.00
G01 Z-2.4000
G01 F120.00
G01 X122.2850 Y-91.3600
G01 X122.8350 Y-91.3600
G01 X122.8350 Y-92.5100
G01 X122.2850 Y-92.5100
G00 Z2.0000
G00 X121.0150 Y-92.5100
G01 F60.00
G01 Z-2.4000
G01 F120.00
G01 X121.0150 Y-91.3600
G01 X121.5650 Y-91.3600
G01 X121.5650 Y-92.5100
G01 X121.0150 Y-92.5100
G00 Z2.0000
G00 X119.7450 Y-92.5100
G01 F60.00
G01 Z-2.4000
G01 F120.00
G01 X119.7450 Y-91.3600
G01 X120.2950 Y-91.3600
G01 X120.2950 Y-92.5100
G01 X119.7450 Y-92.5100
G00 Z2.0000
G00 X118.4750 Y-92.5100
G01 F60.00
G01 Z-2.4000
G01 F120.00
G01 X118.4750 Y-91.3600
G01 X119.0250 Y-91.3600
G01 X119.0250 Y-92.5100
G01 X118.4750 Y-92.5100
G00 Z2.0000
G00 X117.6549 Y-92.8709
G01 F60.00
G01 Z-2.4000
G01 F120.00
G01 X117.7004 Y-92.9301
G01 X117.7551 Y-92.9899
G01 X117.9529 Y-93.1878
G01 X117.9571 Y-93.1922
G01 X118.0599 Y-93.3056
G01 X118.0638 Y-93.3104
G01 X118.1549 Y-93.4333
G01 X118.1583 Y-93.4384
G01 X118.2370 Y-93.5696
G01 X118.2399 Y-93.5750
G01 X118.3053 Y-93.7133
G01 X118.3076 Y-93.7190
G01 X118.3593 Y-93.8632
G01 X118.4052 Y-94.0125
G01 X118.4323 Y-94.1065
G01 X118.4234 Y-94.1074
G01 X118.4119 Y-94.1091
G01 X118.3986 Y-94.0204
G01 X118.3680 Y-93.8974
G01 X118.3565 Y-93.8560
G01 X118.3064 Y-93.7162
G01 X118.2383 Y-93.5724
G01 X118.1582 Y-93.4384
G01 X118.1530 Y-93.4309
G01 X118.0655 Y-93.3129
G01 X118.0577 Y-93.3034
G01 X117.9539 Y-93.1890
G01 X117.7537 Y-92.9886
G01 X117.7021 Y-92.9323
G01 X117.6549 Y-92.8709
G00 Z2.0000
G00 X117.2050 Y-92.5100
G01 F60.00
G01 Z-2.4000
G01 F120.00
G01 X117.2050 Y-91.3600
G01 X117.7550 Y-91.3600
G01 X117.7550 Y-92.5100
G01 X117.6914 Y-92.5100
G01 X117.6744 Y-92.5108
G01 X117.6659 Y-92.5119
G01 X117.6534 Y-92.5142
G01 X117.6410 Y-92.5174
G01 X117.6289 Y-92.5215
G01 X117.6133 Y-92.5284
G01 X117.6021 Y-92.5345
G01 X117.5914 Y-92.5414
G01 X117.5812 Y-92.5491
G01 X117.5685 Y-92.5604
G01 X117.5597 Y-92.5697
G01 X117.5517 Y-92.5796
G01 X117.5425 Y-92.5930
G01 X117.5360 Y-92.5832
G01 X117.5310 Y-92.5766
G01 X117.5201 Y-92.5640
G01 X117.5081 Y-92.5526
G01 X117.4950 Y-92.5423
G01 X117.4810 Y-92.5333
G01 X117.4662 Y-92.5257
G01 X117.4508 Y-92.5196
G01 X117.4349 Y-92.5149
G01 X117.4226 Y-92.5124
G01 X117.4144 Y-92.5112
G01 X117.3978 Y-92.5100
G01 X117.2050 Y-92.5100
G00 Z2.0000
G00 X118.4616 Y-94.4049
G01 F60.00
G01 Z-2.4000
G01 F120.00
G01 X118.4900 Y-94.5091
G01 X118.5121 Y-94.5829
G01 X118.5186 Y-94.5989
G01 X118.5245 Y-94.6104
G01 X118.5312 Y-94.6215
G01 X118.5414 Y-94.6354
G01 X118.5499 Y-94.6451
G01 X118.5560 Y-94.6513
G01 X118.5624 Y-94.6571
G01 X118.5725 Y-94.6652
G01 X118.5831 Y-94.6726
G01 X118.5905 Y-94.6770
G01 X118.5981 Y-94.6811
G01 X118.6099 Y-94.6865
G01 X118.6220 Y-94.6911
G01 X118.6387 Y-94.6957
G01 X118.6514 Y-94.6981
G01 X118.6600 Y-94.6991
G01 X118.6873 Y-94.7006
G01 X118.6946 Y-94.7016
G01 X118.7017 Y-94.7034
G01 X118.7086 Y-94.7059
G01 X118.7153 Y-94.7090
G01 X118.7216 Y-94.7128
G01 X118.7274 Y-94.7172
G01 X118.7329 Y-94.7221
G01 X118.7378 Y-94.7276
G01 X118.7422 Y-94.7334
G01 X118.7460 Y-94.7397
G01 X118.7491 Y-94.7464
G01 X118.7516 Y-94.7533
G01 X118.7534 Y-94.7604
G01 X118.7544 Y-94.7677
G01 X118.7550 Y-94.7793
G01 X118.7550 Y-95.7207
G01 X118.7544 Y-95.7323
G01 X118.7534 Y-95.7396
G01 X118.7516 Y-95.7467
G01 X118.7413 Y-95.7730
G01 X118.7378 Y-95.7853
G01 X118.7359 Y-95.7937
G01 X118.7344 Y-95.8021
G01 X118.7330 Y-95.8148
G01 X118.7325 Y-95.8276
G01 X118.7328 Y-95.8385
G01 X118.7194 Y-95.8292
G01 X118.7119 Y-95.8244
G01 X118.7001 Y-95.8181
G01 X118.6879 Y-95.8126
G01 X118.6754 Y-95.8081
G01 X118.6625 Y-95.8046
G01 X118.6493 Y-95.8020
G01 X118.6361 Y-95.8005
G01 X118.6227 Y-95.8000
G01 X118.1843 Y-95.8000
G01 X118.1727 Y-95.7994
G01 X118.1654 Y-95.7984
G01 X118.1583 Y-95.7966
G01 X118.1514 Y-95.7941
G01 X118.1447 Y-95.7910
G01 X118.1384 Y-95.7872
G01 X118.1326 Y-95.7828
G01 X118.1271 Y-95.7779
G01 X118.1222 Y-95.7724
G01 X118.1178 Y-95.7666
G01 X118.1140 Y-95.7603
G01 X118.1109 Y-95.7536
G01 X118.1084 Y-95.7467
G01 X118.1066 Y-95.7396
G01 X118.1056 Y-95.7323
G01 X118.1050 Y-95.7207
G01 X118.1050 Y-94.7793
G01 X118.1056 Y-94.7677
G01 X118.1066 Y-94.7604
G01 X118.1084 Y-94.7533
G01 X118.1109 Y-94.7464
G01 X118.1140 Y-94.7397
G01 X118.1178 Y-94.7334
G01 X118.1222 Y-94.7276
G01 X118.1271 Y-94.7221
G01 X118.1326 Y-94.7172
G01 X118.1384 Y-94.7128
G01 X118.1447 Y-94.7090
G01 X118.1514 Y-94.7059
G01 X118.1583 Y-94.7034
G01 X118.1654 Y-94.7016
G01 X118.1727 Y-94.7006
G01 X118.1843 Y-94.7000
G01 X118.2535 Y-94.6998
G01 X118.2705 Y-94.6981
G01 X118.2872 Y-94.6948
G01 X118.2995 Y-94.6913
G01 X118.3115 Y-94.6869
G01 X118.3231 Y-94.6816
G01 X118.3306 Y-94.6776
G01 X118.3415 Y-94.6710
G01 X118.3519 Y-94.6636
G01 X118.3585 Y-94.6582
G01 X118.3679 Y-94.6496
G01 X118.3767 Y-94.6403
G01 X118.3848 Y-94.6303
G01 X118.3897 Y-94.6234
G01 X118.3965 Y-94.6126
G01 X118.4043 Y-94.5975
G01 X118.4206 Y-94.5592
G01 X118.4257 Y-94.5442
G01 X118.4550 Y-94.4429
G01 X118.4585 Y-94.4270
G01 X118.4616 Y-94.4049
G01 X118.3850 Y-95.5200
G01 X118.3850 Y-94.9579
G01 X118.4043 Y-94.9512
G01 X118.4146 Y-94.9472
G01 X118.4209 Y-94.9446
G01 X118.4248 Y-94.9430
G01 X118.4449 Y-94.9337
G01 X118.4611 Y-94.9254
G01 X118.4750 Y-94.9326
G01 X118.4750 Y-95.5200
G01 X118.3850 Y-95.5200
G00 Z2.0000
G00 X118.9271 Y-96.0667
G01 F60.00
G01 Z-2.4000
G01 F120.00
G01 X119.7963 Y-96.9363
G01 X119.8081 Y-96.9474
G01 X119.8068 Y-96.9485
G01 X119.8014 Y-96.9419
G01 X119.7957 Y-96.9357
G01 X118.9267 Y-96.0671
G01 X118.9271 Y-96.0667
G00 Z2.0000
G00 X120.0008 Y-97.1773
G01 F60.00
G01 Z-2.4000
G01 F120.00
G01 X120.0415 Y-97.2069
G01 X120.0952 Y-97.2414
G01 X120.1100 Y-97.2491
G01 X120.1216 Y-97.2539
G01 X120.1335 Y-97.2579
G01 X120.1497 Y-97.2618
G01 X120.1663 Y-97.2642
G01 X120.1830 Y-97.2650
G01 X120.5507 Y-97.2650
G01 X120.5623 Y-97.2656
G01 X120.5696 Y-97.2666
G01 X120.5767 Y-97.2684
G01 X120.5836 Y-97.2709
G01 X120.5903 Y-97.2740
G01 X120.5966 Y-97.2778
G01 X120.6024 Y-97.2822
G01 X120.6079 Y-97.2871
G01 X120.6128 Y-97.2926
G01 X120.6172 Y-97.2984
G01 X120.6210 Y-97.3047
G01 X120.6241 Y-97.3114
G01 X120.6266 Y-97.3183
G01 X120.6284 Y-97.3254
G01 X120.6294 Y-97.3327
G01 X120.6300 Y-97.3443
G01 X120.6300 Y-97.7142
G01 X120.6305 Y-97.7272
G01 X120.6319 Y-97.7402
G01 X120.6344 Y-97.7530
G01 X120.6384 Y-97.7678
G01 X120.6573 Y-97.8481
G01 X120.6715 Y-97.9248
G01 X120.6850 Y-98.0027
G01 X120.7002 Y-98.0767
G01 X120.7025 Y-98.0866
G01 X120.7236 Y-98.1603
G01 X120.7266 Y-98.1697
G01 X120.7597 Y-98.2502
G01 X120.7643 Y-98.2604
G01 X120.7685 Y-98.2684
G01 X120.7566 Y-98.2648
G01 X120.7442 Y-98.2621
G01 X120.7358 Y-98.2607
G01 X120.7232 Y-98.2595
G01 X120.7106 Y-98.2592
G01 X120.7021 Y-98.2595
G01 X120.6895 Y-98.2607
G01 X120.6770 Y-98.2628
G01 X120.6647 Y-98.2658
G01 X120.6566 Y-98.2683
G01 X120.6448 Y-98.2728
G01 X120.6333 Y-98.2781
G01 X120.6222 Y-98.2842
G01 X120.6150 Y-98.2887
G01 X120.5966 Y-98.3022
G01 X120.5903 Y-98.3060
G01 X120.5836 Y-98.3091
G01 X120.5767 Y-98.3116
G01 X120.5696 Y-98.3134
G01 X120.5623 Y-98.3144
G01 X120.5507 Y-98.3150
G01 X120.0343 Y-98.3150
G01 X120.0227 Y-98.3144
G01 X120.0154 Y-98.3134
G01 X120.0083 Y-98.3116
G01 X120.0014 Y-98.3091
G01 X119.9947 Y-98.3060
G01 X119.9884 Y-98.3022
G01 X119.9826 Y-98.2978
G01 X119.9771 Y-98.2929
G01 X119.9722 Y-98.2874
G01 X119.9678 Y-98.2816
G01 X119.9640 Y-98.2753
G01 X119.9609 Y-98.2686
G01 X119.9584 Y-98.2617
G01 X119.9566 Y-98.2546
G01 X119.9556 Y-98.2473
G01 X119.9550 Y-98.2357
G01 X119.9550 Y-97.3443
G01 X119.9556 Y-97.3327
G01 X119.9566 Y-97.3254
G01 X119.9584 Y-97.3183
G01 X119.9609 Y-97.3114
G01 X119.9640 Y-97.3047
G01 X119.9767 Y-97.2851
G01 X119.9828 Y-97.2740
G01 X119.9897 Y-97.2586
G01 X119.9951 Y-97.2426
G01 X119.9989 Y-97.2261
G01 X120.0011 Y-97.2094
G01 X120.0017 Y-97.1925
G01 X120.0008 Y-97.1773
G00 Z2.0000
G00 X120.2350 Y-98.0350
G01 F60.00
G01 Z-2.4000
G01 F120.00
G01 X120.2350 Y-97.5450
G01 X120.3500 Y-97.5450
G01 X120.3501 Y-97.7220
G01 X120.3510 Y-97.7446
G01 X120.3531 Y-97.7671
G01 X120.3563 Y-97.7895
G01 X120.3606 Y-97.8117
G01 X120.3832 Y-97.9061
G01 X120.3959 Y-97.9742
G01 X120.4064 Y-98.0350
G01 X120.2350 Y-98.0350
G00 Z2.0000
G00 X120.9831 Y-98.4780
G01 F60.00
G01 Z-2.4000
G01 F120.00
G01 X121.0083 Y-98.5057
G01 X121.3386 Y-98.8359
G01 X121.4791 Y-98.9630
G01 X121.6299 Y-99.0751
G01 X121.6377 Y-99.0801
G01 X121.7963 Y-99.1750
G01 X121.9633 Y-99.2542
G01 X121.9747 Y-99.2589
G01 X122.1078 Y-99.3065
G01 X122.2032 Y-99.3332
G01 X122.2010 Y-99.3427
G01 X122.1051 Y-99.3081
G01 X122.0949 Y-99.3027
G01 X122.0835 Y-99.2979
G01 X121.9717 Y-99.2579
G01 X121.9661 Y-99.2556
G01 X121.7989 Y-99.1765
G01 X121.7935 Y-99.1736
G01 X121.6350 Y-99.0786
G01 X121.6299 Y-99.0752
G01 X121.4814 Y-98.9651
G01 X121.4766 Y-98.9612
G01 X121.3396 Y-98.8370
G01 X121.0082 Y-98.5058
G01 X120.9806 Y-98.4806
G01 X120.9831 Y-98.4780
G00 Z2.0000
G00 X122.4942 Y-99.4063
G01 F60.00
G01 Z-2.4000
G01 F120.00
G01 X122.5332 Y-99.4034
G01 X122.5462 Y-99.4016
G01 X122.5547 Y-99.3999
G01 X122.6646 Y-99.3694
G01 X122.6823 Y-99.3634
G01 X122.6927 Y-99.3588
G01 X122.7866 Y-99.3141
G01 X122.7999 Y-99.3070
G01 X122.8381 Y-99.2831
G01 X122.8490 Y-99.2757
G01 X122.8627 Y-99.2644
G01 X122.8752 Y-99.2519
G01 X122.8836 Y-99.2417
G01 X122.8913 Y-99.2309
G01 X122.8982 Y-99.2196
G01 X122.9041 Y-99.2078
G01 X122.9092 Y-99.1955
G01 X122.9133 Y-99.1829
G01 X122.9164 Y-99.1700
G01 X122.9186 Y-99.1570
G01 X122.9198 Y-99.1438
G01 X122.9200 Y-99.1349
G01 X122.9200 Y-98.9300
G01 X124.1200 Y-98.9300
G01 X124.1200 Y-99.1454
G01 X124.1209 Y-99.1633
G01 X124.1228 Y-99.1765
G01 X124.1246 Y-99.1853
G01 X124.1269 Y-99.1940
G01 X124.1311 Y-99.2067
G01 X124.1344 Y-99.2150
G01 X124.1402 Y-99.2271
G01 X124.1469 Y-99.2387
G01 X124.1519 Y-99.2461
G01 X124.1601 Y-99.2568
G01 X124.1690 Y-99.2668
G01 X124.1787 Y-99.2761
G01 X124.1890 Y-99.2846
G01 X124.2038 Y-99.2947
G01 X124.2601 Y-99.3292
G01 X124.2691 Y-99.3343
