(G-CODE GENERATED BY FLATCAM v8.994 - www.flatcam.org - Version Date: 2020/11/7)

(Name: B_Cu.gbr_mt_paint_cnc)
(Type: G-code from Geometry)
(Units: MM)

(Created on Monday, 20 March 2023 at 00:43)

(This preprocessor is the default preprocessor used by FlatCAM.)
(It is made to work with MACH3 compatible motion controllers.)

(TOOL DIAMETER: 0.35 mm)
(Feedrate_XY: 120.0 mm/min)
(Feedrate_Z: 60.0 mm/min)
(Feedrate rapids 1500.0 mm/min)

(Z_Cut: -2.4 mm)
(Z_Move: 2.0 mm)
(Z Start: None mm)
(Z End: 15.0 mm)
(X,Y End: 0.0000, 0.0000 mm)
(Steps per circle: 64)
(Preprocessor Geometry: default)

(X range:  114.3102 ...  157.9395  mm)
(Y range: -105.2345 ...  -65.5805  mm)

(Spindle Speed: None RPM)
G21
G90
G94

G01 F120.00
G00 Z2.0000

M03
G00 X117.1545 Y-67.6708
G01 F60.00
G01 Z-2.4000
G01 F120.00
G01 X117.1545 Y-69.4942
G01 X117.1552 Y-69.5258
G01 X117.1564 Y-69.5463
G01 X117.1596 Y-69.5878
G01 X117.1626 Y-69.6181
G01 X117.1681 Y-69.6552
G01 X117.1754 Y-69.6920
G01 X117.1797 Y-69.7103
G01 X117.1851 Y-69.7301
G01 X117.2313 Y-69.8895
G01 X117.2387 Y-69.9133
G01 X117.2466 Y-69.9361
G01 X117.2577 Y-69.9648
G01 X117.2701 Y-69.9930
G01 X117.2836 Y-70.0207
G01 X117.2954 Y-70.0426
G01 X117.3911 Y-70.2049
G01 X117.4077 Y-70.2309
G01 X117.4271 Y-70.2585
G01 X117.4417 Y-70.2777
G01 X117.4594 Y-70.2992
G01 X117.4759 Y-70.3179
G01 X117.4925 Y-70.3355
G01 X117.6195 Y-70.4625
G01 X117.6420 Y-70.4836
G01 X117.6653 Y-70.5036
G01 X117.6842 Y-70.5187
G01 X117.7042 Y-70.5335
G01 X117.7272 Y-70.5493
G01 X117.7501 Y-70.5639
G01 X117.9072 Y-70.6568
G01 X117.9343 Y-70.6714
G01 X117.9673 Y-70.6874
G01 X117.9902 Y-70.6973
G01 X118.0127 Y-70.7061
G01 X118.0334 Y-70.7135
G01 X118.0564 Y-70.7210
G01 X118.2266 Y-70.7704
G01 X118.2525 Y-70.7772
G01 X118.2813 Y-70.7835
G01 X118.3183 Y-70.7899
G01 X118.3556 Y-70.7944
G01 X118.4148 Y-70.7990
G01 X118.4375 Y-70.8001
G01 X118.4567 Y-70.8005
G01 X120.2892 Y-70.8005
G01 X120.3153 Y-70.8000
G01 X120.3427 Y-70.7985
G01 X120.3944 Y-70.7944
G01 X120.4237 Y-70.7910
G01 X120.4537 Y-70.7863
G01 X120.4870 Y-70.7796
G01 X120.5087 Y-70.7744
G01 X120.5303 Y-70.7685
G01 X120.6859 Y-70.7233
G01 X120.7166 Y-70.7135
G01 X120.7401 Y-70.7051
G01 X120.7686 Y-70.6936
G01 X120.7940 Y-70.6821
G01 X120.8183 Y-70.6701
G01 X120.8497 Y-70.6527
G01 X120.9575 Y-70.5891
G01 X120.9834 Y-70.6007
G01 X121.0047 Y-70.6093
G01 X121.2370 Y-70.6981
G01 X121.2680 Y-70.7091
G01 X121.2968 Y-70.7180
G01 X121.3204 Y-70.7243
G01 X121.3484 Y-70.7308
G01 X121.5934 Y-70.7806
G01 X121.6273 Y-70.7866
G01 X121.6636 Y-70.7913
G01 X121.6872 Y-70.7933
G01 X121.7073 Y-70.7944
G01 X121.9600 Y-70.8037
G01 X121.9952 Y-70.8039
G01 X122.0282 Y-70.8026
G01 X122.0518 Y-70.8008
G01 X122.0746 Y-70.7983
G01 X122.3304 Y-70.7654
G01 X122.3573 Y-70.7610
G01 X122.3833 Y-70.7557
G01 X122.4099 Y-70.7494
G01 X122.4361 Y-70.7420
G01 X122.6790 Y-70.6691
G01 X122.7076 Y-70.6595
G01 X122.7357 Y-70.6487
G01 X122.7575 Y-70.6394
G01 X122.7784 Y-70.6298
G01 X123.0029 Y-70.5198
G01 X123.0309 Y-70.5052
G01 X123.0571 Y-70.4902
G01 X123.0826 Y-70.4741
G01 X123.1051 Y-70.4587
G01 X123.3074 Y-70.3144
G01 X123.3258 Y-70.3006
G01 X123.3471 Y-70.2836
G01 X123.3699 Y-70.2638
G01 X123.3918 Y-70.2432
G01 X123.5755 Y-70.0601
G01 X123.5918 Y-70.0429
G01 X123.6061 Y-70.0268
G01 X123.6213 Y-70.0086
G01 X123.6364 Y-69.9894
G01 X123.7896 Y-69.7766
G01 X123.8051 Y-69.7542
G01 X123.8197 Y-69.7312
G01 X123.8349 Y-69.7051
G01 X123.8474 Y-69.6817
G01 X123.9624 Y-69.4492
G01 X123.9749 Y-69.4218
G01 X123.9864 Y-69.3939
G01 X123.9958 Y-69.3683
G01 X124.0029 Y-69.3465
G01 X124.0752 Y-69.1087
G01 X124.0826 Y-69.0824
G01 X124.0897 Y-69.0531
G01 X124.0951 Y-69.0264
G01 X124.0999 Y-68.9966
G01 X124.1325 Y-68.7488
G01 X124.1363 Y-68.7136
G01 X124.1376 Y-68.6940
G01 X124.1385 Y-68.6726
G01 X124.1406 Y-68.5859
G01 X124.1404 Y-68.5626
G01 X124.1392 Y-68.5356
G01 X124.1180 Y-68.2749
G01 X124.1138 Y-68.2371
G01 X124.1112 Y-68.2193
G01 X124.1076 Y-68.1988
G01 X124.0995 Y-68.1617
G01 X124.0379 Y-67.9164
G01 X124.0318 Y-67.8942
G01 X124.0237 Y-67.8682
G01 X124.0136 Y-67.8398
G01 X124.0018 Y-67.8105
G01 X123.9021 Y-67.5812
G01 X123.8860 Y-67.5468
G01 X123.8778 Y-67.5308
G01 X123.8677 Y-67.5126
G01 X123.8481 Y-67.4800
G01 X123.7107 Y-67.2677
G01 X123.6979 Y-67.2487
G01 X123.6818 Y-67.2266
G01 X123.6613 Y-67.2008
G01 X123.6406 Y-67.1769
G01 X123.4723 Y-66.9920
G01 X123.4565 Y-66.9754
G01 X123.4370 Y-66.9562
G01 X123.4126 Y-66.9341
G01 X123.3871 Y-66.9130
G01 X123.1920 Y-66.7590
G01 X123.1690 Y-66.7418
G01 X123.1490 Y-66.7279
G01 X123.1236 Y-66.7116
G01 X123.0951 Y-66.6950
G01 X122.8775 Y-66.5749
G01 X122.8571 Y-66.5642
G01 X122.8326 Y-66.5524
G01 X122.8022 Y-66.5393
G01 X122.7714 Y-66.5276
G01 X122.5357 Y-66.4441
G01 X122.5070 Y-66.4349
G01 X122.4780 Y-66.4268
G01 X122.4514 Y-66.4205
G01 X122.4289 Y-66.4160
G01 X122.1750 Y-66.3708
G01 X122.1516 Y-66.3674
G01 X122.1302 Y-66.3649
G01 X122.1066 Y-66.3628
G01 X122.0822 Y-66.3615
G01 X121.8157 Y-66.3581
G01 X121.7870 Y-66.3584
G01 X121.7569 Y-66.3600
G01 X121.7326 Y-66.3622
G01 X121.7041 Y-66.3659
G01 X121.4583 Y-66.4035
G01 X121.4344 Y-66.4075
G01 X121.4168 Y-66.4111
G01 X121.3937 Y-66.4164
G01 X121.3728 Y-66.4218
G01 X121.3529 Y-66.4277
G01 X121.0920 Y-66.5130
G01 X121.0612 Y-66.5248
G01 X121.0302 Y-66.5381
G01 X121.0063 Y-66.5497
G01 X120.9611 Y-66.5731
G01 X120.8497 Y-66.5073
G01 X120.8183 Y-66.4899
G01 X120.7940 Y-66.4779
G01 X120.7686 Y-66.4664
G01 X120.7401 Y-66.4549
G01 X120.7166 Y-66.4465
G01 X120.6859 Y-66.4367
G01 X120.5303 Y-66.3915
G01 X120.5087 Y-66.3856
G01 X120.4870 Y-66.3804
G01 X120.4537 Y-66.3737
G01 X120.4237 Y-66.3690
G01 X120.3944 Y-66.3656
G01 X120.3414 Y-66.3614
G01 X120.3153 Y-66.3600
G01 X120.2892 Y-66.3595
G01 X118.4519 Y-66.3596
G01 X118.4292 Y-66.3602
G01 X118.4087 Y-66.3614
G01 X118.3618 Y-66.3650
G01 X118.3369 Y-66.3676
G01 X118.3148 Y-66.3706
G01 X118.2892 Y-66.3750
G01 X118.2674 Y-66.3794
G01 X118.2447 Y-66.3847
G01 X118.2197 Y-66.3915
G01 X118.0536 Y-66.4399
G01 X118.0334 Y-66.4465
G01 X118.0161 Y-66.4526
G01 X117.9814 Y-66.4664
G01 X117.9620 Y-66.4751
G01 X117.9454 Y-66.4830
G01 X117.9124 Y-66.5004
G01 X117.7501 Y-66.5961
G01 X117.7217 Y-66.6143
G01 X117.6918 Y-66.6356
G01 X117.6653 Y-66.6564
G01 X117.6371 Y-66.6809
G01 X117.6137 Y-66.7031
G01 X117.4960 Y-66.8208
G01 X117.4759 Y-66.8421
G01 X117.4594 Y-66.8608
G01 X117.4417 Y-66.8823
G01 X117.4271 Y-66.9015
G01 X117.4143 Y-66.9194
G01 X117.4009 Y-66.9396
G01 X117.3870 Y-66.9620
G01 X117.3045 Y-67.1015
G01 X117.2880 Y-67.1309
G01 X117.2741 Y-67.1584
G01 X117.2603 Y-67.1891
G01 X117.2489 Y-67.2177
G01 X117.2396 Y-67.2440
G01 X117.2330 Y-67.2649
G01 X117.1865 Y-67.4247
G01 X117.1787 Y-67.4541
G01 X117.1722 Y-67.4828
G01 X117.1681 Y-67.5048
G01 X117.1651 Y-67.5233
G01 X117.1606 Y-67.5606
G01 X117.1556 Y-67.6253
G01 X117.1548 Y-67.6459
G01 X117.1545 Y-67.6708
G01 X117.4345 Y-67.6708
G01 X117.4345 Y-69.4942
G01 X117.4348 Y-69.5093
G01 X117.4359 Y-69.5299
G01 X117.4402 Y-69.5810
G01 X117.4441 Y-69.6084
G01 X117.4487 Y-69.6312
G01 X117.4554 Y-69.6571
G01 X117.5010 Y-69.8141
G01 X117.5081 Y-69.8358
G01 X117.5170 Y-69.8590
G01 X117.5222 Y-69.8711
G01 X117.5304 Y-69.8883
G01 X117.5375 Y-69.9020
G01 X117.5455 Y-69.9160
G01 X117.6306 Y-70.0599
G01 X117.6442 Y-70.0808
G01 X117.6576 Y-70.0991
G01 X117.6756 Y-70.1213
G01 X117.6859 Y-70.1327
G01 X117.6971 Y-70.1443
G01 X117.8154 Y-70.2625
G01 X117.8337 Y-70.2794
G01 X117.8483 Y-70.2916
G01 X117.8588 Y-70.2997
G01 X117.8742 Y-70.3108
G01 X117.8983 Y-70.3263
G01 X118.0447 Y-70.4128
G01 X118.0614 Y-70.4219
G01 X118.0839 Y-70.4328
G01 X118.1103 Y-70.4437
G01 X118.1373 Y-70.4529
G01 X118.2979 Y-70.4996
G01 X118.3125 Y-70.5036
G01 X118.3282 Y-70.5073
G01 X118.3580 Y-70.5127
G01 X118.3811 Y-70.5156
G01 X118.4313 Y-70.5195
G01 X118.4608 Y-70.5205
G01 X120.2892 Y-70.5205
G01 X120.3187 Y-70.5195
G01 X120.3689 Y-70.5156
G01 X120.3920 Y-70.5127
G01 X120.4105 Y-70.5096
G01 X120.4262 Y-70.5063
G01 X120.4487 Y-70.5006
G01 X120.6127 Y-70.4529
G01 X120.6397 Y-70.4437
G01 X120.6661 Y-70.4328
G01 X120.6886 Y-70.4219
G01 X120.7053 Y-70.4128
G01 X120.8492 Y-70.3278
G01 X120.8629 Y-70.3193
G01 X120.8836 Y-70.3053
G01 X120.9017 Y-70.2916
G01 X120.9207 Y-70.2755
G01 X120.9396 Y-70.2576
G01 X121.0470 Y-70.3203
G01 X121.0634 Y-70.3292
G01 X121.0854 Y-70.3397
G01 X121.1086 Y-70.3493
G01 X121.3368 Y-70.4365
G01 X121.3571 Y-70.4437
G01 X121.3784 Y-70.4501
G01 X121.4021 Y-70.4559
G01 X121.6478 Y-70.5060
G01 X121.6633 Y-70.5088
G01 X121.6782 Y-70.5111
G01 X121.7061 Y-70.5139
G01 X121.7218 Y-70.5148
G01 X121.9659 Y-70.5238
G01 X121.9817 Y-70.5241
G01 X122.0004 Y-70.5237
G01 X122.0190 Y-70.5226
G01 X122.0376 Y-70.5207
G01 X122.2856 Y-70.4890
G01 X122.3040 Y-70.4861
G01 X122.3167 Y-70.4837
G01 X122.3349 Y-70.4795
G01 X122.3529 Y-70.4746
G01 X122.5924 Y-70.4028
G01 X122.6101 Y-70.3970
G01 X122.6309 Y-70.3890
G01 X122.6448 Y-70.3831
G01 X122.6591 Y-70.3764
G01 X122.8784 Y-70.2690
G01 X122.8975 Y-70.2590
G01 X122.9137 Y-70.2497
G01 X122.9295 Y-70.2397
G01 X122.9425 Y-70.2308
G01 X123.1413 Y-70.0889
G01 X123.1586 Y-70.0760
G01 X123.1730 Y-70.0642
G01 X123.1869 Y-70.0517
G01 X123.1983 Y-70.0408
G01 X123.3713 Y-69.8684
G01 X123.3862 Y-69.8528
G01 X123.3985 Y-69.8388
G01 X123.4102 Y-69.8243
G01 X123.4196 Y-69.8116
G01 X123.5638 Y-69.6109
G01 X123.5763 Y-69.5924
G01 X123.5906 Y-69.5684
G01 X123.6006 Y-69.5493
G01 X123.7088 Y-69.3303
G01 X123.7179 Y-69.3108
G01 X123.7250 Y-69.2935
G01 X123.7314 Y-69.2760
G01 X123.7363 Y-69.2610
G01 X123.8081 Y-69.0245
G01 X123.8139 Y-69.0030
G01 X123.8197 Y-68.9757
G01 X123.8230 Y-68.9544
G01 X123.8559 Y-68.7039
G01 X123.8577 Y-68.6844
G01 X123.8584 Y-68.6723
G01 X123.8605 Y-68.5874
G01 X123.8605 Y-68.5706
G01 X123.8593 Y-68.5464
G01 X123.8390 Y-68.2993
G01 X123.8375 Y-68.2836
G01 X123.8355 Y-68.2686
G01 X123.8304 Y-68.2411
G01 X123.8269 Y-68.2257
G01 X123.7674 Y-67.9888
G01 X123.7616 Y-67.9680
G01 X123.7559 Y-67.9503
G01 X123.7494 Y-67.9328
G01 X123.7433 Y-67.9182
G01 X123.6459 Y-67.6942
G01 X123.6394 Y-67.6798
G01 X123.6310 Y-67.6631
G01 X123.6219 Y-67.6468
G01 X123.6107 Y-67.6285
G01 X123.4780 Y-67.4234
G01 X123.4692 Y-67.4103
G01 X123.4582 Y-67.3952
G01 X123.4466 Y-67.3806
G01 X123.4344 Y-67.3664
G01 X123.2681 Y-67.1836
G01 X123.2573 Y-67.1721
G01 X123.2440 Y-67.1591
G01 X123.2302 Y-67.1465
G01 X123.2136 Y-67.1328
G01 X123.0168 Y-66.9774
G01 X123.0047 Y-66.9684
G01 X122.9893 Y-66.9579
G01 X122.9654 Y-66.9433
G01 X122.7434 Y-66.8207
G01 X122.7268 Y-66.8121
G01 X122.7099 Y-66.8042
G01 X122.6927 Y-66.7970
G01 X122.6779 Y-66.7915
G01 X122.4476 Y-66.7100
G01 X122.4327 Y-66.7050
G01 X122.4148 Y-66.6997
G01 X122.3911 Y-66.6940
G01 X122.3654 Y-66.6891
G01 X122.1322 Y-66.6476
G01 X122.1138 Y-66.6448
G01 X122.0952 Y-66.6428
G01 X122.0766 Y-66.6415
G01 X122.0608 Y-66.6411
G01 X121.8101 Y-66.6380
G01 X121.7821 Y-66.6390
G01 X121.7671 Y-66.6402
G01 X121.7486 Y-66.6423
G01 X121.4944 Y-66.6813
G01 X121.4760 Y-66.6847
G01 X121.4613 Y-66.6881
G01 X121.4433 Y-66.6929
G01 X121.4309 Y-66.6966
G01 X121.1960 Y-66.7734
G01 X121.1811 Y-66.7786
G01 X121.1637 Y-66.7853
G01 X121.1466 Y-66.7928
G01 X121.1298 Y-66.8010
G01 X120.9380 Y-66.9008
G01 X120.9207 Y-66.8845
G01 X120.9017 Y-66.8684
G01 X120.8836 Y-66.8547
G01 X120.8598 Y-66.8387
G01 X120.7053 Y-66.7472
G01 X120.6833 Y-66.7354
G01 X120.6574 Y-66.7234
G01 X120.6363 Y-66.7150
G01 X120.6127 Y-66.7071
G01 X120.4521 Y-66.6604
G01 X120.4332 Y-66.6553
G01 X120.4034 Y-66.6491
G01 X120.3805 Y-66.6457
G01 X120.3609 Y-66.6437
G01 X120.3187 Y-66.6405
G01 X120.2892 Y-66.6395
G01 X118.4608 Y-66.6395
G01 X118.4457 Y-66.6398
G01 X118.4251 Y-66.6409
G01 X118.3740 Y-66.6452
G01 X118.3466 Y-66.6491
G01 X118.3238 Y-66.6537
G01 X118.2979 Y-66.6604
G01 X118.1437 Y-66.7052
G01 X118.1283 Y-66.7100
G01 X118.1137 Y-66.7150
G01 X118.0960 Y-66.7220
G01 X118.0785 Y-66.7297
G01 X118.0614 Y-66.7381
G01 X118.0447 Y-66.7472
G01 X117.8951 Y-66.8356
G01 X117.8742 Y-66.8492
G01 X117.8559 Y-66.8626
G01 X117.8365 Y-66.8782
G01 X117.8154 Y-66.8975
G01 X117.6951 Y-67.0178
G01 X117.6820 Y-67.0316
G01 X117.6695 Y-67.0460
G01 X117.6576 Y-67.0609
G01 X117.6497 Y-67.0714
G01 X117.6389 Y-67.0871
G01 X117.6287 Y-67.1033
G01 X117.5393 Y-67.2548
G01 X117.5304 Y-67.2717
G01 X117.5222 Y-67.2889
G01 X117.5148 Y-67.3064
G01 X117.5081 Y-67.3242
G01 X117.5002 Y-67.3487
G01 X117.4554 Y-67.5029
G01 X117.4514 Y-67.5175
G01 X117.4477 Y-67.5332
G01 X117.4434 Y-67.5560
G01 X117.4394 Y-67.5861
G01 X117.4351 Y-67.6418
G01 X117.4345 Y-67.6708
G01 X117.7145 Y-67.6708
G01 X117.7145 Y-69.4976
G01 X117.7150 Y-69.5079
G01 X117.7183 Y-69.5484
G01 X117.7202 Y-69.5616
G01 X117.7220 Y-69.5704
G01 X117.7691 Y-69.7332
G01 X117.7738 Y-69.7471
G01 X117.7796 Y-69.7606
G01 X117.7865 Y-69.7735
G01 X117.8682 Y-69.9117
G01 X117.8741 Y-69.9210
G01 X117.8806 Y-69.9299
G01 X117.8876 Y-69.9383
G01 X117.8951 Y-69.9463
G01 X118.0087 Y-70.0599
G01 X118.0167 Y-70.0674
G01 X118.0251 Y-70.0744
G01 X118.0371 Y-70.0829
G01 X118.0570 Y-70.0949
G01 X118.1815 Y-70.1685
G01 X118.1912 Y-70.1738
G01 X118.2011 Y-70.1785
G01 X118.2113 Y-70.1825
G01 X118.2218 Y-70.1859
G01 X118.3760 Y-70.2307
G01 X118.3934 Y-70.2348
G01 X118.4066 Y-70.2367
G01 X118.4471 Y-70.2400
G01 X118.4608 Y-70.2405
G01 X120.2892 Y-70.2405
G01 X120.3029 Y-70.2400
G01 X120.3478 Y-70.2362
G01 X120.3610 Y-70.2340
G01 X120.3740 Y-70.2307
G01 X120.5282 Y-70.1859
G01 X120.5455 Y-70.1799
G01 X120.5621 Y-70.1721
G01 X120.7067 Y-70.0868
G01 X120.7190 Y-70.0788
G01 X120.7277 Y-70.0721
G01 X120.7387 Y-70.0624
G01 X120.8413 Y-69.9599
G01 X120.8801 Y-69.9340
G01 X120.9087 Y-69.9283
G01 X120.9449 Y-69.9355
G01 X120.9552 Y-69.9411
G01 X120.9626 Y-69.9464
G01 X120.9717 Y-69.9521
G01 X121.1826 Y-70.0754
G01 X121.1953 Y-70.0821
G01 X121.2085 Y-70.0877
G01 X121.4367 Y-70.1749
G01 X121.4503 Y-70.1795
G01 X121.4642 Y-70.1829
G01 X121.7036 Y-70.2316
G01 X121.7178 Y-70.2339
G01 X121.7321 Y-70.2350
G01 X121.9762 Y-70.2439
G01 X121.9906 Y-70.2439
G01 X122.0049 Y-70.2426
G01 X122.2471 Y-70.2116
G01 X122.2613 Y-70.2092
G01 X122.2752 Y-70.2056
G01 X122.5092 Y-70.1354
G01 X122.5194 Y-70.1320
G01 X122.5294 Y-70.1280
G01 X122.7552 Y-70.0175
G01 X122.7679 Y-70.0107
G01 X122.7799 Y-70.0028
G01 X122.9787 Y-69.8610
G01 X122.9901 Y-69.8522
G01 X123.0006 Y-69.8425
G01 X123.1737 Y-69.6700
G01 X123.1834 Y-69.6595
G01 X123.1923 Y-69.6482
G01 X123.3348 Y-69.4498
G01 X123.3427 Y-69.4378
G01 X123.3496 Y-69.4252
G01 X123.4594 Y-69.2030
G01 X123.4649 Y-69.1898
G01 X123.4684 Y-69.1796
G01 X123.5394 Y-68.9459
G01 X123.5430 Y-68.9320
G01 X123.5454 Y-68.9178
G01 X123.5773 Y-68.6757
G01 X123.5788 Y-68.6571
G01 X123.5805 Y-68.5843
G01 X123.5803 Y-68.5703
G01 X123.5600 Y-68.3222
G01 X123.5588 Y-68.3115
G01 X123.5553 Y-68.2939
G01 X123.4949 Y-68.0535
G01 X123.4905 Y-68.0399
G01 X123.4866 Y-68.0299
G01 X123.3891 Y-67.8058
G01 X123.3829 Y-67.7929
G01 X123.3756 Y-67.7806
G01 X123.2429 Y-67.5755
G01 X123.2346 Y-67.5637
G01 X123.2254 Y-67.5527
G01 X123.0610 Y-67.3721
G01 X123.0509 Y-67.3619
G01 X123.0400 Y-67.3525
G01 X122.8483 Y-67.2011
G01 X122.8367 Y-67.1927
G01 X122.8245 Y-67.1852
G01 X122.6197 Y-67.0722
G01 X122.6074 Y-67.0655
G01 X122.5978 Y-67.0608
G01 X122.5844 Y-67.0554
G01 X122.3542 Y-66.9739
G01 X122.3405 Y-66.9697
G01 X122.3265 Y-66.9666
G01 X122.0860 Y-66.9237
G01 X122.0682 Y-66.9215
G01 X122.0574 Y-66.9210
G01 X121.8132 Y-66.9181
G01 X121.7988 Y-66.9185
G01 X121.7846 Y-66.9201
G01 X121.5431 Y-66.9570
G01 X121.5255 Y-66.9606
G01 X121.5152 Y-66.9636
G01 X121.2830 Y-67.0395
G01 X121.2663 Y-67.0460
G01 X121.2566 Y-67.0507
G01 X121.0336 Y-67.1669
G01 X121.0185 Y-67.1766
G01 X120.9716 Y-67.2118
G01 X120.9295 Y-67.2320
G01 X120.9005 Y-67.2336
G01 X120.8724 Y-67.2237
G01 X120.8461 Y-67.2006
G01 X120.8392 Y-67.1952
G01 X120.8297 Y-67.1884
G01 X120.7387 Y-67.0976
G01 X120.7306 Y-67.0902
G01 X120.7219 Y-67.0834
G01 X120.7067 Y-67.0732
G01 X120.5653 Y-66.9897
G01 X120.5489 Y-66.9815
G01 X120.5317 Y-66.9751
G01 X120.3740 Y-66.9293
G01 X120.3610 Y-66.9260
G01 X120.3478 Y-66.9238
G01 X120.3029 Y-66.9200
G01 X120.2892 Y-66.9195
G01 X118.4608 Y-66.9195
G01 X118.4505 Y-66.9198
G01 X118.4111 Y-66.9229
G01 X118.3934 Y-66.9252
G01 X118.3760 Y-66.9293
G01 X118.2183 Y-66.9751
G01 X118.2079 Y-66.9788
G01 X118.1978 Y-66.9830
G01 X118.1815 Y-66.9915
G01 X118.0433 Y-67.0732
G01 X118.0340 Y-67.0791
G01 X118.0251 Y-67.0856
G01 X118.0167 Y-67.0926
G01 X118.0087 Y-67.1001
G01 X117.8900 Y-67.2189
G01 X117.8784 Y-67.2331
G01 X117.8682 Y-67.2483
G01 X117.7847 Y-67.3897
G01 X117.7796 Y-67.3994
G01 X117.7738 Y-67.4129
G01 X117.7691 Y-67.4268
G01 X117.7220 Y-67.5896
G01 X117.7202 Y-67.5984
G01 X117.7183 Y-67.6116
G01 X117.7148 Y-67.6555
G01 X117.7145 Y-67.6708
G00 Z2.0000
G00 X119.2600 Y-68.6950
G01 F60.00
G01 Z-2.4000
G01 F120.00
G01 X119.4900 Y-68.6950
G01 X119.4900 Y-68.4650
G01 X119.2600 Y-68.4650
G01 X119.2600 Y-68.6950
G01 X118.9800 Y-68.9750
G01 X119.7700 Y-68.9750
G01 X119.7700 Y-68.1850
G01 X118.9800 Y-68.1850
G01 X118.9800 Y-68.9750
G01 X118.7000 Y-69.2550
G01 X120.0500 Y-69.2550
G01 X120.0500 Y-67.9050
G01 X118.7000 Y-67.9050
G01 X118.7000 Y-69.2550
G00 Z2.0000
G00 X121.9150 Y-69.2548
G01 F60.00
G01 Z-2.4000
G01 F120.00
G01 X121.9811 Y-69.2515
G01 X122.0466 Y-69.2418
G01 X122.1109 Y-69.2257
G01 X122.1732 Y-69.2034
G01 X122.2331 Y-69.1751
G01 X122.2899 Y-69.1411
G01 X122.3431 Y-69.1016
G01 X122.3921 Y-69.0571
G01 X122.4366 Y-69.0081
G01 X122.4761 Y-68.9549
G01 X122.5101 Y-68.8981
G01 X122.5384 Y-68.8382
G01 X122.5607 Y-68.7759
G01 X122.5768 Y-68.7116
G01 X122.5865 Y-68.6461
G01 X122.5898 Y-68.5800
G01 X122.5865 Y-68.5139
G01 X122.5768 Y-68.4484
G01 X122.5607 Y-68.3841
G01 X122.5384 Y-68.3218
G01 X122.5101 Y-68.2619
G01 X122.4761 Y-68.2051
G01 X122.4366 Y-68.1519
G01 X122.3921 Y-68.1029
G01 X122.3431 Y-68.0584
G01 X122.2899 Y-68.0189
G01 X122.2331 Y-67.9849
G01 X122.1732 Y-67.9566
G01 X122.1109 Y-67.9343
G01 X122.0466 Y-67.9182
G01 X121.9811 Y-67.9085
G01 X121.9150 Y-67.9052
G01 X121.8489 Y-67.9085
G01 X121.7834 Y-67.9182
G01 X121.7191 Y-67.9343
G01 X121.6568 Y-67.9566
G01 X121.5969 Y-67.9849
G01 X121.5401 Y-68.0189
G01 X121.4869 Y-68.0584
G01 X121.4379 Y-68.1029
G01 X121.3934 Y-68.1519
G01 X121.3539 Y-68.2051
G01 X121.3199 Y-68.2619
G01 X121.2916 Y-68.3218
G01 X121.2693 Y-68.3841
G01 X121.2532 Y-68.4484
G01 X121.2435 Y-68.5139
G01 X121.2402 Y-68.5800
G01 X121.2435 Y-68.6461
G01 X121.2532 Y-68.7116
G01 X121.2693 Y-68.7759
G01 X121.2916 Y-68.8382
G01 X121.3199 Y-68.8981
G01 X121.3539 Y-68.9549
G01 X121.3934 Y-69.0081
G01 X121.4379 Y-69.0571
G01 X121.4869 Y-69.1016
G01 X121.5401 Y-69.1411
G01 X121.5969 Y-69.1751
G01 X121.6568 Y-69.2034
G01 X121.7191 Y-69.2257
G01 X121.7834 Y-69.2418
G01 X121.8489 Y-69.2515
G01 X121.9150 Y-69.2548
G01 X121.9150 Y-68.9745
G01 X121.9537 Y-68.9726
G01 X121.9920 Y-68.9669
G01 X122.0295 Y-68.9575
G01 X122.0659 Y-68.9444
G01 X122.1009 Y-68.9279
G01 X122.1341 Y-68.9080
G01 X122.1652 Y-68.8849
G01 X122.1939 Y-68.8589
G01 X122.2199 Y-68.8302
G01 X122.2430 Y-68.7991
G01 X122.2629 Y-68.7659
G01 X122.2794 Y-68.7309
G01 X122.2925 Y-68.6945
G01 X122.3019 Y-68.6570
G01 X122.3076 Y-68.6187
G01 X122.3095 Y-68.5800
G01 X122.3076 Y-68.5413
G01 X122.3019 Y-68.5030
G01 X122.2925 Y-68.4655
G01 X122.2794 Y-68.4291
G01 X122.2629 Y-68.3941
G01 X122.2430 Y-68.3609
G01 X122.2199 Y-68.3298
G01 X122.1939 Y-68.3011
G01 X122.1652 Y-68.2751
G01 X122.1341 Y-68.2520
G01 X122.1009 Y-68.2321
G01 X122.0659 Y-68.2156
G01 X122.0295 Y-68.2025
G01 X121.9920 Y-68.1931
G01 X121.9537 Y-68.1874
G01 X121.9150 Y-68.1855
G01 X121.8763 Y-68.1874
G01 X121.8380 Y-68.1931
G01 X121.8005 Y-68.2025
G01 X121.7641 Y-68.2156
G01 X121.7291 Y-68.2321
G01 X121.6959 Y-68.2520
G01 X121.6648 Y-68.2751
G01 X121.6361 Y-68.3011
G01 X121.6101 Y-68.3298
G01 X121.5870 Y-68.3609
G01 X121.5671 Y-68.3941
G01 X121.5506 Y-68.4291
G01 X121.5375 Y-68.4655
G01 X121.5281 Y-68.5030
G01 X121.5224 Y-68.5413
G01 X121.5205 Y-68.5800
G01 X121.5224 Y-68.6187
G01 X121.5281 Y-68.6570
G01 X121.5375 Y-68.6945
G01 X121.5506 Y-68.7309
G01 X121.5671 Y-68.7659
G01 X121.5870 Y-68.7991
G01 X121.6101 Y-68.8302
G01 X121.6361 Y-68.8589
G01 X121.6648 Y-68.8849
G01 X121.6959 Y-68.9080
G01 X121.7291 Y-68.9279
G01 X121.7641 Y-68.9444
G01 X121.8005 Y-68.9575
G01 X121.8380 Y-68.9669
G01 X121.8763 Y-68.9726
G01 X121.9150 Y-68.9745
G01 X121.9150 Y-68.6941
G01 X121.9262 Y-68.6936
G01 X121.9373 Y-68.6919
G01 X121.9481 Y-68.6892
G01 X121.9587 Y-68.6854
G01 X121.9688 Y-68.6806
G01 X121.9784 Y-68.6749
G01 X121.9874 Y-68.6682
G01 X121.9957 Y-68.6607
G01 X122.0032 Y-68.6524
G01 X122.0099 Y-68.6434
G01 X122.0156 Y-68.6338
G01 X122.0204 Y-68.6237
G01 X122.0242 Y-68.6131
G01 X122.0269 Y-68.6023
G01 X122.0286 Y-68.5912
G01 X122.0291 Y-68.5800
G01 X122.0286 Y-68.5688
G01 X122.0269 Y-68.5577
G01 X122.0242 Y-68.5469
G01 X122.0204 Y-68.5363
G01 X122.0156 Y-68.5262
G01 X122.0099 Y-68.5166
G01 X122.0032 Y-68.5076
G01 X121.9957 Y-68.4993
G01 X121.9874 Y-68.4918
G01 X121.9784 Y-68.4851
G01 X121.9688 Y-68.4794
G01 X121.9587 Y-68.4746
G01 X121.9481 Y-68.4708
G01 X121.9373 Y-68.4681
G01 X121.9262 Y-68.4664
G01 X121.9150 Y-68.4659
G01 X121.9038 Y-68.4664
G01 X121.8927 Y-68.4681
G01 X121.8819 Y-68.4708
G01 X121.8713 Y-68.4746
G01 X121.8612 Y-68.4794
G01 X121.8516 Y-68.4851
G01 X121.8426 Y-68.4918
G01 X121.8343 Y-68.4993
G01 X121.8268 Y-68.5076
G01 X121.8201 Y-68.5166
G01 X121.8144 Y-68.5262
G01 X121.8096 Y-68.5363
G01 X121.8058 Y-68.5469
G01 X121.8031 Y-68.5577
G01 X121.8014 Y-68.5688
G01 X121.8009 Y-68.5800
G01 X121.8014 Y-68.5912
G01 X121.8031 Y-68.6023
G01 X121.8058 Y-68.6131
G01 X121.8096 Y-68.6237
G01 X121.8144 Y-68.6338
G01 X121.8201 Y-68.6434
G01 X121.8268 Y-68.6524
G01 X121.8343 Y-68.6607
G01 X121.8426 Y-68.6682
G01 X121.8516 Y-68.6749
G01 X121.8612 Y-68.6806
G01 X121.8713 Y-68.6854
G01 X121.8819 Y-68.6892
G01 X121.8927 Y-68.6919
G01 X121.9038 Y-68.6936
G01 X121.9150 Y-68.6941
G00 Z2.0000
G00 X121.1955 Y-76.9337
G01 F60.00
G01 Z-2.4000
G01 F120.00
G01 X121.2590 Y-76.9384
G01 X121.3197 Y-76.9424
G01 X121.3838 Y-76.9460
G01 X121.4441 Y-76.9488
G01 X121.7571 Y-76.9604
G01 X121.8250 Y-76.9622
G01 X121.8925 Y-76.9635
G01 X121.9589 Y-76.9640
G01 X122.0252 Y-76.9639
G01 X122.0914 Y-76.9632
G01 X122.1591 Y-76.9618
G01 X122.2257 Y-76.9598
G01 X122.2871 Y-76.9573
G01 X122.3554 Y-76.9540
G01 X122.4206 Y-76.9501
G01 X122.5000 Y-76.9446
G01 X122.5799 Y-76.9381
G01 X122.6561 Y-76.9311
G01 X122.7309 Y-76.9233
G01 X122.8451 Y-76.9099
G01 X123.1635 Y-76.8688
G01 X123.2293 Y-76.8595
G01 X123.2961 Y-76.8493
G01 X123.3648 Y-76.8381
G01 X123.4323 Y-76.8265
G01 X123.4954 Y-76.8149
G01 X123.5625 Y-76.8020
G01 X123.6267 Y-76.7890
G01 X123.6940 Y-76.7747
G01 X123.7548 Y-76.7611
G01 X123.8213 Y-76.7457
G01 X123.8848 Y-76.7302
G01 X123.9459 Y-76.7148
G01 X124.0099 Y-76.6979
G01 X124.0726 Y-76.6808
G01 X124.1314 Y-76.6642
G01 X124.1972 Y-76.6449
G01 X124.4735 Y-76.5619
G01 X124.5344 Y-76.5430
G01 X124.5995 Y-76.5221
G01 X124.6786 Y-76.4957
G01 X124.7588 Y-76.4679
G01 X124.8347 Y-76.4406
G01 X124.9161 Y-76.4101
G01 X124.9793 Y-76.3856
G01 X125.0412 Y-76.3610
G01 X125.0980 Y-76.3377
G01 X125.1610 Y-76.3113
G01 X125.2180 Y-76.2867
G01 X125.2786 Y-76.2599
G01 X125.3389 Y-76.2325
G01 X125.4002 Y-76.2040
G01 X125.4885 Y-76.1616
G01 X125.7206 Y-76.0479
G01 X125.7929 Y-76.0118
G01 X125.8568 Y-75.9790
G01 X125.9184 Y-75.9466
G01 X125.9816 Y-75.9125
G01 X126.0426 Y-75.8789
G01 X126.1050 Y-75.8435
G01 X126.1689 Y-75.8065
G01 X126.2306 Y-75.7698
G01 X126.2931 Y-75.7318
G01 X126.3540 Y-75.6939
G01 X126.4189 Y-75.6525
G01 X126.4815 Y-75.6115
G01 X126.5394 Y-75.5728
G01 X126.6021 Y-75.5300
G01 X126.6604 Y-75.4891
G01 X126.9257 Y-75.2997
G01 X126.9824 Y-75.2582
G01 X127.0398 Y-75.2151
G01 X127.0951 Y-75.1728
G01 X127.1491 Y-75.1307
G01 X127.1992 Y-75.0907
G01 X127.2549 Y-75.0454
G01 X127.3085 Y-75.0009
G01 X127.3632 Y-74.9545
G01 X127.4159 Y-74.9090
G01 X127.4671 Y-74.8637
G01 X127.5188 Y-74.8171
G01 X127.5686 Y-74.7713
G01 X127.6519 Y-74.6927
G01 X127.7317 Y-74.6148
G01 X127.9441 Y-74.4031
G01 X127.9967 Y-74.3494
G01 X128.0464 Y-74.2977
G01 X128.0965 Y-74.2445
G01 X128.1488 Y-74.1877
G01 X128.1976 Y-74.1335
G01 X128.2501 Y-74.0739
G01 X128.3024 Y-74.0131
G01 X128.3490 Y-73.9578
G01 X128.3972 Y-73.8992
G01 X128.4430 Y-73.8423
G01 X128.4853 Y-73.7887
G01 X128.5254 Y-73.7369
G01 X128.5670 Y-73.6819
G01 X128.6035 Y-73.6328
G01 X128.6438 Y-73.5774
G01 X128.7957 Y-73.3660
G01 X128.8549 Y-73.2822
G01 X128.8938 Y-73.2256
G01 X128.9286 Y-73.1739
G01 X128.9662 Y-73.1169
G01 X129.0040 Y-73.0584
G01 X129.0401 Y-73.0013
G01 X129.0749 Y-72.9449
G01 X129.1093 Y-72.8882
G01 X129.1447 Y-72.8283
G01 X129.1806 Y-72.7662
G01 X129.2131 Y-72.7085
G01 X129.2459 Y-72.6492
G01 X129.2775 Y-72.5906
G01 X129.3061 Y-72.5362
G01 X129.3374 Y-72.4755
G01 X129.4014 Y-72.3472
G01 X135.6764 Y-72.3325
G01 X135.6288 Y-72.3944
G01 X135.5833 Y-72.4551
G01 X135.5401 Y-72.5140
G01 X135.4950 Y-72.5768
G01 X135.4324 Y-72.6666
G01 X135.2584 Y-72.9222
G01 X135.2237 Y-72.9744
G01 X135.1876 Y-73.0300
G01 X135.1521 Y-73.0859
G01 X135.1180 Y-73.1407
G01 X135.0855 Y-73.1939
G01 X135.0505 Y-73.2525
G01 X135.0175 Y-73.3089
G01 X134.9863 Y-73.3636
G01 X134.9540 Y-73.4213
G01 X134.9215 Y-73.4808
G01 X134.8901 Y-73.5395
G01 X134.8617 Y-73.5940
G01 X134.8325 Y-73.6510
G01 X134.8029 Y-73.7104
G01 X134.7739 Y-73.7700
G01 X134.7448 Y-73.8313
G01 X134.6227 Y-74.0942
G01 X134.5947 Y-74.1561
G01 X134.5687 Y-74.2149
G01 X134.5369 Y-74.2890
G01 X134.5054 Y-74.3648
G01 X134.4766 Y-74.4364
G01 X134.4463 Y-74.5145
G01 X134.2948 Y-74.7591
G01 X134.1365 Y-75.0199
G01 X134.0808 Y-75.1140
G01 X134.0063 Y-75.2438
G01 X133.9543 Y-75.3369
G01 X133.9052 Y-75.4281
G01 X133.7165 Y-75.7902
G01 X133.6795 Y-75.8624
G01 X133.6361 Y-75.9499
G01 X133.5919 Y-76.0423
G01 X133.5482 Y-76.1372
G01 X133.5071 Y-76.2302
G01 X133.4673 Y-76.3239
G01 X133.3211 Y-76.6768
G01 X133.2901 Y-76.7533
G01 X133.2623 Y-76.8244
G01 X133.2332 Y-76.9011
G01 X133.2057 Y-76.9762
G01 X133.1775 Y-77.0565
G01 X133.1504 Y-77.1364
G01 X133.1210 Y-77.2272
G01 X133.0087 Y-77.5833
G01 X132.9851 Y-77.6603
G01 X132.9517 Y-77.7744
G01 X132.9217 Y-77.8841
G01 X132.8934 Y-77.9947
G01 X132.8668 Y-78.1062
G01 X132.7764 Y-78.5131
G01 X132.7593 Y-78.5923
G01 X132.7449 Y-78.6630
G01 X132.7315 Y-78.7325
G01 X132.7196 Y-78.7981
G01 X132.7075 Y-78.8684
G01 X132.6903 Y-78.9763
G01 X132.6749 Y-79.0846
G01 X132.6221 Y-79.4860
G01 X132.6134 Y-79.5571
G01 X132.6059 Y-79.6237
G01 X132.5991 Y-79.6894
G01 X132.5934 Y-79.7514
G01 X132.5879 Y-79.8158
G01 X132.5831 Y-79.8802
G01 X132.5792 Y-79.9410
G01 X132.5756 Y-80.0039
G01 X132.5686 Y-80.1590
G01 X132.5456 Y-80.2182
G01 X132.5222 Y-80.2801
G01 X132.4999 Y-80.3408
G01 X132.4742 Y-80.4126
G01 X132.3964 Y-80.6366
G01 X132.3062 Y-80.8990
G01 X132.2752 Y-80.9863
G01 X132.2595 Y-81.0264
G01 X132.2360 Y-81.0830
G01 X132.1943 Y-81.1804
G01 X132.1183 Y-81.3537
G01 X132.0856 Y-81.4301
G01 X132.0252 Y-81.5765
G01 X131.9935 Y-81.6557
G01 X131.9587 Y-81.7458
G01 X131.9259 Y-81.8344
G01 X131.8115 Y-82.1539
G01 X131.7767 Y-82.2541
G01 X131.7399 Y-82.3661
G01 X131.7217 Y-82.4239
G01 X131.7051 Y-82.4784
G01 X131.6727 Y-82.5893
G01 X131.6424 Y-82.6998
G01 X131.6203 Y-82.7855
G01 X131.5314 Y-83.1416
G01 X131.5180 Y-83.1982
G01 X131.5038 Y-83.2608
G01 X131.4908 Y-83.3203
G01 X131.4787 Y-83.3785
G01 X131.4650 Y-83.4476
G01 X131.4524 Y-83.5146
G01 X131.4400 Y-83.5839
G01 X131.4292 Y-83.6487
G01 X131.4152 Y-83.7380
G01 X131.3641 Y-84.0833
G01 X131.3498 Y-84.1903
G01 X131.3365 Y-84.3029
G01 X131.3253 Y-84.4141
G01 X131.3160 Y-84.5231
G01 X131.3109 Y-84.5933
G01 X131.3067 Y-84.6609
G01 X131.2954 Y-84.8868
G01 X131.2888 Y-84.9987
G01 X131.2846 Y-85.0926
G01 X131.2816 Y-85.1885
G01 X131.2800 Y-85.2774
G01 X131.2797 Y-85.3647
G01 X131.2803 Y-85.4484
G01 X131.2820 Y-85.5332
G01 X131.2828 Y-85.9144
G01 X131.2545 Y-85.9887
G01 X131.2288 Y-86.0589
G01 X131.2029 Y-86.1316
G01 X131.1779 Y-86.2047
G01 X131.1550 Y-86.2739
G01 X131.1309 Y-86.3496
G01 X131.1075 Y-86.4263
G01 X131.0859 Y-86.4998
G01 X130.9996 Y-86.8101
G01 X130.9811 Y-86.8792
G01 X130.9633 Y-86.9487
G01 X130.9424 Y-87.0338
G01 X130.9218 Y-87.1231
G01 X130.9026 Y-87.2115
G01 X130.8840 Y-87.3031
G01 X130.8700 Y-87.3766
G01 X130.8570 Y-87.4493
G01 X130.8445 Y-87.5235
G01 X130.8328 Y-87.5977
G01 X130.8220 Y-87.6720
G01 X130.8121 Y-87.7452
G01 X130.8029 Y-87.8199
G01 X130.7946 Y-87.8932
G01 X130.7638 Y-88.1833
G01 X130.7565 Y-88.2609
G01 X130.7497 Y-88.3440
G01 X130.7432 Y-88.4391
G01 X130.7379 Y-88.5355
G01 X130.7340 Y-88.6294
G01 X130.7314 Y-88.7252
G01 X128.8480 Y-90.6423
G01 X121.1955 Y-90.6443
G01 X121.1955 Y-76.9337
G01 X121.4755 Y-77.2303
G01 X121.7732 Y-77.2410
G01 X121.8580 Y-77.2430
G01 X121.9485 Y-77.2440
G01 X122.0516 Y-77.2437
G01 X122.1487 Y-77.2421
G01 X122.2521 Y-77.2390
G01 X122.3533 Y-77.2345
G01 X122.4464 Y-77.2290
G01 X122.5460 Y-77.2219
G01 X122.6425 Y-77.2136
G01 X122.7397 Y-77.2040
G01 X122.8103 Y-77.1962
G01 X122.8845 Y-77.1871
G01 X123.1563 Y-77.1523
G01 X123.2566 Y-77.1384
G01 X123.3438 Y-77.1252
G01 X123.4326 Y-77.1106
G01 X123.5172 Y-77.0957
G01 X123.6019 Y-77.0796
G01 X123.6878 Y-77.0623
G01 X123.7732 Y-77.0440
G01 X123.8624 Y-77.0237
G01 X123.9433 Y-77.0042
G01 X124.0157 Y-76.9859
G01 X124.0913 Y-76.9660
G01 X124.1665 Y-76.9453
G01 X124.2369 Y-76.9251
G01 X124.5584 Y-76.8288
G01 X124.6365 Y-76.8044
G01 X124.7204 Y-76.7771
G01 X124.7925 Y-76.7527
G01 X124.8709 Y-76.7252
G01 X124.9440 Y-76.6987
G01 X125.0158 Y-76.6717
G01 X125.0888 Y-76.6435
G01 X125.1614 Y-76.6144
G01 X125.2335 Y-76.5846
G01 X125.3076 Y-76.5530
G01 X125.3686 Y-76.5263
G01 X125.4316 Y-76.4980
G01 X125.4942 Y-76.4691
G01 X125.5567 Y-76.4396
G01 X125.8494 Y-76.2966
G01 X125.9041 Y-76.2693
G01 X125.9585 Y-76.2416
G01 X126.0349 Y-76.2017
G01 X126.1076 Y-76.1627
G01 X126.1830 Y-76.1211
G01 X126.2577 Y-76.0787
G01 X126.3298 Y-76.0366
G01 X126.4017 Y-75.9936
G01 X126.4703 Y-75.9514
G01 X126.5468 Y-75.9031
G01 X126.6095 Y-75.8625
G01 X126.6699 Y-75.8225
G01 X126.7318 Y-75.7806
G01 X126.7915 Y-75.7392
G01 X126.8412 Y-75.7042
G01 X127.0635 Y-75.5456
G01 X127.1237 Y-75.5018
G01 X127.1801 Y-75.4600
G01 X127.2414 Y-75.4135
G01 X127.3004 Y-75.3678
G01 X127.3601 Y-75.3206
G01 X127.4181 Y-75.2736
G01 X127.4740 Y-75.2275
G01 X127.5369 Y-75.1744
G01 X127.5942 Y-75.1250
G01 X127.6502 Y-75.0756
G01 X127.7017 Y-75.0292
G01 X127.7511 Y-74.9839
G01 X127.8041 Y-74.9344
G01 X127.8554 Y-74.8854
G01 X127.9288 Y-74.8137
G01 X128.1223 Y-74.6209
G01 X128.1725 Y-74.5702
G01 X128.2196 Y-74.5218
G01 X128.2636 Y-74.4756
G01 X128.3131 Y-74.4227
G01 X128.3611 Y-74.3704
G01 X128.4095 Y-74.3165
G01 X128.4560 Y-74.2639
G01 X128.5033 Y-74.2090
G01 X128.5493 Y-74.1547
G01 X128.5920 Y-74.1033
G01 X128.6368 Y-74.0482
G01 X128.6820 Y-73.9916
G01 X128.7253 Y-73.9362
G01 X128.7674 Y-73.8812
G01 X128.8077 Y-73.8276
G01 X128.8512 Y-73.7684
G01 X129.0288 Y-73.5214
G01 X129.0893 Y-73.4356
G01 X129.1315 Y-73.3740
G01 X129.1719 Y-73.3138
G01 X129.2128 Y-73.2514
G01 X129.2519 Y-73.1903
G01 X129.2946 Y-73.1223
G01 X129.3365 Y-73.0537
G01 X129.3765 Y-72.9864
G01 X129.4198 Y-72.9118
G01 X129.4593 Y-72.8420
G01 X129.4997 Y-72.7685
G01 X129.5377 Y-72.6975
G01 X129.5745 Y-72.6268
G01 X135.1295 Y-72.6138
G01 X135.0466 Y-72.7354
G01 X134.9972 Y-72.8093
G01 X134.9429 Y-72.8930
G01 X134.8897 Y-72.9774
G01 X134.8362 Y-73.0650
G01 X134.7837 Y-73.1540
G01 X134.7305 Y-73.2472
G01 X134.6818 Y-73.3354
G01 X134.6465 Y-73.4012
G01 X134.6079 Y-73.4751
G01 X134.5738 Y-73.5423
G01 X134.5407 Y-73.6093
G01 X134.4897 Y-73.7157
G01 X134.3758 Y-73.9611
G01 X134.3277 Y-74.0673
G01 X134.2821 Y-74.1725
G01 X134.2381 Y-74.2787
G01 X134.1944 Y-74.3893
G01 X134.0541 Y-74.6159
G01 X133.8930 Y-74.8816
G01 X133.8612 Y-74.9349
G01 X133.8316 Y-74.9855
G01 X133.7460 Y-75.1353
G01 X133.6908 Y-75.2352
G01 X133.6386 Y-75.3335
G01 X133.4517 Y-75.6928
G01 X133.4125 Y-75.7702
G01 X133.3758 Y-75.8449
G01 X133.3384 Y-75.9233
G01 X133.3015 Y-76.0032
G01 X133.2641 Y-76.0870
G01 X133.2276 Y-76.1715
G01 X133.0519 Y-76.5953
G01 X133.0182 Y-76.6794
G01 X132.9831 Y-76.7705
G01 X132.9557 Y-76.8442
G01 X132.9264 Y-76.9260
G01 X132.8994 Y-77.0042
G01 X132.8751 Y-77.0773
G01 X132.8541 Y-77.1427
G01 X132.7405 Y-77.5031
G01 X132.7194 Y-77.5713
G01 X132.7005 Y-77.6349
G01 X132.6696 Y-77.7437
G01 X132.6405 Y-77.8527
G01 X132.6126 Y-77.9640
G01 X132.5882 Y-78.0683
G01 X132.5020 Y-78.4569
G01 X132.4832 Y-78.5446
G01 X132.4687 Y-78.6165
G01 X132.4557 Y-78.6840
G01 X132.4439 Y-78.7493
G01 X132.4307 Y-78.8261
G01 X132.4128 Y-78.9392
G01 X132.3974 Y-79.0472
G01 X132.3450 Y-79.4455
G01 X132.3364 Y-79.5147
G01 X132.3287 Y-79.5825
G01 X132.3221 Y-79.6459
G01 X132.3161 Y-79.7083
G01 X132.3103 Y-79.7757
G01 X132.3056 Y-79.8360
G01 X132.3011 Y-79.9018
G01 X132.2975 Y-79.9619
G01 X132.2909 Y-80.1004
G01 X132.2691 Y-80.1574
G01 X132.2488 Y-80.2120
G01 X132.2048 Y-80.3343
G01 X132.1293 Y-80.5521
G01 X132.0418 Y-80.8069
G01 X132.0128 Y-80.8886
G01 X132.0001 Y-80.9209
G01 X131.9780 Y-80.9743
G01 X131.9374 Y-81.0691
G01 X131.8601 Y-81.2455
G01 X131.8257 Y-81.3258
G01 X131.7653 Y-81.4725
G01 X131.7290 Y-81.5632
G01 X131.6935 Y-81.6554
G01 X131.6603 Y-81.7456
G01 X131.5454 Y-82.0666
G01 X131.5085 Y-82.1733
G01 X131.4716 Y-82.2858
G01 X131.4370 Y-82.3975
G01 X131.4202 Y-82.4542
G01 X131.4033 Y-82.5130
G01 X131.3718 Y-82.6280
G01 X131.3487 Y-82.7172
G01 X131.2609 Y-83.0690
G01 X131.2457 Y-83.1329
G01 X131.2314 Y-83.1957
G01 X131.2179 Y-83.2577
G01 X131.2054 Y-83.3175
G01 X131.1913 Y-83.3881
G01 X131.1782 Y-83.4573
G01 X131.1666 Y-83.5222
G01 X131.1537 Y-83.5983
G01 X131.1390 Y-83.6920
G01 X131.0883 Y-84.0341
G01 X131.0734 Y-84.1443
G01 X131.0600 Y-84.2557
G01 X131.0480 Y-84.3723
G01 X131.0381 Y-84.4853
G01 X131.0323 Y-84.5636
G01 X131.0275 Y-84.6393
G01 X131.0159 Y-84.8705
G01 X131.0099 Y-84.9692
G01 X131.0051 Y-85.0730
G01 X131.0019 Y-85.1718
G01 X131.0001 Y-85.2696
G01 X130.9997 Y-85.3650
G01 X131.0003 Y-85.4522
G01 X131.0020 Y-85.5371
G01 X131.0027 Y-85.8630
G01 X130.9763 Y-85.9340
G01 X130.9505 Y-86.0055
G01 X130.9259 Y-86.0759
G01 X130.9028 Y-86.1446
G01 X130.8796 Y-86.2156
G01 X130.8562 Y-86.2901
G01 X130.8336 Y-86.3649
G01 X130.8132 Y-86.4352
G01 X130.7286 Y-86.7399
G01 X130.7103 Y-86.8081
G01 X130.6928 Y-86.8760
G01 X130.6711 Y-86.9647
G01 X130.6511 Y-87.0506
G01 X130.6331 Y-87.1327
G01 X130.6141 Y-87.2248
G01 X130.5998 Y-87.2981
G01 X130.5867 Y-87.3694
G01 X130.5740 Y-87.4430
G01 X130.5623 Y-87.5146
G01 X130.5511 Y-87.5884
G01 X130.5410 Y-87.6602
G01 X130.5313 Y-87.7342
G01 X130.5225 Y-87.8066
G01 X130.4881 Y-88.1266
G01 X130.4812 Y-88.1962
G01 X130.4754 Y-88.2615
G01 X130.4687 Y-88.3472
G01 X130.4628 Y-88.4361
G01 X130.4582 Y-88.5221
G01 X130.4546 Y-88.6074
G01 X128.7306 Y-90.3624
G01 X121.4755 Y-90.3642
G01 X121.4755 Y-77.2303
G01 X121.7555 Y-77.5206
G01 X121.8532 Y-77.5229
G01 X121.9508 Y-77.5240
G01 X122.0463 Y-77.5238
G01 X122.1470 Y-77.5222
G01 X122.2452 Y-77.5194
G01 X122.3436 Y-77.5153
G01 X122.4384 Y-77.5101
G01 X122.5381 Y-77.5033
G01 X122.6281 Y-77.4960
G01 X122.7105 Y-77.4884
G01 X122.7972 Y-77.4794
G01 X122.8812 Y-77.4697
G01 X123.2310 Y-77.4248
G01 X123.3329 Y-77.4102
G01 X123.4288 Y-77.3952
G01 X123.5162 Y-77.3803
G01 X123.5984 Y-77.3654
G01 X123.6839 Y-77.3488
G01 X123.7660 Y-77.3320
G01 X123.8503 Y-77.3137
G01 X123.9334 Y-77.2946
G01 X124.0160 Y-77.2747
G01 X124.0991 Y-77.2536
G01 X124.2000 Y-77.2266
G01 X124.2977 Y-77.1991
G01 X124.3609 Y-77.1805
G01 X124.6036 Y-77.1077
G01 X124.6748 Y-77.0859
G01 X124.7385 Y-77.0657
G01 X124.8085 Y-77.0428
G01 X124.8799 Y-77.0187
G01 X124.9531 Y-76.9932
G01 X125.0240 Y-76.9676
G01 X125.0967 Y-76.9406
G01 X125.1705 Y-76.9122
G01 X125.2426 Y-76.8836
G01 X125.3226 Y-76.8508
G01 X125.3948 Y-76.8204
G01 X125.4660 Y-76.7894
G01 X125.5238 Y-76.7636
G01 X125.5847 Y-76.7358
G01 X125.6463 Y-76.7070
G01 X125.7082 Y-76.6774
G01 X125.9946 Y-76.5371
G01 X126.0632 Y-76.5026
G01 X126.1321 Y-76.4670
G01 X126.2027 Y-76.4296
G01 X126.2708 Y-76.3926
G01 X126.3399 Y-76.3541
G01 X126.4072 Y-76.3157
G01 X126.4723 Y-76.2777
G01 X126.5439 Y-76.2348
G01 X126.6112 Y-76.1935
G01 X126.6807 Y-76.1498
G01 X126.7402 Y-76.1115
G01 X126.8020 Y-76.0710
G01 X126.8597 Y-76.0323
G01 X126.9205 Y-75.9906
G01 X127.0020 Y-75.9334
G01 X127.2118 Y-75.7838
G01 X127.2615 Y-75.7480
G01 X127.3157 Y-75.7081
G01 X127.3749 Y-75.6638
G01 X127.4301 Y-75.6217
G01 X127.4882 Y-75.5764
G01 X127.5411 Y-75.5343
G01 X127.5953 Y-75.4905
G01 X127.6505 Y-75.4449
G01 X127.7035 Y-75.4003
G01 X127.7562 Y-75.3551
G01 X127.8085 Y-75.3094
G01 X127.8623 Y-75.2615
G01 X127.9117 Y-75.2167
G01 X127.9624 Y-75.1698
G01 X128.0104 Y-75.1247
G01 X128.0636 Y-75.0736
G01 X128.1129 Y-75.0254
G01 X128.3202 Y-74.8190
G01 X128.3875 Y-74.7509
G01 X128.4355 Y-74.7012
G01 X128.4808 Y-74.6534
G01 X128.5281 Y-74.6027
G01 X128.5708 Y-74.5559
G01 X128.6187 Y-74.5027
G01 X128.6699 Y-74.4446
G01 X128.7191 Y-74.3875
G01 X128.7691 Y-74.3283
G01 X128.8142 Y-74.2739
G01 X128.8631 Y-74.2137
G01 X128.9099 Y-74.1547
G01 X128.9575 Y-74.0936
G01 X129.0149 Y-74.0180
G01 X129.0702 Y-73.9433
G01 X129.2530 Y-73.6893
G01 X129.2933 Y-73.6326
G01 X129.3295 Y-73.5804
G01 X129.3685 Y-73.5233
G01 X129.4084 Y-73.4637
G01 X129.4529 Y-73.3958
G01 X129.4980 Y-73.3252
G01 X129.5390 Y-73.2594
G01 X129.5839 Y-73.1856
G01 X129.6261 Y-73.1144
G01 X129.6668 Y-73.0440
G01 X129.7067 Y-72.9732
G01 X129.7434 Y-72.9064
G01 X134.6118 Y-72.8950
G01 X134.5684 Y-72.9675
G01 X134.5285 Y-73.0359
G01 X134.4847 Y-73.1130
G01 X134.4443 Y-73.1861
G01 X134.4047 Y-73.2595
G01 X134.3659 Y-73.3335
G01 X134.3289 Y-73.4060
G01 X134.2891 Y-73.4862
G01 X134.2578 Y-73.5511
G01 X134.2283 Y-73.6137
G01 X134.1191 Y-73.8491
G01 X134.0775 Y-73.9409
G01 X134.0431 Y-74.0194
G01 X134.0081 Y-74.1018
G01 X133.9740 Y-74.1851
G01 X133.9427 Y-74.2639
G01 X133.8126 Y-74.4742
G01 X133.6440 Y-74.7524
G01 X133.6115 Y-74.8073
G01 X133.5792 Y-74.8627
G01 X133.5196 Y-74.9668
G01 X133.4826 Y-75.0326
G01 X133.4407 Y-75.1091
G01 X133.4022 Y-75.1813
G01 X133.2027 Y-75.5648
G01 X133.1694 Y-75.6303
G01 X133.1368 Y-75.6962
G01 X133.1063 Y-75.7593
G01 X133.0748 Y-75.8261
G01 X133.0414 Y-75.8988
G01 X133.0090 Y-75.9715
G01 X132.9809 Y-76.0361
G01 X132.9487 Y-76.1124
G01 X132.7839 Y-76.5111
G01 X132.7421 Y-76.6167
G01 X132.7012 Y-76.7250
G01 X132.6747 Y-76.7980
G01 X132.6493 Y-76.8703
G01 X132.6255 Y-76.9404
G01 X132.6001 Y-77.0176
G01 X132.4674 Y-77.4382
G01 X132.4411 Y-77.5248
G01 X132.4157 Y-77.6119
G01 X132.3878 Y-77.7129
G01 X132.3603 Y-77.8180
G01 X132.3348 Y-77.9220
G01 X132.3108 Y-78.0257
G01 X132.2277 Y-78.4005
G01 X132.2083 Y-78.4914
G01 X132.1940 Y-78.5623
G01 X132.1797 Y-78.6371
G01 X132.1663 Y-78.7107
G01 X132.1545 Y-78.7801
G01 X132.1366 Y-78.8927
G01 X132.1208 Y-79.0033
G01 X132.0678 Y-79.4058
G01 X132.0599 Y-79.4694
G01 X132.0527 Y-79.5311
G01 X132.0459 Y-79.5943
G01 X132.0395 Y-79.6582
G01 X132.0338 Y-79.7215
G01 X132.0287 Y-79.7840
G01 X132.0238 Y-79.8512
G01 X132.0197 Y-79.9150
G01 X132.0162 Y-79.9785
G01 X132.0131 Y-80.0428
G01 X131.9774 Y-80.1389
G01 X131.9363 Y-80.2539
G01 X131.8646 Y-80.4608
G01 X131.7774 Y-80.7148
G01 X131.7504 Y-80.7908
G01 X131.7407 Y-80.8155
G01 X131.7199 Y-80.8655
G01 X131.6804 Y-80.9578
G01 X131.6033 Y-81.1338
G01 X131.5696 Y-81.2126
G01 X131.5060 Y-81.3666
G01 X131.4683 Y-81.4609
G01 X131.4315 Y-81.5567
G01 X131.3970 Y-81.6503
G01 X131.2815 Y-81.9730
G01 X131.2421 Y-82.0872
G01 X131.2048 Y-82.2007
G01 X131.1689 Y-82.3167
G01 X131.1514 Y-82.3757
G01 X131.1348 Y-82.4333
G01 X131.1023 Y-82.5518
G01 X131.0778 Y-82.6464
G01 X130.9887 Y-83.0031
G01 X130.9740 Y-83.0650
G01 X130.9593 Y-83.1296
G01 X130.9461 Y-83.1895
G01 X130.9334 Y-83.2502
G01 X130.9175 Y-83.3291
G01 X130.9037 Y-83.4021
G01 X130.8907 Y-83.4741
G01 X130.8781 Y-83.5488
G01 X130.8621 Y-83.6503
G01 X130.8127 Y-83.9839
G01 X130.7969 Y-84.0991
G01 X130.7832 Y-84.2122
G01 X130.7708 Y-84.3289
G01 X130.7609 Y-84.4396
G01 X130.7530 Y-84.5444
G01 X130.7466 Y-84.6474
G01 X130.7363 Y-84.8542
G01 X130.7320 Y-84.9238
G01 X130.7284 Y-84.9919
G01 X130.7252 Y-85.0656
G01 X130.7226 Y-85.1415
G01 X130.7204 Y-85.2482
G01 X130.7196 Y-85.3563
G01 X130.7202 Y-85.4434
G01 X130.7220 Y-85.5411
G01 X130.7226 Y-85.8126
G01 X130.6974 Y-85.8816
G01 X130.6742 Y-85.9470
G01 X130.6503 Y-86.0168
G01 X130.6265 Y-86.0883
G01 X130.6042 Y-86.1578
G01 X130.5828 Y-86.2266
G01 X130.5628 Y-86.2933
G01 X130.5416 Y-86.3667
G01 X130.4585 Y-86.6661
G01 X130.4395 Y-86.7369
G01 X130.4222 Y-86.8040
G01 X130.4013 Y-86.8888
G01 X130.3811 Y-86.9751
G01 X130.3630 Y-87.0567
G01 X130.3442 Y-87.1464
G01 X130.3305 Y-87.2158
G01 X130.3168 Y-87.2885
G01 X130.3046 Y-87.3569
G01 X130.2918 Y-87.4334
G01 X130.2801 Y-87.5079
G01 X130.2693 Y-87.5808
G01 X130.2597 Y-87.6511
G01 X130.2503 Y-87.7247
G01 X130.2378 Y-87.8332
G01 X130.2105 Y-88.0892
G01 X130.2020 Y-88.1747
G01 X130.1953 Y-88.2518
G01 X130.1892 Y-88.3307
G01 X130.1840 Y-88.4081
G01 X130.1796 Y-88.4879
G01 X128.6131 Y-90.0824
G01 X121.7555 Y-90.0842
G01 X121.7555 Y-77.5206
G01 X122.0355 Y-77.8039
G01 X122.1229 Y-77.8028
G01 X122.2153 Y-77.8005
G01 X122.3016 Y-77.7975
G01 X122.3920 Y-77.7932
G01 X122.4786 Y-77.7881
G01 X122.5718 Y-77.7816
G01 X122.6599 Y-77.7743
G01 X122.7477 Y-77.7661
G01 X122.8362 Y-77.7568
G01 X122.9272 Y-77.7462
G01 X123.2103 Y-77.7100
G01 X123.2736 Y-77.7016
G01 X123.3555 Y-77.6899
G01 X123.4438 Y-77.6764
G01 X123.5310 Y-77.6619
G01 X123.6119 Y-77.6476
G01 X123.6909 Y-77.6328
G01 X123.7737 Y-77.6164
G01 X123.8560 Y-77.5991
G01 X123.9371 Y-77.5811
G01 X124.0154 Y-77.5629
G01 X124.0953 Y-77.5435
G01 X124.1732 Y-77.5236
G01 X124.2566 Y-77.5014
G01 X124.3374 Y-77.4790
G01 X124.4139 Y-77.4568
G01 X124.6841 Y-77.3758
G01 X124.7452 Y-77.3572
G01 X124.8203 Y-77.3335
G01 X124.8967 Y-77.3086
G01 X124.9708 Y-77.2836
G01 X125.0467 Y-77.2571
G01 X125.1158 Y-77.2322
G01 X125.1912 Y-77.2042
G01 X125.2642 Y-77.1762
G01 X125.3390 Y-77.1466
G01 X125.4114 Y-77.1171
G01 X125.4856 Y-77.0861
G01 X125.5574 Y-77.0551
G01 X125.6275 Y-77.0240
G01 X125.6853 Y-76.9978
G01 X125.7442 Y-76.9705
G01 X125.8020 Y-76.9431
G01 X125.8574 Y-76.9162
G01 X126.1407 Y-76.7771
G01 X126.2275 Y-76.7330
G01 X126.3096 Y-76.6899
G01 X126.3751 Y-76.6547
G01 X126.4436 Y-76.6170
G01 X126.5136 Y-76.5775
G01 X126.5813 Y-76.5384
G01 X126.6505 Y-76.4975
G01 X126.7174 Y-76.4569
G01 X126.7858 Y-76.4146
G01 X126.8519 Y-76.3727
G01 X126.9123 Y-76.3336
G01 X126.9672 Y-76.2973
G01 X127.0249 Y-76.2586
G01 X127.0880 Y-76.2152
G01 X127.1660 Y-76.1604
G01 X127.3746 Y-76.0116
G01 X127.4261 Y-75.9744
G01 X127.4794 Y-75.9354
G01 X127.5357 Y-75.8933
G01 X127.5915 Y-75.8508
G01 X127.6455 Y-75.8089
G01 X127.7001 Y-75.7657
G01 X127.7550 Y-75.7216
G01 X127.8093 Y-75.6770
G01 X127.8594 Y-75.6352
G01 X127.9142 Y-75.5886
G01 X127.9657 Y-75.5440
G01 X128.0199 Y-75.4962
G01 X128.0692 Y-75.4520
G01 X128.1222 Y-75.4035
G01 X128.1721 Y-75.3570
G01 X128.2249 Y-75.3070
G01 X128.2717 Y-75.2619
G01 X128.3335 Y-75.2010
G01 X128.5153 Y-75.0199
G01 X128.5665 Y-74.9683
G01 X128.6121 Y-74.9214
G01 X128.6576 Y-74.8740
G01 X128.6974 Y-74.8317
G01 X128.7436 Y-74.7820
G01 X128.7921 Y-74.7287
G01 X128.8401 Y-74.6751
G01 X128.8894 Y-74.6189
G01 X128.9346 Y-74.5664
G01 X128.9839 Y-74.5080
G01 X129.0307 Y-74.4515
G01 X129.0790 Y-74.3920
G01 X129.1239 Y-74.3356
G01 X129.1709 Y-74.2754
G01 X129.2135 Y-74.2197
G01 X129.2569 Y-74.1619
G01 X129.3015 Y-74.1014
G01 X129.4918 Y-73.8367
G01 X129.5379 Y-73.7713
G01 X129.5836 Y-73.7051
G01 X129.6273 Y-73.6402
G01 X129.6694 Y-73.5764
G01 X129.7119 Y-73.5107
G01 X129.7522 Y-73.4468
G01 X129.7934 Y-73.3802
G01 X129.8330 Y-73.3146
G01 X129.8697 Y-73.2526
G01 X129.9081 Y-73.1860
G01 X134.1322 Y-73.1761
G01 X134.1004 Y-73.2376
G01 X134.0713 Y-73.2951
G01 X134.0440 Y-73.3501
G01 X134.0144 Y-73.4112
G01 X133.9762 Y-73.4918
G01 X133.8560 Y-73.7511
G01 X133.8123 Y-73.8482
G01 X133.7705 Y-73.9447
G01 X133.7292 Y-74.0435
G01 X133.6913 Y-74.1380
G01 X133.5718 Y-74.3313
G01 X133.3992 Y-74.6162
G01 X133.3656 Y-74.6731
G01 X133.3328 Y-74.7295
G01 X133.2709 Y-74.8376
G01 X133.2259 Y-74.9182
G01 X133.1875 Y-74.9888
G01 X133.1493 Y-75.0607
G01 X132.9713 Y-75.4026
G01 X132.9402 Y-75.4630
G01 X132.9026 Y-75.5379
G01 X132.8651 Y-75.6147
G01 X132.8293 Y-75.6899
G01 X132.7917 Y-75.7714
G01 X132.7479 Y-75.8697
G01 X132.7067 Y-75.9655
G01 X132.5405 Y-76.3665
G01 X132.5099 Y-76.4420
G01 X132.4810 Y-76.5156
G01 X132.4529 Y-76.5894
G01 X132.4260 Y-76.6622
G01 X132.4014 Y-76.7310
G01 X132.3741 Y-76.8096
G01 X132.3499 Y-76.8818
G01 X132.3248 Y-76.9591
G01 X132.1935 Y-77.3763
G01 X132.1635 Y-77.4761
G01 X132.1351 Y-77.5757
G01 X132.1146 Y-77.6505
G01 X132.0960 Y-77.7213
G01 X132.0780 Y-77.7929
G01 X132.0603 Y-77.8658
G01 X132.0376 Y-77.9646
G01 X131.9568 Y-78.3288
G01 X131.9350 Y-78.4306
G01 X131.9155 Y-78.5275
G01 X131.8963 Y-78.6303
G01 X131.8783 Y-78.7341
G01 X131.8598 Y-78.8509
G01 X131.8439 Y-78.9613
G01 X131.7910 Y-79.3632
G01 X131.7761 Y-79.4852
G01 X131.7691 Y-79.5489
G01 X131.7627 Y-79.6121
G01 X131.7570 Y-79.6728
G01 X131.7515 Y-79.7383
G01 X131.7467 Y-79.7999
G01 X131.7422 Y-79.8656
G01 X131.7355 Y-79.9857
G01 X131.7061 Y-80.0657
G01 X131.6698 Y-80.1678
G01 X131.6000 Y-80.3694
G01 X131.5130 Y-80.6227
G01 X131.4880 Y-80.6931
G01 X131.4619 Y-80.7567
G01 X131.4235 Y-80.8464
G01 X131.3466 Y-81.0221
G01 X131.3116 Y-81.1038
G01 X131.2468 Y-81.2608
G01 X131.2057 Y-81.3637
G01 X131.1695 Y-81.4579
G01 X131.1321 Y-81.5594
G01 X131.0161 Y-81.8837
G01 X130.9957 Y-81.9419
G01 X130.9750 Y-82.0029
G01 X130.9541 Y-82.0659
G01 X130.9359 Y-82.1225
G01 X130.9167 Y-82.1837
G01 X130.8987 Y-82.2428
G01 X130.8645 Y-82.3604
G01 X130.8317 Y-82.4799
G01 X130.8063 Y-82.5780
G01 X130.7166 Y-82.9371
G01 X130.7013 Y-83.0014
G01 X130.6861 Y-83.0684
G01 X130.6724 Y-83.1305
G01 X130.6596 Y-83.1914
G01 X130.6436 Y-83.2709
G01 X130.6293 Y-83.3458
G01 X130.6162 Y-83.4186
G01 X130.6030 Y-83.4961
G01 X130.5861 Y-83.6027
G01 X130.5362 Y-83.9390
G01 X130.5207 Y-84.0517
G01 X130.5063 Y-84.1688
G01 X130.4939 Y-84.2841
G01 X130.4828 Y-84.4047
G01 X130.4741 Y-84.5181
G01 X130.4673 Y-84.6281
G01 X130.4568 Y-84.8380
G01 X130.4525 Y-84.9075
G01 X130.4487 Y-84.9781
G01 X130.4455 Y-85.0509
G01 X130.4431 Y-85.1226
G01 X130.4405 Y-85.2361
G01 X130.4396 Y-85.3441
G01 X130.4402 Y-85.4437
G01 X130.4420 Y-85.5434
G01 X130.4425 Y-85.7631
G01 X130.4178 Y-85.8320
G01 X130.3943 Y-85.8999
G01 X130.3713 Y-85.9682
G01 X130.3489 Y-86.0366
G01 X130.3291 Y-86.0993
G01 X130.3073 Y-86.1703
G01 X130.2869 Y-86.2392
G01 X130.2677 Y-86.3063
G01 X130.1884 Y-86.5923
G01 X130.1699 Y-86.6611
G01 X130.1523 Y-86.7293
G01 X130.1311 Y-86.8148
G01 X130.1107 Y-86.9015
G01 X130.0919 Y-86.9858
G01 X130.0736 Y-87.0724
G01 X130.0598 Y-87.1412
G01 X130.0462 Y-87.2122
G01 X130.0329 Y-87.2853
G01 X130.0207 Y-87.3561
G01 X130.0092 Y-87.4273
G01 X129.9983 Y-87.4985
G01 X129.9890 Y-87.5637
G01 X129.9791 Y-87.6373
G01 X129.9702 Y-87.7086
G01 X129.9617 Y-87.7820
G01 X129.9285 Y-88.0937
G01 X129.9218 Y-88.1641
G01 X129.9159 Y-88.2327
G01 X129.9105 Y-88.3019
G01 X129.9061 Y-88.3667
G01 X128.4956 Y-89.8024
G01 X122.0355 Y-89.8041
G01 X122.0355 Y-77.8039
G01 X122.3155 Y-78.0771
G01 X122.3963 Y-78.0734
G01 X122.4725 Y-78.0691
G01 X122.5556 Y-78.0635
G01 X122.6329 Y-78.0576
G01 X122.7075 Y-78.0512
G01 X122.7883 Y-78.0435
G01 X122.8670 Y-78.0351
G01 X122.9484 Y-78.0256
G01 X123.2745 Y-77.9840
G01 X123.3525 Y-77.9733
G01 X123.4261 Y-77.9625
G01 X123.5191 Y-77.9478
G01 X123.6129 Y-77.9319
G01 X123.7015 Y-77.9158
G01 X123.7982 Y-77.8971
G01 X123.8728 Y-77.8818
G01 X123.9542 Y-77.8642
G01 X124.0334 Y-77.8463
G01 X124.1106 Y-77.8280
G01 X124.1832 Y-77.8101
G01 X124.2638 Y-77.7893
G01 X124.3421 Y-77.7683
G01 X124.4184 Y-77.7470
G01 X124.5121 Y-77.7198
G01 X124.7646 Y-77.6440
G01 X124.8827 Y-77.6075
G01 X124.9666 Y-77.5804
G01 X125.0473 Y-77.5533
G01 X125.1320 Y-77.5239
G01 X125.2120 Y-77.4952
G01 X125.2863 Y-77.4675
G01 X125.3562 Y-77.4408
G01 X125.4298 Y-77.4118
G01 X125.5006 Y-77.3832
G01 X125.5741 Y-77.3526
G01 X125.6410 Y-77.3241
G01 X125.7135 Y-77.2923
G01 X125.7874 Y-77.2590
G01 X125.8630 Y-77.2240
G01 X125.9410 Y-77.1869
G01 X126.2326 Y-77.0442
G01 X126.2986 Y-77.0111
G01 X126.3600 Y-76.9797
G01 X126.4245 Y-76.9460
G01 X126.4843 Y-76.9140
G01 X126.5530 Y-76.8765
G01 X126.6204 Y-76.8389
G01 X126.6872 Y-76.8007
G01 X126.7537 Y-76.7619
G01 X126.8210 Y-76.7217
G01 X126.8872 Y-76.6813
G01 X126.9508 Y-76.6416
G01 X127.0192 Y-76.5981
G01 X127.0780 Y-76.5598
G01 X127.1370 Y-76.5207
G01 X127.1897 Y-76.4851
G01 X127.2508 Y-76.4431
G01 X127.3284 Y-76.3885
G01 X127.5374 Y-76.2394
G01 X127.5907 Y-76.2009
G01 X127.6459 Y-76.1604
G01 X127.7043 Y-76.1169
G01 X127.7555 Y-76.0779
G01 X127.8110 Y-76.0349
G01 X127.8628 Y-75.9941
G01 X127.9161 Y-75.9513
G01 X127.9706 Y-75.9069
G01 X128.0250 Y-75.8618
G01 X128.0758 Y-75.8189
G01 X128.1274 Y-75.7745
G01 X128.1787 Y-75.7296
G01 X128.2297 Y-75.6842
G01 X128.2802 Y-75.6385
G01 X128.3338 Y-75.5892
G01 X128.3808 Y-75.5452
G01 X128.4344 Y-75.4940
G01 X128.5227 Y-75.4077
G01 X128.7424 Y-75.1887
G01 X128.8299 Y-75.0989
G01 X128.9133 Y-75.0109
G01 X128.9640 Y-74.9559
G01 X129.0101 Y-74.9051
G01 X129.0596 Y-74.8496
G01 X129.1061 Y-74.7964
G01 X129.1551 Y-74.7392
G01 X129.1986 Y-74.6877
G01 X129.2447 Y-74.6321
G01 X129.2906 Y-74.5756
G01 X129.3412 Y-74.5122
G01 X129.3924 Y-74.4466
G01 X129.4417 Y-74.3823
G01 X129.4887 Y-74.3195
G01 X129.5558 Y-74.2276
G01 X129.7082 Y-74.0155
G01 X129.7565 Y-73.9473
G01 X129.7990 Y-73.8861
G01 X129.8374 Y-73.8296
G01 X129.8774 Y-73.7697
G01 X129.9174 Y-73.7086
G01 X129.9565 Y-73.6479
G01 X129.9944 Y-73.5875
G01 X130.0323 Y-73.5263
G01 X130.0687 Y-73.4660
G01 X133.6836 Y-73.4572
G01 X133.5999 Y-73.6378
G01 X133.5485 Y-73.7526
G01 X133.5213 Y-73.8152
G01 X133.4933 Y-73.8815
G01 X133.4669 Y-73.9452
G01 X133.4407 Y-74.0104
G01 X133.3278 Y-74.1936
G01 X133.1843 Y-74.4303
G01 X133.1487 Y-74.4896
G01 X133.1049 Y-74.5642
G01 X133.0417 Y-74.6744
G01 X133.0040 Y-74.7410
G01 X132.9685 Y-74.8052
G01 X132.9317 Y-74.8733
G01 X132.8968 Y-74.9393
G01 X132.7206 Y-75.2777
G01 X132.6801 Y-75.3569
G01 X132.6386 Y-75.4401
G01 X132.5981 Y-75.5239
G01 X132.5587 Y-75.6078
G01 X132.5208 Y-75.6911
G01 X132.4832 Y-75.7762
G01 X132.4437 Y-75.8686
G01 X132.2727 Y-76.2815
G01 X132.2415 Y-76.3594
G01 X132.2125 Y-76.4336
G01 X132.1836 Y-76.5102
G01 X132.1550 Y-76.5884
G01 X132.1275 Y-76.6657
G01 X132.1024 Y-76.7390
G01 X132.0768 Y-76.8161
G01 X132.0532 Y-76.8893
G01 X131.9418 Y-77.2427
G01 X131.9225 Y-77.3047
G01 X131.8877 Y-77.4216
G01 X131.8564 Y-77.5330
G01 X131.8368 Y-77.6058
G01 X131.8192 Y-77.6736
G01 X131.8008 Y-77.7474
G01 X131.7842 Y-77.8169
G01 X131.7633 Y-77.9079
G01 X131.6808 Y-78.2800
G01 X131.6589 Y-78.3828
G01 X131.6383 Y-78.4864
G01 X131.6195 Y-78.5872
G01 X131.6021 Y-78.6881
G01 X131.5835 Y-78.8049
G01 X131.5672 Y-78.9182
G01 X131.5133 Y-79.3270
G01 X131.4999 Y-79.4357
G01 X131.4863 Y-79.5620
G01 X131.4750 Y-79.6841
G01 X131.4656 Y-79.8060
G01 X131.4580 Y-79.9286
G01 X131.4362 Y-79.9890
G01 X131.4027 Y-80.0834
G01 X131.3353 Y-80.2781
G01 X131.2486 Y-80.5306
G01 X131.2262 Y-80.5937
G01 X131.2039 Y-80.6479
G01 X131.1666 Y-80.7351
G01 X131.0898 Y-80.9104
G01 X131.0536 Y-80.9950
G01 X130.9876 Y-81.1549
G01 X130.9450 Y-81.2615
G01 X130.9075 Y-81.3592
G01 X130.8688 Y-81.4643
G01 X130.7522 Y-81.7902
G01 X130.7311 Y-81.8505
G01 X130.7080 Y-81.9183
G01 X130.6691 Y-82.0376
G01 X130.6492 Y-82.1010
G01 X130.6306 Y-82.1622
G01 X130.6125 Y-82.2232
G01 X130.5950 Y-82.2841
G01 X130.5784 Y-82.3439
G01 X130.5611 Y-82.4079
G01 X130.5348 Y-82.5095
G01 X130.4445 Y-82.8712
G01 X130.4287 Y-82.9378
G01 X130.4136 Y-83.0037
G01 X130.4003 Y-83.0641
G01 X130.3864 Y-83.1298
G01 X130.3703 Y-83.2096
G01 X130.3564 Y-83.2821
G01 X130.3415 Y-83.3642
G01 X130.3275 Y-83.4455
G01 X130.3093 Y-83.5608
G01 X130.2610 Y-83.8860
G01 X130.2448 Y-84.0022
G01 X130.2298 Y-84.1223
G01 X130.2169 Y-84.2407
G01 X130.2058 Y-84.3580
G01 X130.1961 Y-84.4805
G01 X130.1886 Y-84.5966
G01 X130.1773 Y-84.8219
G01 X130.1729 Y-84.8913
G01 X130.1693 Y-84.9594
G01 X130.1663 Y-85.0273
G01 X130.1638 Y-85.0950
G01 X130.1609 Y-85.2124
G01 X130.1597 Y-85.3353
G01 X130.1601 Y-85.4416
G01 X130.1620 Y-85.5472
G01 X130.1624 Y-85.7146
G01 X130.1392 Y-85.7807
G01 X130.1165 Y-85.8472
G01 X130.0942 Y-85.9143
G01 X130.0739 Y-85.9775
G01 X130.0524 Y-86.0462
G01 X130.0324 Y-86.1122
G01 X130.0145 Y-86.1732
G01 X129.9953 Y-86.2406
G01 X129.9183 Y-86.5185
G01 X129.8992 Y-86.5897
G01 X129.8819 Y-86.6565
G01 X129.8614 Y-86.7390
G01 X129.8407 Y-86.8262
G01 X129.8220 Y-86.9091
G01 X129.8046 Y-86.9906
G01 X129.7904 Y-87.0600
G01 X129.7761 Y-87.1332
G01 X129.7637 Y-87.2003
G01 X129.7511 Y-87.2713
G01 X129.7391 Y-87.3433
G01 X129.7283 Y-87.4111
G01 X129.7179 Y-87.4811
G01 X129.7079 Y-87.5526
G01 X129.6966 Y-87.6391
G01 X129.6863 Y-87.7255
G01 X129.6554 Y-88.0130
G01 X129.6441 Y-88.1268
G01 X129.6341 Y-88.2441
G01 X128.3782 Y-89.5225
G01 X122.3155 Y-89.5240
G01 X122.3155 Y-78.0771
G01 X122.5955 Y-78.3414
G01 X122.6790 Y-78.3348
G01 X122.7608 Y-78.3275
G01 X122.8378 Y-78.3198
G01 X122.9234 Y-78.3105
G01 X123.0448 Y-78.2958
G01 X123.2973 Y-78.2634
G01 X123.3868 Y-78.2512
G01 X123.4615 Y-78.2403
G01 X123.5354 Y-78.2288
G01 X123.6053 Y-78.2173
G01 X123.6859 Y-78.2033
G01 X123.7595 Y-78.1898
G01 X123.8335 Y-78.1756
G01 X123.9072 Y-78.1606
G01 X123.9789 Y-78.1454
G01 X124.0559 Y-78.1284
G01 X124.1295 Y-78.1114
G01 X124.2070 Y-78.0927
G01 X124.2826 Y-78.0737
G01 X124.3543 Y-78.0550
G01 X124.4263 Y-78.0356
G01 X124.4990 Y-78.0152
G01 X124.5771 Y-77.9925
G01 X124.8737 Y-77.9036
G01 X124.9515 Y-77.8794
G01 X125.0247 Y-77.8560
G01 X125.1132 Y-77.8267
G01 X125.1987 Y-77.7973
G01 X125.2894 Y-77.7649
G01 X125.3789 Y-77.7319
G01 X125.4534 Y-77.7034
G01 X125.5254 Y-77.6752
G01 X125.5953 Y-77.6470
G01 X125.6662 Y-77.6177
G01 X125.7397 Y-77.5864
G01 X125.8088 Y-77.5563
G01 X125.8776 Y-77.5255
G01 X125.9454 Y-77.4945
G01 X126.0148 Y-77.4620
G01 X126.0826 Y-77.4294
G01 X126.3865 Y-77.2803
G01 X126.4526 Y-77.2469
G01 X126.5254 Y-77.2093
G01 X126.5919 Y-77.1741
G01 X126.6601 Y-77.1372
G01 X126.7298 Y-77.0986
G01 X126.7967 Y-77.0607
G01 X126.8637 Y-77.0220
G01 X126.9301 Y-76.9827
G01 X126.9907 Y-76.9462
G01 X127.0586 Y-76.9045
G01 X127.1237 Y-76.8636
G01 X127.1889 Y-76.8218
G01 X127.2501 Y-76.7817
G01 X127.3050 Y-76.7451
G01 X127.3640 Y-76.7051
G01 X127.4182 Y-76.6677
G01 X127.4908 Y-76.6166
G01 X127.7001 Y-76.4672
G01 X127.7554 Y-76.4274
G01 X127.8125 Y-76.3855
G01 X127.8658 Y-76.3457
G01 X127.9183 Y-76.3058
G01 X127.9748 Y-76.2623
G01 X128.0266 Y-76.2216
G01 X128.0816 Y-76.1776
G01 X128.1333 Y-76.1356
G01 X128.1842 Y-76.0936
G01 X128.2388 Y-76.0477
G01 X128.2889 Y-76.0049
G01 X128.3421 Y-75.9587
G01 X128.3920 Y-75.9147
G01 X128.4411 Y-75.8706
G01 X128.4938 Y-75.8225
G01 X128.5421 Y-75.7777
G01 X128.5934 Y-75.7294
G01 X128.6508 Y-75.6743
G01 X128.7053 Y-75.6210
G01 X128.9139 Y-75.4132
G01 X128.9973 Y-75.3286
G01 X129.0772 Y-75.2453
G01 X129.1254 Y-75.1939
G01 X129.1764 Y-75.1386
G01 X129.2211 Y-75.0892
G01 X129.2694 Y-75.0349
G01 X129.3144 Y-74.9836
G01 X129.3606 Y-74.9299
G01 X129.4074 Y-74.8745
G01 X129.4542 Y-74.8182
G01 X129.4977 Y-74.7649
G01 X129.5377 Y-74.7151
G01 X129.5833 Y-74.6573
G01 X129.6230 Y-74.6062
G01 X129.6649 Y-74.5513
G01 X129.7036 Y-74.4997
G01 X129.7443 Y-74.4446
G01 X129.7830 Y-74.3912
G01 X129.9529 Y-74.1546
G01 X129.9948 Y-74.0951
G01 X130.0348 Y-74.0372
G01 X130.0856 Y-73.9623
G01 X130.1332 Y-73.8905
G01 X130.1788 Y-73.8200
G01 X130.2251 Y-73.7468
G01 X133.2497 Y-73.7384
G01 X133.2194 Y-73.8108
G01 X133.1896 Y-73.8840
G01 X133.0857 Y-74.0528
G01 X132.9397 Y-74.2935
G01 X132.8948 Y-74.3688
G01 X132.8513 Y-74.4434
G01 X132.7768 Y-74.5738
G01 X132.7324 Y-74.6535
G01 X132.6848 Y-74.7412
G01 X132.6465 Y-74.8137
G01 X132.4722 Y-75.1486
G01 X132.4186 Y-75.2537
G01 X132.3779 Y-75.3358
G01 X132.3353 Y-75.4246
G01 X132.2949 Y-75.5112
G01 X132.2581 Y-75.5926
G01 X132.2191 Y-75.6814
G01 X132.1834 Y-75.7652
G01 X132.0114 Y-76.1808
G01 X131.9796 Y-76.2600
G01 X131.9479 Y-76.3417
G01 X131.9196 Y-76.4168
G01 X131.8882 Y-76.5028
G01 X131.8473 Y-76.6193
G01 X131.8075 Y-76.7385
G01 X131.7863 Y-76.8048
G01 X131.6747 Y-77.1586
G01 X131.6488 Y-77.2426
G01 X131.6261 Y-77.3187
G01 X131.6020 Y-77.4024
G01 X131.5797 Y-77.4832
G01 X131.5616 Y-77.5513
G01 X131.5438 Y-77.6207
G01 X131.5268 Y-77.6891
G01 X131.5106 Y-77.7572
G01 X131.4901 Y-77.8469
G01 X131.4059 Y-78.2268
G01 X131.3838 Y-78.3306
G01 X131.3633 Y-78.4333
G01 X131.3452 Y-78.5308
G01 X131.3266 Y-78.6376
G01 X131.3077 Y-78.7561
G01 X131.2904 Y-78.8760
G01 X131.2362 Y-79.2864
G01 X131.2235 Y-79.3891
G01 X131.2098 Y-79.5128
G01 X131.1987 Y-79.6293
G01 X131.1889 Y-79.7494
G01 X131.1808 Y-79.8717
G01 X131.1346 Y-80.0019
G01 X131.0706 Y-80.1867
G01 X130.9842 Y-80.4384
G01 X130.9645 Y-80.4942
G01 X130.9459 Y-80.5392
G01 X130.9097 Y-80.6238
G01 X130.8331 Y-80.7987
G01 X130.7956 Y-80.8863
G01 X130.7252 Y-81.0568
G01 X130.6825 Y-81.1641
G01 X130.6427 Y-81.2677
G01 X130.6032 Y-81.3752
G01 X130.4883 Y-81.6966
G01 X130.4633 Y-81.7681
G01 X130.4401 Y-81.8367
G01 X130.4199 Y-81.8978
G01 X130.3994 Y-81.9616
G01 X130.3802 Y-82.0231
G01 X130.3611 Y-82.0862
G01 X130.3256 Y-82.2079
G01 X130.3084 Y-82.2696
G01 X130.2905 Y-82.3359
G01 X130.2633 Y-82.4410
G01 X130.1724 Y-82.8053
G01 X130.1574 Y-82.8682
G01 X130.1431 Y-82.9306
G01 X130.1277 Y-82.9999
G01 X130.1135 Y-83.0668
G01 X130.0966 Y-83.1505
G01 X130.0812 Y-83.2306
G01 X130.0666 Y-83.3107
G01 X130.0523 Y-83.3938
G01 X130.0324 Y-83.5189
G01 X129.9848 Y-83.8395
G01 X129.9679 Y-83.9605
G01 X129.9530 Y-84.0788
G01 X129.9396 Y-84.1994
G01 X129.9281 Y-84.3197
G01 X129.9226 Y-84.3840
G01 X129.9176 Y-84.4497
G01 X129.9094 Y-84.5741
G01 X129.8977 Y-84.8058
G01 X129.8938 Y-84.8689
G01 X129.8901 Y-84.9372
G01 X129.8870 Y-85.0038
G01 X129.8845 Y-85.0699
G01 X129.8811 Y-85.1958
G01 X129.8797 Y-85.3229
G01 X129.8801 Y-85.4380
G01 X129.8820 Y-85.5488
G01 X129.8822 Y-85.6670
G01 X129.8601 Y-85.7312
G01 X129.8398 Y-85.7918
G01 X129.8206 Y-85.8504
G01 X129.7986 Y-85.9195
G01 X129.7784 Y-85.9847
G01 X129.7599 Y-86.0463
G01 X129.7405 Y-86.1129
G01 X129.7231 Y-86.1742
G01 X129.6482 Y-86.4447
G01 X129.6294 Y-86.5144
G01 X129.6118 Y-86.5827
G01 X129.5915 Y-86.6640
G01 X129.5715 Y-86.7479
G01 X129.5529 Y-86.8296
G01 X129.5346 Y-86.9139
G01 X129.5202 Y-86.9832
G01 X129.5065 Y-87.0524
G01 X129.4934 Y-87.1215
G01 X129.4815 Y-87.1878
G01 X129.4695 Y-87.2572
G01 X129.4580 Y-87.3274
G01 X129.4473 Y-87.3968
G01 X129.4371 Y-87.4665
G01 X129.4212 Y-87.5848
G01 X129.4076 Y-87.6982
G01 X129.3750 Y-88.0017
G01 X129.3635 Y-88.1199
G01 X128.2607 Y-89.2425
G01 X122.5955 Y-89.2439
G01 X122.5955 Y-78.3414
G01 X122.8755 Y-78.5974
G01 X122.9551 Y-78.5887
G01 X123.0333 Y-78.5794
G01 X123.3377 Y-78.5405
G01 X123.4576 Y-78.5239
G01 X123.5795 Y-78.5053
G01 X123.6519 Y-78.4934
G01 X123.7258 Y-78.4806
G01 X123.8002 Y-78.4671
G01 X123.8701 Y-78.4537
G01 X123.9415 Y-78.4394
G01 X124.0129 Y-78.4245
G01 X124.0845 Y-78.4090
G01 X124.1555 Y-78.3929
G01 X124.2421 Y-78.3724
G01 X124.3305 Y-78.3505
G01 X124.4219 Y-78.3268
G01 X124.5100 Y-78.3029
G01 X124.5821 Y-78.2827
G01 X124.6563 Y-78.2611
G01 X124.9638 Y-78.1688
G01 X125.0356 Y-78.1465
G01 X125.1048 Y-78.1244
G01 X125.1783 Y-78.1002
G01 X125.2477 Y-78.0766
G01 X125.3225 Y-78.0505
G01 X125.3939 Y-78.0249
G01 X125.4684 Y-77.9974
G01 X125.5377 Y-77.9710
G01 X125.6115 Y-77.9423
G01 X125.6819 Y-77.9141
G01 X125.7556 Y-77.8838
G01 X125.8230 Y-77.8554
G01 X125.8938 Y-77.8248
G01 X125.9713 Y-77.7905
G01 X126.0402 Y-77.7592
G01 X126.1127 Y-77.7254
G01 X126.2262 Y-77.6709
G01 X126.4616 Y-77.5556
G01 X126.5416 Y-77.5158
G01 X126.6170 Y-77.4772
G01 X126.6894 Y-77.4394
G01 X126.7648 Y-77.3990
G01 X126.8321 Y-77.3621
G01 X126.8994 Y-77.3244
G01 X126.9671 Y-77.2857
G01 X127.0305 Y-77.2488
G01 X127.0956 Y-77.2100
G01 X127.1616 Y-77.1699
G01 X127.2278 Y-77.1289
G01 X127.2937 Y-77.0873
G01 X127.3548 Y-77.0479
G01 X127.4118 Y-77.0104
G01 X127.4655 Y-76.9746
G01 X127.5220 Y-76.9362
G01 X127.5782 Y-76.8975
G01 X127.6532 Y-76.8447
G01 X127.8629 Y-76.6951
G01 X127.9200 Y-76.6539
G01 X127.9790 Y-76.6106
G01 X128.0341 Y-76.5695
G01 X128.0884 Y-76.5282
G01 X128.1400 Y-76.4885
G01 X128.1927 Y-76.4472
G01 X128.2445 Y-76.4059
G01 X128.2962 Y-76.3641
G01 X128.3475 Y-76.3219
G01 X128.4004 Y-76.2778
G01 X128.4524 Y-76.2336
G01 X128.5013 Y-76.1915
G01 X128.5527 Y-76.1464
G01 X128.6036 Y-76.1011
G01 X128.6526 Y-76.0568
G01 X128.7018 Y-76.0117
G01 X128.7501 Y-75.9666
G01 X128.8359 Y-75.8848
G01 X128.9209 Y-75.8015
G01 X129.1362 Y-75.5868
G01 X129.1892 Y-75.5330
G01 X129.2479 Y-75.4722
G01 X129.2934 Y-75.4242
G01 X129.3399 Y-75.3744
G01 X129.3861 Y-75.3242
G01 X129.4353 Y-75.2697
G01 X129.4821 Y-75.2171
G01 X129.5291 Y-75.1634
G01 X129.5736 Y-75.1116
G01 X129.6176 Y-75.0596
G01 X129.6589 Y-75.0100
G01 X129.7022 Y-74.9572
G01 X129.7423 Y-74.9076
G01 X129.7876 Y-74.8506
G01 X129.8299 Y-74.7964
G01 X129.8714 Y-74.7423
G01 X129.9128 Y-74.6876
G01 X129.9537 Y-74.6324
G01 X130.0102 Y-74.5548
G01 X130.1634 Y-74.3417
G01 X130.2125 Y-74.2724
G01 X130.2515 Y-74.2164
G01 X130.2962 Y-74.1510
G01 X130.3384 Y-74.0879
G01 X130.3786 Y-74.0267
G01 X132.7783 Y-74.0198
G01 X132.6852 Y-74.1735
G01 X132.6234 Y-74.2782
G01 X132.5330 Y-74.4361
G01 X132.4952 Y-74.5038
G01 X132.4601 Y-74.5680
G01 X132.4006 Y-74.6797
G01 X132.2047 Y-75.0564
G01 X132.1470 Y-75.1709
G01 X132.1160 Y-75.2343
G01 X132.0863 Y-75.2962
G01 X132.0524 Y-75.3685
G01 X132.0189 Y-75.4417
G01 X131.9885 Y-75.5098
G01 X131.9534 Y-75.5904
G01 X131.9135 Y-75.6849
G01 X131.7502 Y-76.0798
G01 X131.7242 Y-76.1446
G01 X131.6994 Y-76.2079
G01 X131.6752 Y-76.2712
G01 X131.6525 Y-76.3319
G01 X131.6282 Y-76.3983
G01 X131.6059 Y-76.4610
G01 X131.5634 Y-76.5847
G01 X131.5413 Y-76.6518
G01 X131.5214 Y-76.7139
G01 X131.3885 Y-77.1362
G01 X131.3665 Y-77.2090
G01 X131.3438 Y-77.2869
G01 X131.3228 Y-77.3615
G01 X131.3033 Y-77.4329
G01 X131.2838 Y-77.5070
G01 X131.2654 Y-77.5797
G01 X131.2464 Y-77.6578
G01 X131.2296 Y-77.7292
G01 X131.1340 Y-78.1596
G01 X131.1068 Y-78.2874
G01 X131.0919 Y-78.3623
G01 X131.0779 Y-78.4360
G01 X131.0654 Y-78.5048
G01 X131.0521 Y-78.5814
G01 X131.0400 Y-78.6555
G01 X131.0283 Y-78.7310
G01 X131.0175 Y-78.8056
G01 X131.0080 Y-78.8752
G01 X130.9565 Y-79.2666
G01 X130.9468 Y-79.3443
G01 X130.9385 Y-79.4165
G01 X130.9276 Y-79.5210
G01 X130.9185 Y-79.6195
G01 X130.9106 Y-79.7168
G01 X130.9038 Y-79.8147
G01 X130.8687 Y-79.9140
G01 X130.8059 Y-80.0953
G01 X130.7197 Y-80.3463
G01 X130.7027 Y-80.3946
G01 X130.6879 Y-80.4304
G01 X130.6527 Y-80.5125
G01 X130.5797 Y-80.6792
G01 X130.5519 Y-80.7437
G01 X130.5188 Y-80.8223
G01 X130.4746 Y-80.9299
G01 X130.4376 Y-81.0216
G01 X130.4037 Y-81.1086
G01 X130.3704 Y-81.1965
G01 X130.3398 Y-81.2802
G01 X130.2150 Y-81.6296
G01 X130.1820 Y-81.7256
G01 X130.1512 Y-81.8186
G01 X130.1142 Y-81.9356
G01 X130.0796 Y-82.0503
G01 X130.0465 Y-82.1663
G01 X130.0154 Y-82.2810
G01 X129.9918 Y-82.3726
G01 X129.9164 Y-82.6736
G01 X129.8890 Y-82.7865
G01 X129.8699 Y-82.8690
G01 X129.8513 Y-82.9535
G01 X129.8339 Y-83.0363
G01 X129.8184 Y-83.1141
G01 X129.8035 Y-83.1922
G01 X129.7889 Y-83.2731
G01 X129.7751 Y-83.3537
G01 X129.7618 Y-83.4363
G01 X129.7043 Y-83.8230
G01 X129.6921 Y-83.9103
G01 X129.6812 Y-83.9944
G01 X129.6696 Y-84.0918
G01 X129.6586 Y-84.1951
G01 X129.6486 Y-84.3012
G01 X129.6401 Y-84.4048
G01 X129.6343 Y-84.4863
G01 X129.6295 Y-84.5644
G01 X129.6182 Y-84.7898
G01 X129.6136 Y-84.8644
G01 X129.6097 Y-84.9370
G01 X129.6062 Y-85.0177
G01 X129.6035 Y-85.0973
G01 X129.6014 Y-85.1771
G01 X129.6002 Y-85.2582
G01 X129.5997 Y-85.3272
G01 X129.5998 Y-85.4016
G01 X129.6005 Y-85.4772
G01 X129.6020 Y-85.5525
G01 X129.6021 Y-85.6203
G01 X129.5620 Y-85.7403
G01 X129.5232 Y-85.8619
G01 X129.4862 Y-85.9845
G01 X129.4516 Y-86.1056
G01 X129.3781 Y-86.3709
G01 X129.3587 Y-86.4429
G01 X129.3413 Y-86.5100
G01 X129.3227 Y-86.5844
G01 X129.3024 Y-86.6688
G01 X129.2835 Y-86.7512
G01 X129.2649 Y-86.8360
G01 X129.2509 Y-86.9029
G01 X129.2372 Y-86.9705
G01 X129.2230 Y-87.0442
G01 X129.2109 Y-87.1099
G01 X129.1993 Y-87.1762
G01 X129.1879 Y-87.2437
G01 X129.1769 Y-87.3126
G01 X129.1667 Y-87.3802
G01 X129.1499 Y-87.4998
G01 X129.1346 Y-87.6221
G01 X129.1245 Y-87.7109
G01 X129.0945 Y-87.9928
G01 X128.1431 Y-88.9625
G01 X122.8755 Y-88.9639
G01 X122.8755 Y-78.5974
G01 X123.1555 Y-78.8462
G01 X123.3797 Y-78.8174
G01 X123.4933 Y-78.8017
G01 X123.5614 Y-78.7916
G01 X123.6288 Y-78.7810
G01 X123.6939 Y-78.7703
G01 X123.7633 Y-78.7584
G01 X123.8424 Y-78.7440
G01 X123.9237 Y-78.7285
G01 X124.0018 Y-78.7129
G01 X124.0806 Y-78.6964
G01 X124.1587 Y-78.6793
G01 X124.2326 Y-78.6624
G01 X124.3122 Y-78.6435
G01 X124.3882 Y-78.6247
G01 X124.4549 Y-78.6076
G01 X124.5276 Y-78.5884
G01 X124.6002 Y-78.5685
G01 X124.6685 Y-78.5492
G01 X124.7638 Y-78.5212
G01 X125.0110 Y-78.4471
G01 X125.0805 Y-78.4258
G01 X125.1526 Y-78.4031
G01 X125.2201 Y-78.3813
G01 X125.2870 Y-78.3590
G01 X125.3506 Y-78.3373
G01 X125.4159 Y-78.3145
G01 X125.4804 Y-78.2914
G01 X125.5500 Y-78.2658
G01 X125.6139 Y-78.2417
G01 X125.6797 Y-78.2163
G01 X125.7451 Y-78.1904
G01 X125.8070 Y-78.1655
G01 X125.8784 Y-78.1359
G01 X125.9420 Y-78.1090
G01 X126.0059 Y-78.0814
G01 X126.0705 Y-78.0528
G01 X126.1361 Y-78.0232
G01 X126.2195 Y-77.9846
G01 X126.3013 Y-77.9457
G01 X126.5851 Y-77.8069
G01 X126.6461 Y-77.7766
G01 X126.7073 Y-77.7456
G01 X126.7685 Y-77.7140
G01 X126.8289 Y-77.6823
G01 X126.9013 Y-77.6434
G01 X126.9677 Y-77.6071
G01 X127.0372 Y-77.5682
G01 X127.1131 Y-77.5248
G01 X127.1806 Y-77.4853
G01 X127.2514 Y-77.4430
G01 X127.3203 Y-77.4011
G01 X127.3860 Y-77.3602
G01 X127.4654 Y-77.3098
G01 X127.5425 Y-77.2597
G01 X127.6172 Y-77.2100
G01 X127.6932 Y-77.1584
G01 X127.7540 Y-77.1162
G01 X127.8096 Y-77.0770
G01 X128.0294 Y-76.9202
G01 X128.0929 Y-76.8744
G01 X128.1572 Y-76.8271
G01 X128.2226 Y-76.7780
G01 X128.2848 Y-76.7305
G01 X128.3495 Y-76.6801
G01 X128.4095 Y-76.6325
G01 X128.4731 Y-76.5811
G01 X128.5336 Y-76.5314
G01 X128.5966 Y-76.4785
G01 X128.6542 Y-76.4294
G01 X128.7184 Y-76.3736
G01 X128.7798 Y-76.3192
G01 X128.8378 Y-76.2669
G01 X128.8986 Y-76.2110
G01 X128.9541 Y-76.1591
G01 X129.0134 Y-76.1026
G01 X129.0697 Y-76.0480
G01 X129.1216 Y-75.9968
G01 X129.3148 Y-75.8043
G01 X129.3649 Y-75.7538
G01 X129.4135 Y-75.7039
G01 X129.4770 Y-75.6375
G01 X129.5384 Y-75.5721
G01 X129.6006 Y-75.5045
G01 X129.6642 Y-75.4337
G01 X129.7185 Y-75.3723
G01 X129.7696 Y-75.3132
G01 X129.8230 Y-75.2504
G01 X129.8718 Y-75.1920
G01 X129.9237 Y-75.1286
G01 X129.9727 Y-75.0677
G01 X130.0242 Y-75.0026
G01 X130.0728 Y-74.9399
G01 X130.1141 Y-74.8857
G01 X130.1554 Y-74.8306
G01 X130.1961 Y-74.7754
G01 X130.2361 Y-74.7203
G01 X130.4217 Y-74.4616
G01 X130.4762 Y-74.3837
G01 X130.5291 Y-74.3063
G01 X132.2876 Y-74.3012
G01 X132.2295 Y-74.4060
G01 X132.1729 Y-74.5111
G01 X131.9777 Y-74.8857
G01 X131.9399 Y-74.9592
G01 X131.8893 Y-75.0604
G01 X131.8400 Y-75.1622
G01 X131.7919 Y-75.2647
G01 X131.7444 Y-75.3695
G01 X131.7003 Y-75.4703
G01 X131.6580 Y-75.5702
G01 X131.5046 Y-75.9407
G01 X131.4763 Y-76.0103
G01 X131.4484 Y-76.0808
G01 X131.4234 Y-76.1454
G01 X131.4001 Y-76.2071
G01 X131.3776 Y-76.2680
G01 X131.3530 Y-76.3364
G01 X131.3294 Y-76.4033
G01 X131.3068 Y-76.4696
G01 X131.2846 Y-76.5360
G01 X131.2634 Y-76.6011
G01 X131.1390 Y-76.9955
G01 X131.1101 Y-77.0893
G01 X131.0881 Y-77.1633
G01 X131.0646 Y-77.2448
G01 X131.0436 Y-77.3205
G01 X131.0234 Y-77.3959
G01 X131.0052 Y-77.4662
G01 X130.9877 Y-77.5363
G01 X130.9689 Y-77.6142
G01 X130.9521 Y-77.6869
G01 X130.8589 Y-78.1068
G01 X130.8430 Y-78.1808
G01 X130.8280 Y-78.2534
G01 X130.8135 Y-78.3271
G01 X130.8004 Y-78.3966
G01 X130.7870 Y-78.4709
G01 X130.7753 Y-78.5395
G01 X130.7626 Y-78.6170
G01 X130.7515 Y-78.6894
G01 X130.7409 Y-78.7615
G01 X130.7311 Y-78.8332
G01 X130.6788 Y-79.2309
G01 X130.6700 Y-79.3012
G01 X130.6620 Y-79.3703
G01 X130.6515 Y-79.4675
G01 X130.6424 Y-79.5625
G01 X130.6341 Y-79.6599
G01 X130.6269 Y-79.7574
G01 X130.5442 Y-79.9953
G01 X130.4891 Y-80.1562
G01 X130.4416 Y-80.2933
G01 X130.4298 Y-80.3218
G01 X130.3958 Y-80.4012
G01 X130.3196 Y-80.5752
G01 X130.2828 Y-80.6610
G01 X130.2569 Y-80.7229
G01 X130.2156 Y-80.8235
G01 X130.1774 Y-80.9183
G01 X130.1356 Y-81.0257
G01 X130.0976 Y-81.1272
G01 X130.0734 Y-81.1938
G01 X129.9690 Y-81.4856
G01 X129.9338 Y-81.5858
G01 X129.9025 Y-81.6787
G01 X129.8712 Y-81.7749
G01 X129.8392 Y-81.8774
G01 X129.8095 Y-81.9764
G01 X129.7814 Y-82.0745
G01 X129.7545 Y-82.1724
G01 X129.7268 Y-82.2783
G01 X129.6412 Y-82.6201
G01 X129.6106 Y-82.7469
G01 X129.5907 Y-82.8344
G01 X129.5733 Y-82.9145
G01 X129.5556 Y-82.9996
G01 X129.5383 Y-83.0878
G01 X129.5237 Y-83.1657
G01 X129.5088 Y-83.2494
G01 X129.4958 Y-83.3265
G01 X129.4827 Y-83.4093
G01 X129.4254 Y-83.7952
G01 X129.4128 Y-83.8865
G01 X129.4014 Y-83.9760
G01 X129.3894 Y-84.0784
G01 X129.3792 Y-84.1758
G01 X129.3697 Y-84.2765
G01 X129.3609 Y-84.3835
G01 X129.3550 Y-84.4677
G01 X129.3500 Y-84.5483
G01 X129.3386 Y-84.7737
G01 X129.3344 Y-84.8426
G01 X129.3304 Y-84.9176
G01 X129.3268 Y-84.9966
G01 X129.3238 Y-85.0800
G01 X129.3217 Y-85.1620
G01 X129.3203 Y-85.2427
G01 X129.3197 Y-85.3207
G01 X129.3198 Y-85.3997
G01 X129.3204 Y-85.4703
G01 X129.3220 Y-85.5744
G01 X129.2958 Y-85.6532
G01 X129.2706 Y-85.7317
G01 X129.2466 Y-85.8087
G01 X129.2243 Y-85.8828
G01 X129.1885 Y-86.0067
G01 X129.1150 Y-86.2713
G01 X129.0820 Y-86.3942
G01 X129.0519 Y-86.5131
G01 X129.0224 Y-86.6367
G01 X128.9956 Y-86.7565
G01 X128.9813 Y-86.8238
G01 X128.9676 Y-86.8907
G01 X128.9549 Y-86.9554
G01 X128.9419 Y-87.0247
G01 X128.9292 Y-87.0948
G01 X128.9173 Y-87.1642
G01 X128.9066 Y-87.2294
G01 X128.8961 Y-87.2968
G01 X128.8771 Y-87.4280
G01 X128.8607 Y-87.5539
G01 X128.8485 Y-87.6586
G01 X128.8263 Y-87.8663
G01 X128.0255 Y-88.6826
G01 X123.1555 Y-88.6838
G01 X123.1555 Y-78.8462
G01 X123.4355 Y-79.0924
G01 X123.5334 Y-79.0788
G01 X123.6270 Y-79.0648
G01 X123.7231 Y-79.0493
G01 X123.8165 Y-79.0333
G01 X123.9076 Y-79.0167
G01 X124.0077 Y-78.9974
G01 X124.1029 Y-78.9779
G01 X124.2011 Y-78.9567
G01 X124.2744 Y-78.9401
G01 X124.3436 Y-78.9239
G01 X124.4190 Y-78.9056
G01 X124.4905 Y-78.8876
G01 X124.5597 Y-78.8696
G01 X124.6332 Y-78.8498
G01 X124.7061 Y-78.8296
G01 X124.7741 Y-78.8101
G01 X124.8415 Y-78.7902
G01 X125.0962 Y-78.7138
G01 X125.2171 Y-78.6764
G01 X125.2985 Y-78.6503
G01 X125.3818 Y-78.6226
G01 X125.4617 Y-78.5952
G01 X125.5422 Y-78.5667
G01 X125.6183 Y-78.5391
G01 X125.6853 Y-78.5141
G01 X125.7564 Y-78.4869
G01 X125.8269 Y-78.4593
G01 X125.8989 Y-78.4304
G01 X125.9706 Y-78.4008
G01 X126.0382 Y-78.3724
G01 X126.1072 Y-78.3426
G01 X126.1722 Y-78.3140
G01 X126.2364 Y-78.2852
G01 X126.2984 Y-78.2568
G01 X126.3641 Y-78.2260
G01 X126.4601 Y-78.1799
G01 X126.7086 Y-78.0582
G01 X126.7809 Y-78.0222
G01 X126.8451 Y-77.9896
G01 X126.9146 Y-77.9536
G01 X126.9797 Y-77.9192
G01 X127.0499 Y-77.8814
G01 X127.1158 Y-77.8451
G01 X127.1799 Y-77.8091
G01 X127.2470 Y-77.7708
G01 X127.3145 Y-77.7314
G01 X127.3790 Y-77.6931
G01 X127.4441 Y-77.6536
G01 X127.5061 Y-77.6154
G01 X127.5736 Y-77.5729
G01 X127.6369 Y-77.5324
G01 X127.7009 Y-77.4906
G01 X127.7635 Y-77.4490
G01 X127.8714 Y-77.3756
G01 X127.9779 Y-77.3009
G01 X128.2367 Y-77.1160
G01 X128.3157 Y-77.0581
G01 X128.3915 Y-77.0013
G01 X128.4558 Y-76.9522
G01 X128.5224 Y-76.9003
G01 X128.5844 Y-76.8512
G01 X128.6464 Y-76.8011
G01 X128.7046 Y-76.7533
G01 X128.7647 Y-76.7031
G01 X128.8288 Y-76.6485
G01 X128.8900 Y-76.5956
G01 X128.9432 Y-76.5486
G01 X128.9957 Y-76.5017
G01 X129.0461 Y-76.4558
G01 X129.1047 Y-76.4017
G01 X129.1595 Y-76.3503
G01 X129.2107 Y-76.3014
G01 X129.2615 Y-76.2521
G01 X129.3113 Y-76.2031
G01 X129.5238 Y-75.9913
G01 X129.5795 Y-75.9348
G01 X129.6309 Y-75.8819
G01 X129.6874 Y-75.8226
G01 X129.7507 Y-75.7550
G01 X129.8147 Y-75.6852
G01 X129.8765 Y-75.6164
G01 X129.9292 Y-75.5566
G01 X129.9785 Y-75.4998
G01 X130.0280 Y-75.4416
G01 X130.0763 Y-75.3840
G01 X130.1277 Y-75.3215
G01 X130.1727 Y-75.2660
G01 X130.2201 Y-75.2065
G01 X130.2668 Y-75.1468
G01 X130.3479 Y-75.0406
G01 X130.4264 Y-74.9349
G01 X130.6158 Y-74.6718
G01 X130.6756 Y-74.5873
G01 X131.8196 Y-74.5830
G01 X131.7133 Y-74.7874
G01 X131.6565 Y-74.8995
G01 X131.6231 Y-74.9673
G01 X131.5905 Y-75.0348
G01 X131.5586 Y-75.1023
G01 X131.5240 Y-75.1773
G01 X131.4699 Y-75.2980
G01 X131.4190 Y-75.4160
G01 X131.2557 Y-75.8098
G01 X131.2284 Y-75.8763
G01 X131.1850 Y-75.9856
G01 X131.1378 Y-76.1091
G01 X131.0944 Y-76.2280
G01 X131.0542 Y-76.3426
G01 X131.0245 Y-76.4308
G01 X130.9934 Y-76.5261
G01 X130.8554 Y-76.9644
G01 X130.8338 Y-77.0356
G01 X130.8134 Y-77.1049
G01 X130.7935 Y-77.1745
G01 X130.7735 Y-77.2467
G01 X130.7540 Y-77.3196
G01 X130.7366 Y-77.3866
G01 X130.7190 Y-77.4565
G01 X130.7018 Y-77.5274
G01 X130.6714 Y-77.6588
G01 X130.5787 Y-78.0773
G01 X130.5514 Y-78.2090
G01 X130.5375 Y-78.2798
G01 X130.5251 Y-78.3457
G01 X130.5095 Y-78.4327
G01 X130.4955 Y-78.5149
G01 X130.4824 Y-78.5964
G01 X130.4690 Y-78.6853
G01 X130.4535 Y-78.7961
G01 X130.4017 Y-79.1901
G01 X130.3863 Y-79.3160
G01 X130.3725 Y-79.4439
G01 X130.3601 Y-79.5764
G01 X130.3503 Y-79.6999
G01 X130.1799 Y-80.1933
G01 X130.1389 Y-80.2899
G01 X130.0611 Y-80.4674
G01 X130.0215 Y-80.5599
G01 X129.9507 Y-80.7315
G01 X129.9045 Y-80.8470
G01 X129.8615 Y-80.9588
G01 X129.8223 Y-81.0647
G01 X129.7032 Y-81.3972
G01 X129.6677 Y-81.4987
G01 X129.6278 Y-81.6175
G01 X129.5897 Y-81.7364
G01 X129.5520 Y-81.8597
G01 X129.5174 Y-81.9790
G01 X129.4884 Y-82.0839
G01 X129.4621 Y-82.1837
G01 X129.3674 Y-82.5610
G01 X129.3488 Y-82.6373
G01 X129.3303 Y-82.7165
G01 X129.3117 Y-82.7994
G01 X129.2941 Y-82.8817
G01 X129.2777 Y-82.9616
G01 X129.2610 Y-83.0467
G01 X129.2455 Y-83.1306
G01 X129.2309 Y-83.2131
G01 X129.2175 Y-83.2935
G01 X129.2041 Y-83.3788
G01 X129.1478 Y-83.7584
G01 X129.1371 Y-83.8354
G01 X129.1275 Y-83.9094
G01 X129.1185 Y-83.9828
G01 X129.1100 Y-84.0580
G01 X129.1005 Y-84.1481
G01 X129.0919 Y-84.2396
G01 X129.0843 Y-84.3295
G01 X129.0775 Y-84.4206
G01 X129.0694 Y-84.5504
G01 X129.0591 Y-84.7577
G01 X129.0540 Y-84.8415
G01 X129.0496 Y-84.9264
G01 X129.0465 Y-85.0000
G01 X129.0440 Y-85.0712
G01 X129.0419 Y-85.1485
G01 X129.0405 Y-85.2243
G01 X129.0398 Y-85.3044
G01 X129.0397 Y-85.3819
G01 X129.0402 Y-85.4536
G01 X129.0414 Y-85.5307
G01 X129.0163 Y-85.6076
G01 X128.9941 Y-85.6775
G01 X128.9720 Y-85.7493
G01 X128.9490 Y-85.8263
G01 X128.9170 Y-85.9380
G01 X128.8420 Y-86.2083
G01 X128.8111 Y-86.3234
G01 X128.7814 Y-86.4405
G01 X128.7523 Y-86.5620
G01 X128.7260 Y-86.6786
G01 X128.6979 Y-86.8116
G01 X128.6728 Y-86.9403
G01 X128.6494 Y-87.0696
G01 X128.6375 Y-87.1397
G01 X128.6270 Y-87.2045
G01 X128.6075 Y-87.3340
G01 X128.5901 Y-87.4621
G01 X128.5747 Y-87.5881
G01 X128.5582 Y-87.7397
G01 X127.9080 Y-88.4026
G01 X123.4355 Y-88.4037
G01 X123.4355 Y-79.0924
G01 X123.7155 Y-79.3343
G01 X123.8185 Y-79.3172
G01 X123.9198 Y-79.2992
G01 X124.0204 Y-79.2802
G01 X124.1198 Y-79.2604
G01 X124.2201 Y-79.2392
G01 X124.3227 Y-79.2163
G01 X124.4219 Y-79.1931
G01 X124.5202 Y-79.1689
G01 X124.5958 Y-79.1496
G01 X124.6731 Y-79.1291
G01 X124.7501 Y-79.1080
G01 X124.8276 Y-79.0861
G01 X124.9167 Y-79.0600
G01 X125.1672 Y-78.9849
G01 X125.2822 Y-78.9495
G01 X125.3538 Y-78.9267
G01 X125.4257 Y-78.9031
G01 X125.4991 Y-78.8784
G01 X125.5683 Y-78.8545
G01 X125.6436 Y-78.8278
G01 X125.7150 Y-78.8018
G01 X125.7841 Y-78.7761
G01 X125.8521 Y-78.7501
G01 X125.9254 Y-78.7214
G01 X125.9974 Y-78.6926
G01 X126.0624 Y-78.6659
G01 X126.1381 Y-78.6342
G01 X126.2093 Y-78.6036
G01 X126.2761 Y-78.5743
G01 X126.3477 Y-78.5422
G01 X126.4160 Y-78.5108
G01 X126.4904 Y-78.4760
G01 X126.5668 Y-78.4393
G01 X126.8532 Y-78.2991
G01 X126.9154 Y-78.2680
G01 X126.9780 Y-78.2362
G01 X127.0444 Y-78.2018
G01 X127.1071 Y-78.1686
G01 X127.1682 Y-78.1358
G01 X127.2294 Y-78.1023
G01 X127.2930 Y-78.0668
G01 X127.3523 Y-78.0332
G01 X127.4159 Y-77.9965
G01 X127.4757 Y-77.9613
G01 X127.5322 Y-77.9276
G01 X127.5942 Y-77.8900
G01 X127.6540 Y-77.8531
G01 X127.7173 Y-77.8134
G01 X127.7771 Y-77.7751
G01 X127.8358 Y-77.7370
G01 X127.8943 Y-77.6984
G01 X127.9546 Y-77.6579
G01 X128.0150 Y-77.6167
G01 X128.0701 Y-77.5785
G01 X128.1339 Y-77.5335
G01 X128.3444 Y-77.3834
G01 X128.4225 Y-77.3271
G01 X128.5313 Y-77.2466
G01 X128.5891 Y-77.2028
G01 X128.6448 Y-77.1600
G01 X128.7095 Y-77.1094
G01 X128.7701 Y-77.0611
G01 X128.8314 Y-77.0116
G01 X128.8912 Y-76.9623
G01 X128.9551 Y-76.9088
G01 X129.0157 Y-76.8571
G01 X129.0742 Y-76.8064
G01 X129.1362 Y-76.7517
G01 X129.2002 Y-76.6943
G01 X129.2685 Y-76.6317
G01 X129.3340 Y-76.5706
G01 X129.3960 Y-76.5116
G01 X129.4465 Y-76.4628
G01 X129.4960 Y-76.4142
G01 X129.6983 Y-76.2127
G01 X129.7904 Y-76.1196
G01 X129.8390 Y-76.0694
G01 X129.8874 Y-76.0186
G01 X129.9796 Y-75.9199
G01 X130.0705 Y-75.8196
G01 X130.1190 Y-75.7648
G01 X130.1667 Y-75.7102
G01 X130.2125 Y-75.6569
G01 X130.2608 Y-75.5999
G01 X130.3062 Y-75.5454
G01 X130.3536 Y-75.4876
G01 X130.3977 Y-75.4329
G01 X130.4474 Y-75.3704
G01 X130.4879 Y-75.3186
G01 X130.5321 Y-75.2611
G01 X130.5746 Y-75.2051
G01 X130.6163 Y-75.1492
G01 X130.6810 Y-75.0607
G01 X130.8205 Y-74.8668
G01 X131.3616 Y-74.8647
G01 X131.3130 Y-74.9666
G01 X131.2646 Y-75.0711
G01 X131.2200 Y-75.1707
G01 X131.1709 Y-75.2839
G01 X131.1378 Y-75.3627
G01 X130.9782 Y-75.7484
G01 X130.9358 Y-75.8541
G01 X130.8936 Y-75.9631
G01 X130.8564 Y-76.0629
G01 X130.8211 Y-76.1606
G01 X130.7878 Y-76.2564
G01 X130.7547 Y-76.3548
G01 X130.7208 Y-76.4596
G01 X130.6065 Y-76.8221
G01 X130.5839 Y-76.8947
G01 X130.5613 Y-76.9696
G01 X130.5410 Y-77.0392
G01 X130.5226 Y-77.1036
G01 X130.5034 Y-77.1730
G01 X130.4862 Y-77.2372
G01 X130.4530 Y-77.3658
G01 X130.4357 Y-77.4363
G01 X130.4202 Y-77.5013
G01 X130.3963 Y-77.6060
G01 X130.3026 Y-78.0295
G01 X130.2879 Y-78.0994
G01 X130.2733 Y-78.1718
G01 X130.2591 Y-78.2446
G01 X130.2458 Y-78.3162
G01 X130.2304 Y-78.4032
G01 X130.2167 Y-78.4845
G01 X130.2046 Y-78.5607
G01 X130.1912 Y-78.6497
G01 X130.1760 Y-78.7590
G01 X130.1250 Y-79.1462
G01 X130.1093 Y-79.2738
G01 X130.0958 Y-79.3977
G01 X130.0843 Y-79.5168
G01 X130.0738 Y-79.6424
G01 X129.9183 Y-80.0934
G01 X129.8820 Y-80.1786
G01 X129.8043 Y-80.3558
G01 X129.7635 Y-80.4512
G01 X129.7364 Y-80.5163
G01 X129.6880 Y-80.6342
G01 X129.6415 Y-80.7508
G01 X129.5975 Y-80.8653
G01 X129.5571 Y-80.9746
G01 X129.4376 Y-81.3085
G01 X129.3961 Y-81.4276
G01 X129.3551 Y-81.5505
G01 X129.3150 Y-81.6768
G01 X129.2763 Y-81.8048
G01 X129.2407 Y-81.9285
G01 X129.2137 Y-82.0272
G01 X129.1858 Y-82.1339
G01 X129.1007 Y-82.4730
G01 X129.0817 Y-82.5503
G01 X129.0633 Y-82.6284
G01 X129.0441 Y-82.7126
G01 X129.0275 Y-82.7889
G01 X129.0111 Y-82.8675
G01 X128.9951 Y-82.9472
G01 X128.9803 Y-83.0244
G01 X128.9653 Y-83.1065
G01 X128.9514 Y-83.1869
G01 X128.9383 Y-83.2663
G01 X128.9259 Y-83.3454
G01 X128.8693 Y-83.7280
G01 X128.8589 Y-83.8037
G01 X128.8488 Y-83.8812
G01 X128.8394 Y-83.9590
G01 X128.8310 Y-84.0331
G01 X128.8219 Y-84.1203
G01 X128.8125 Y-84.2202
G01 X128.8052 Y-84.3073
G01 X128.7982 Y-84.4010
G01 X128.7898 Y-84.5348
G01 X128.7795 Y-84.7417
G01 X128.7749 Y-84.8163
G01 X128.7708 Y-84.8958
G01 X128.7677 Y-84.9637
G01 X128.7650 Y-85.0350
G01 X128.7627 Y-85.1138
G01 X128.7611 Y-85.1871
G01 X128.7601 Y-85.2639
G01 X128.7597 Y-85.3382
G01 X128.7598 Y-85.4157
G01 X128.7606 Y-85.4883
G01 X128.7368 Y-85.5626
G01 X128.7158 Y-85.6297
G01 X128.6937 Y-85.7024
G01 X128.6742 Y-85.7686
G01 X128.6444 Y-85.8728
G01 X128.5691 Y-86.1445
G01 X128.5391 Y-86.2568
G01 X128.5107 Y-86.3687
G01 X128.4847 Y-86.4766
G01 X128.4574 Y-86.5963
G01 X128.4302 Y-86.7235
G01 X128.4050 Y-86.8494
G01 X128.3817 Y-86.9750
G01 X128.3597 Y-87.1033
G01 X128.3398 Y-87.2301
G01 X128.3216 Y-87.3566
G01 X128.3049 Y-87.4856
G01 X128.2902 Y-87.6131
G01 X127.7904 Y-88.1226
G01 X123.7155 Y-88.1237
G01 X123.7155 Y-79.3343
G01 X123.9955 Y-79.5700
G01 X124.1044 Y-79.5491
G01 X124.2057 Y-79.5285
G01 X124.3114 Y-79.5058
G01 X124.4121 Y-79.4831
G01 X124.5158 Y-79.4585
G01 X124.6162 Y-79.4335
G01 X124.7134 Y-79.4082
G01 X124.8212 Y-79.3789
G01 X124.8943 Y-79.3583
G01 X124.9734 Y-79.3353
G01 X125.2810 Y-79.2430
G01 X125.4126 Y-79.2019
G01 X125.5433 Y-79.1591
G01 X125.6245 Y-79.1314
G01 X125.6962 Y-79.1064
G01 X125.7722 Y-79.0790
G01 X125.8477 Y-79.0513
G01 X125.9246 Y-79.0222
G01 X125.9975 Y-78.9939
G01 X126.0681 Y-78.9659
G01 X126.1430 Y-78.9355
G01 X126.2172 Y-78.9047
G01 X126.2860 Y-78.8755
G01 X126.3524 Y-78.8466
G01 X126.4227 Y-78.8155
G01 X126.4893 Y-78.7853
G01 X126.5660 Y-78.7499
G01 X126.6384 Y-78.7157
G01 X126.7051 Y-78.6835
G01 X126.9774 Y-78.5500
G01 X127.0526 Y-78.5124
G01 X127.1259 Y-78.4750
G01 X127.2129 Y-78.4295
G01 X127.2980 Y-78.3839
G01 X127.3744 Y-78.3420
G01 X127.4602 Y-78.2940
G01 X127.5269 Y-78.2558
G01 X127.5901 Y-78.2190
G01 X127.6562 Y-78.1798
G01 X127.7183 Y-78.1423
G01 X127.7819 Y-78.1033
G01 X127.8458 Y-78.0634
G01 X127.9088 Y-78.0233
G01 X127.9697 Y-77.9840
G01 X128.0855 Y-77.9074
G01 X128.1462 Y-77.8663
G01 X128.2048 Y-77.8259
G01 X128.2910 Y-77.7654
G01 X128.5095 Y-77.6096
G01 X128.6146 Y-77.5335
G01 X128.7155 Y-77.4584
G01 X128.8163 Y-77.3813
G01 X128.9157 Y-77.3032
G01 X129.0123 Y-77.2253
G01 X129.1133 Y-77.1417
G01 X129.2102 Y-77.0592
G01 X129.3030 Y-76.9781
G01 X129.3987 Y-76.8922
G01 X129.4898 Y-76.8083
G01 X129.5821 Y-76.7211
G01 X129.6742 Y-76.6317
G01 X129.8999 Y-76.4072
G01 X129.9743 Y-76.3320
G01 X130.0248 Y-76.2801
G01 X130.0779 Y-76.2246
G01 X130.1281 Y-76.1714
G01 X130.1804 Y-76.1151
G01 X130.2720 Y-76.0143
G01 X130.3613 Y-75.9131
G01 X130.4517 Y-75.8078
G01 X130.5380 Y-75.7044
G01 X130.6256 Y-75.5963
G01 X130.7090 Y-75.4903
G01 X130.7916 Y-75.3824
G01 X130.8706 Y-75.2762
G01 X130.7251 Y-75.6275
G01 X130.6945 Y-75.7031
G01 X130.6642 Y-75.7798
G01 X130.6258 Y-75.8796
G01 X130.5894 Y-75.9776
G01 X130.5533 Y-76.0782
G01 X130.5183 Y-76.1792
G01 X130.4868 Y-76.2730
G01 X130.4559 Y-76.3685
G01 X130.3361 Y-76.7486
G01 X130.3022 Y-76.8589
G01 X130.2705 Y-76.9664
G01 X130.2390 Y-77.0786
G01 X130.2073 Y-77.1965
G01 X130.1786 Y-77.3090
G01 X130.1534 Y-77.4129
G01 X130.1294 Y-77.5166
G01 X130.0426 Y-77.9078
G01 X130.0246 Y-77.9906
G01 X130.0046 Y-78.0873
G01 X129.9841 Y-78.1922
G01 X129.9651 Y-78.2951
G01 X129.9469 Y-78.4004
G01 X129.9254 Y-78.5338
G01 X129.9066 Y-78.6623
G01 X129.8973 Y-78.7309
G01 X129.8428 Y-79.1462
G01 X129.8295 Y-79.2565
G01 X129.8172 Y-79.3690
G01 X129.8066 Y-79.4784
G01 X129.7975 Y-79.5848
G01 X129.6566 Y-79.9934
G01 X129.6250 Y-80.0673
G01 X129.5426 Y-80.2556
G01 X129.5030 Y-80.3484
G01 X129.4761 Y-80.4129
G01 X129.4270 Y-80.5329
G01 X129.3786 Y-80.6542
G01 X129.3355 Y-80.7665
G01 X129.2907 Y-80.8878
G01 X129.1707 Y-81.2234
G01 X129.1463 Y-81.2929
G01 X129.1239 Y-81.3584
G01 X129.0796 Y-81.4925
G01 X129.0397 Y-81.6192
G01 X128.9998 Y-81.7528
G01 X128.9630 Y-81.8821
G01 X128.9351 Y-81.9852
G01 X128.9074 Y-82.0925
G01 X128.8238 Y-82.4262
G01 X128.7926 Y-82.5560
G01 X128.7745 Y-82.6353
G01 X128.7584 Y-82.7086
G01 X128.7415 Y-82.7882
G01 X128.7253 Y-82.8679
G01 X128.7110 Y-82.9416
G01 X128.6961 Y-83.0217
G01 X128.6819 Y-83.1017
G01 X128.6693 Y-83.1758
G01 X128.6583 Y-83.2439
G01 X128.6471 Y-83.3166
G01 X128.5904 Y-83.7003
G01 X128.5794 Y-83.7812
G01 X128.5698 Y-83.8561
G01 X128.5600 Y-83.9378
G01 X128.5517 Y-84.0117
G01 X128.5420 Y-84.1056
G01 X128.5336 Y-84.1953
G01 X128.5261 Y-84.2850
G01 X128.5194 Y-84.3743
G01 X128.5108 Y-84.5097
G01 X128.5000 Y-84.7257
G01 X128.4958 Y-84.7939
G01 X128.4919 Y-84.8662
G01 X128.4885 Y-84.9380
G01 X128.4858 Y-85.0074
G01 X128.4836 Y-85.0774
G01 X128.4817 Y-85.1538
G01 X128.4805 Y-85.2272
G01 X128.4798 Y-85.3013
G01 X128.4797 Y-85.3736
G01 X128.4801 Y-85.4458
G01 X128.4393 Y-85.5762
G01 X128.4009 Y-85.7056
G01 X128.3748 Y-85.7974
G01 X128.2977 Y-86.0756
G01 X128.2682 Y-86.1861
G01 X128.2408 Y-86.2940
G01 X128.2147 Y-86.4017
G01 X128.1897 Y-86.5104
G01 X128.1628 Y-86.6340
G01 X128.1385 Y-86.7535
G01 X128.1149 Y-86.8770
G01 X128.0936 Y-86.9971
G01 X128.0739 Y-87.1169
G01 X128.0553 Y-87.2396
G01 X128.0384 Y-87.3620
G01 X128.0229 Y-87.4858
G01 X127.6728 Y-87.8426
G01 X123.9955 Y-87.8436
G01 X123.9955 Y-79.5700
G01 X124.2755 Y-79.8000
G01 X124.3877 Y-79.7757
G01 X124.4627 Y-79.7588
G01 X124.5330 Y-79.7423
G01 X124.6020 Y-79.7256
G01 X124.6740 Y-79.7077
G01 X124.7463 Y-79.6891
G01 X124.8185 Y-79.6699
G01 X124.8829 Y-79.6524
G01 X124.9589 Y-79.6310
G01 X125.0818 Y-79.5951
G01 X125.3336 Y-79.5196
G01 X125.4067 Y-79.4973
G01 X125.4806 Y-79.4741
G01 X125.5543 Y-79.4504
G01 X125.6274 Y-79.4262
G01 X125.6979 Y-79.4023
G01 X125.7669 Y-79.3783
G01 X125.8376 Y-79.3532
G01 X125.9124 Y-79.3259
G01 X125.9817 Y-79.3000
G01 X126.0538 Y-79.2725
G01 X126.1256 Y-79.2444
G01 X126.1932 Y-79.2174
G01 X126.2614 Y-79.1896
G01 X126.3257 Y-79.1628
G01 X126.3964 Y-79.1328
G01 X126.4648 Y-79.1031
G01 X126.5371 Y-79.0711
G01 X126.6057 Y-79.0400
G01 X126.6774 Y-79.0069
G01 X126.7449 Y-78.9751
G01 X126.8110 Y-78.9433
G01 X127.1150 Y-78.7943
G01 X127.2025 Y-78.7503
G01 X127.2855 Y-78.7076
G01 X127.3839 Y-78.6556
G01 X127.4841 Y-78.6013
G01 X127.5771 Y-78.5495
G01 X127.6736 Y-78.4944
G01 X127.7707 Y-78.4375
G01 X127.8731 Y-78.3758
G01 X127.9744 Y-78.3133
G01 X128.0706 Y-78.2522
G01 X128.1669 Y-78.1895
G01 X128.2633 Y-78.1252
G01 X128.3579 Y-78.0605
G01 X128.4530 Y-77.9938
G01 X128.6767 Y-77.8343
G01 X128.7335 Y-77.7934
G01 X128.8249 Y-77.7263
G01 X128.9163 Y-77.6576
G01 X129.0167 Y-77.5802
G01 X129.1091 Y-77.5072
G01 X129.2095 Y-77.4258
G01 X129.3060 Y-77.3454
G01 X129.4009 Y-77.2644
G01 X129.4969 Y-77.1803
G01 X129.5915 Y-77.0953
G01 X129.6853 Y-77.0088
G01 X129.7726 Y-76.9263
G01 X129.8527 Y-76.8489
G01 X129.9111 Y-76.7913
G01 X130.0830 Y-76.6199
G01 X130.0577 Y-76.7006
G01 X130.0341 Y-76.7782
G01 X130.0097 Y-76.8607
G01 X129.9883 Y-76.9351
G01 X129.9649 Y-77.0193
G01 X129.9436 Y-77.0986
G01 X129.9229 Y-77.1781
G01 X129.9036 Y-77.2546
G01 X129.8809 Y-77.3482
G01 X129.8590 Y-77.4429
G01 X129.7679 Y-77.8530
G01 X129.7409 Y-77.9796
G01 X129.7148 Y-78.1098
G01 X129.6895 Y-78.2457
G01 X129.6660 Y-78.3824
G01 X129.6449 Y-78.5162
G01 X129.6254 Y-78.6519
G01 X129.5705 Y-79.0684
G01 X129.5561 Y-79.1832
G01 X129.5468 Y-79.2646
G01 X129.5373 Y-79.3539
G01 X129.5289 Y-79.4410
G01 X129.5213 Y-79.5267
G01 X129.3954 Y-79.8923
G01 X129.3681 Y-79.9559
G01 X129.2817 Y-80.1534
G01 X129.2300 Y-80.2754
G01 X129.1504 Y-80.4699
G01 X129.1179 Y-80.5522
G01 X129.0833 Y-80.6419
G01 X129.0542 Y-80.7195
G01 X129.0275 Y-80.7925
G01 X128.9121 Y-81.1148
G01 X128.8784 Y-81.2108
G01 X128.8426 Y-81.3165
G01 X128.8197 Y-81.3861
G01 X128.7966 Y-81.4582
G01 X128.7749 Y-81.5279
G01 X128.7536 Y-81.5977
G01 X128.7327 Y-81.6683
G01 X128.7132 Y-81.7361
G01 X128.6932 Y-81.8074
G01 X128.6745 Y-81.8760
G01 X128.6572 Y-81.9413
G01 X128.6378 Y-82.0164
G01 X128.5472 Y-82.3786
G01 X128.5156 Y-82.5112
G01 X128.4860 Y-82.6433
G01 X128.4720 Y-82.7090
G01 X128.4568 Y-82.7829
G01 X128.4299 Y-82.9213
G01 X128.4163 Y-82.9952
G01 X128.4041 Y-83.0648
G01 X128.3916 Y-83.1392
G01 X128.3808 Y-83.2062
G01 X128.3687 Y-83.2850
G01 X128.3230 Y-83.5935
G01 X128.3077 Y-83.7008
G01 X128.2968 Y-83.7826
G01 X128.2864 Y-83.8671
G01 X128.2774 Y-83.9441
G01 X128.2686 Y-84.0258
G01 X128.2602 Y-84.1105
G01 X128.2523 Y-84.1983
G01 X128.2452 Y-84.2851
G01 X128.2389 Y-84.3716
G01 X128.2307 Y-84.5037
G01 X128.2204 Y-84.7098
G01 X128.2162 Y-84.7777
G01 X128.2122 Y-84.8519
G01 X128.2062 Y-84.9909
G01 X128.2021 Y-85.1292
G01 X128.2000 Y-85.2664
G01 X128.1998 Y-85.4034
G01 X128.1627 Y-85.5234
G01 X128.1260 Y-85.6484
G01 X128.1028 Y-85.7302
G01 X128.0249 Y-86.0117
G01 X127.9973 Y-86.1155
G01 X127.9703 Y-86.2214
G01 X127.9452 Y-86.3247
G01 X127.9218 Y-86.4254
G01 X127.8959 Y-86.5429
G01 X127.8716 Y-86.6600
G01 X127.8488 Y-86.7769
G01 X127.8282 Y-86.8891
G01 X127.8088 Y-87.0023
G01 X127.7897 Y-87.1227
G01 X127.7720 Y-87.2429
G01 X127.7567 Y-87.3568
G01 X127.5551 Y-87.5627
G01 X124.2755 Y-87.5635
G01 X124.2755 Y-79.8000
G01 X124.5555 Y-80.0247
G01 X124.6746 Y-79.9961
G01 X124.7956 Y-79.9656
G01 X124.9076 Y-79.9359
G01 X125.0304 Y-79.9018
G01 X125.1502 Y-79.8669
G01 X125.4386 Y-79.7804
G01 X125.5451 Y-79.7474
G01 X125.6560 Y-79.7117
G01 X125.7702 Y-79.6735
G01 X125.8830 Y-79.6343
G01 X125.9921 Y-79.5949
G01 X126.1122 Y-79.5500
G01 X126.2236 Y-79.5068
G01 X126.3360 Y-79.4616
G01 X126.4480 Y-79.4151
G01 X126.5543 Y-79.3696
G01 X126.6466 Y-79.3288
G01 X126.7314 Y-79.2904
G01 X126.8184 Y-79.2500
G01 X126.9024 Y-79.2101
G01 X126.9639 Y-79.1803
G01 X127.2350 Y-79.0473
G01 X127.3203 Y-79.0045
G01 X127.4148 Y-78.9560
G01 X127.5021 Y-78.9100
G01 X127.5899 Y-78.8626
G01 X127.6765 Y-78.8148
G01 X127.7620 Y-78.7665
G01 X127.8475 Y-78.7172
G01 X127.9339 Y-78.6662
G01 X128.0189 Y-78.6149
G01 X128.0979 Y-78.5662
G01 X128.1878 Y-78.5096
G01 X128.2869 Y-78.4457
G01 X128.3772 Y-78.3860
G01 X128.4703 Y-78.3230
G01 X128.5378 Y-78.2764
G01 X128.6150 Y-78.2222
G01 X128.8438 Y-78.0590
G01 X128.9301 Y-77.9966
G01 X129.0155 Y-77.9334
G01 X129.0943 Y-77.8740
G01 X129.1738 Y-77.8128
G01 X129.2518 Y-77.7515
G01 X129.3242 Y-77.6934
G01 X129.4065 Y-77.6262
G01 X129.4823 Y-77.5631
G01 X129.5601 Y-77.4969
G01 X129.4875 Y-77.8248
G01 X129.4707 Y-77.9033
G01 X129.4543 Y-77.9832
G01 X129.4350 Y-78.0820
G01 X129.4164 Y-78.1825
G01 X129.3979 Y-78.2882
G01 X129.3818 Y-78.3859
G01 X129.3638 Y-78.5026
G01 X129.3480 Y-78.6138
G01 X129.2872 Y-79.0758
G01 X129.2750 Y-79.1766
G01 X129.2639 Y-79.2764
G01 X129.2541 Y-79.3726
G01 X129.2453 Y-79.4682
G01 X129.1342 Y-79.7908
G01 X129.1112 Y-79.8446
G01 X129.0247 Y-80.0423
G01 X128.9715 Y-80.1677
G01 X128.8905 Y-80.3657
G01 X128.8571 Y-80.4502
G01 X128.8215 Y-80.5424
G01 X128.7917 Y-80.6221
G01 X128.7642 Y-80.6972
G01 X128.6484 Y-81.0207
G01 X128.6102 Y-81.1299
G01 X128.5736 Y-81.2380
G01 X128.5504 Y-81.3090
G01 X128.5276 Y-81.3804
G01 X128.5045 Y-81.4546
G01 X128.4837 Y-81.5230
G01 X128.4439 Y-81.6595
G01 X128.4222 Y-81.7370
G01 X128.4025 Y-81.8093
G01 X128.3664 Y-81.9475
G01 X128.2752 Y-82.3118
G01 X128.2428 Y-82.4480
G01 X128.2124 Y-82.5839
G01 X128.1980 Y-82.6514
G01 X128.1824 Y-82.7274
G01 X128.1682 Y-82.7989
G01 X128.1547 Y-82.8697
G01 X128.1407 Y-82.9457
G01 X128.1282 Y-83.0171
G01 X128.1052 Y-83.1562
G01 X128.0924 Y-83.2398
G01 X128.0465 Y-83.5487
G01 X128.0317 Y-83.6523
G01 X128.0207 Y-83.7348
G01 X128.0102 Y-83.8180
G01 X128.0012 Y-83.8951
G01 X127.9924 Y-83.9750
G01 X127.9830 Y-84.0682
G01 X127.9746 Y-84.1597
G01 X127.9668 Y-84.2539
G01 X127.9602 Y-84.3424
G01 X127.9517 Y-84.4781
G01 X127.9408 Y-84.6939
G01 X127.9336 Y-84.8189
G01 X127.9273 Y-84.9563
G01 X127.9230 Y-85.0920
G01 X127.9204 Y-85.2247
G01 X127.9196 Y-85.3610
G01 X127.8847 Y-85.4760
G01 X127.8516 Y-85.5893
G01 X127.8331 Y-85.6551
G01 X127.7534 Y-85.9429
G01 X127.7263 Y-86.0448
G01 X127.7013 Y-86.1430
G01 X127.6789 Y-86.2341
G01 X127.6547 Y-86.3375
G01 X127.6297 Y-86.4491
G01 X127.6054 Y-86.5638
G01 X127.5840 Y-86.6711
G01 X127.5627 Y-86.7834
G01 X127.5436 Y-86.8910
G01 X127.5251 Y-87.0022
G01 X127.5083 Y-87.1104
G01 X127.4917 Y-87.2259
G01 X127.4366 Y-87.2827
G01 X124.5555 Y-87.2834
G01 X124.5555 Y-80.0247
G01 X124.8355 Y-80.2444
G01 X124.9234 Y-80.2215
G01 X125.0072 Y-80.1990
G01 X125.0960 Y-80.1742
G01 X125.1776 Y-80.1508
G01 X125.5199 Y-80.0483
G01 X125.6047 Y-80.0222
G01 X125.6934 Y-79.9940
G01 X125.7783 Y-79.9662
G01 X125.8605 Y-79.9385
G01 X125.9477 Y-79.9083
G01 X126.0333 Y-79.8779
G01 X126.1169 Y-79.8474
G01 X126.2015 Y-79.8156
G01 X126.2853 Y-79.7833
G01 X126.3680 Y-79.7507
G01 X126.4516 Y-79.7169
G01 X126.5313 Y-79.6838
G01 X126.6123 Y-79.6495
G01 X126.6897 Y-79.6160
G01 X126.7733 Y-79.5788
G01 X126.8524 Y-79.5429
G01 X126.9374 Y-79.5035
G01 X127.0186 Y-79.4649
G01 X127.0868 Y-79.4319
G01 X127.3385 Y-79.3086
G01 X127.4134 Y-79.2712
G01 X127.4834 Y-79.2357
G01 X127.5755 Y-79.1879
G01 X127.6627 Y-79.1416
G01 X127.7537 Y-79.0921
G01 X127.8417 Y-79.0432
G01 X127.9231 Y-78.9970
G01 X128.0004 Y-78.9521
G01 X128.0773 Y-78.9067
G01 X128.1548 Y-78.8600
G01 X128.2309 Y-78.8132
G01 X128.3117 Y-78.7626
G01 X128.3835 Y-78.7168
G01 X128.4602 Y-78.6669
G01 X128.5287 Y-78.6215
G01 X128.5934 Y-78.5780
G01 X128.6627 Y-78.5305
G01 X128.7279 Y-78.4852
G01 X128.7898 Y-78.4414
G01 X129.0135 Y-78.2819
G01 X129.1293 Y-78.1977
G01 X129.1115 Y-78.3035
G01 X129.0942 Y-78.4125
G01 X129.0786 Y-78.5185
G01 X129.0645 Y-78.6208
G01 X129.0144 Y-79.0014
G01 X129.0022 Y-79.0993
G01 X128.9935 Y-79.1731
G01 X128.9847 Y-79.2536
G01 X128.9766 Y-79.3330
G01 X128.9694 Y-79.4091
G01 X128.8728 Y-79.6899
G01 X128.8542 Y-79.7333
G01 X128.7677 Y-79.9313
G01 X128.7406 Y-79.9946
G01 X128.7104 Y-80.0666
G01 X128.6560 Y-80.1988
G01 X128.6266 Y-80.2716
G01 X128.5927 Y-80.3574
G01 X128.5598 Y-80.4430
G01 X128.5291 Y-80.5248
G01 X128.5009 Y-80.6018
G01 X128.3825 Y-80.9328
G01 X128.3414 Y-81.0503
G01 X128.3020 Y-81.1675
G01 X128.2782 Y-81.2408
G01 X128.2557 Y-81.3116
G01 X128.2327 Y-81.3859
G01 X128.2103 Y-81.4600
G01 X128.1892 Y-81.5318
G01 X128.1684 Y-81.6045
G01 X128.1487 Y-81.6754
G01 X128.1279 Y-81.7523
G01 X128.0930 Y-81.8865
G01 X128.0000 Y-82.2587
G01 X127.9816 Y-82.3352
G01 X127.9657 Y-82.4034
G01 X127.9489 Y-82.4784
G01 X127.9340 Y-82.5467
G01 X127.9191 Y-82.6174
G01 X127.9042 Y-82.6903
G01 X127.8895 Y-82.7654
G01 X127.8765 Y-82.8338
G01 X127.8512 Y-82.9758
G01 X127.8390 Y-83.0482
G01 X127.8277 Y-83.1189
G01 X127.8149 Y-83.2022
G01 X127.7690 Y-83.5115
G01 X127.7544 Y-83.6140
G01 X127.7430 Y-83.6987
G01 X127.7331 Y-83.7777
G01 X127.7237 Y-83.8570
G01 X127.7144 Y-83.9419
G01 X127.7010 Y-84.0755
G01 X127.6891 Y-84.2130
G01 X127.6792 Y-84.3484
G01 X127.6709 Y-84.4854
G01 X127.6613 Y-84.6780
G01 X127.6568 Y-84.7521
G01 X127.6530 Y-84.8235
G01 X127.6470 Y-84.9599
G01 X127.6441 Y-85.0449
G01 X127.6419 Y-85.1363
G01 X127.6404 Y-85.2287
G01 X127.6397 Y-85.3186
G01 X127.6090 Y-85.4207
G01 X127.5806 Y-85.5189
G01 X127.4874 Y-85.8542
G01 X127.4624 Y-85.9474
G01 X127.4398 Y-86.0346
G01 X127.4194 Y-86.1163
G01 X127.3972 Y-86.2084
G01 X127.3739 Y-86.3095
G01 X127.3526 Y-86.4059
G01 X127.3312 Y-86.5073
G01 X127.3114 Y-86.6059
G01 X127.2919 Y-86.7082
G01 X127.2747 Y-86.8032
G01 X127.2573 Y-86.9052
G01 X127.2415 Y-87.0028
G01 X124.8355 Y-87.0034
G01 X124.8355 Y-80.2444
G01 X125.1155 Y-80.4596
G01 X125.2143 Y-80.4316
G01 X125.3164 Y-80.4018
G01 X125.5945 Y-80.3183
G01 X125.7286 Y-80.2767
G01 X125.8468 Y-80.2385
G01 X125.9589 Y-80.2008
G01 X126.0698 Y-80.1622
G01 X126.1849 Y-80.1207
G01 X126.2729 Y-80.0880
G01 X126.3562 Y-80.0562
G01 X126.4404 Y-80.0232
G01 X126.5231 Y-79.9901
G01 X126.6114 Y-79.9538
G01 X126.6897 Y-79.9209
G01 X126.7726 Y-79.8853
G01 X126.8546 Y-79.8492
G01 X126.9306 Y-79.8150
G01 X127.0043 Y-79.7812
G01 X127.0766 Y-79.7474
G01 X127.1511 Y-79.7119
G01 X127.4623 Y-79.5597
G01 X127.5347 Y-79.5236
G01 X127.5987 Y-79.4912
G01 X127.6733 Y-79.4527
G01 X127.7470 Y-79.4140
G01 X127.8185 Y-79.3757
G01 X127.8935 Y-79.3348
G01 X127.9650 Y-79.2951
G01 X128.0394 Y-79.2530
G01 X128.1096 Y-79.2126
G01 X128.1888 Y-79.1662
G01 X128.2628 Y-79.1219
G01 X128.3367 Y-79.0770
G01 X128.4099 Y-79.0316
G01 X128.4779 Y-78.9888
G01 X128.5484 Y-78.9436
G01 X128.6184 Y-78.8980
G01 X128.6882 Y-78.8517
G01 X128.7579 Y-78.8047
G01 X128.7339 Y-78.9876
G01 X128.7203 Y-79.0985
G01 X128.7063 Y-79.2241
G01 X128.6938 Y-79.3493
G01 X128.6114 Y-79.5890
G01 X128.5106 Y-79.8203
G01 X128.4546 Y-79.9524
G01 X128.3995 Y-80.0864
G01 X128.3708 Y-80.1571
G01 X128.3356 Y-80.2462
G01 X128.3019 Y-80.3335
G01 X128.2710 Y-80.4154
G01 X128.2412 Y-80.4968
G01 X128.1210 Y-80.8325
G01 X128.0807 Y-80.9475
G01 X128.0434 Y-81.0577
G01 X128.0208 Y-81.1266
G01 X127.9958 Y-81.2046
G01 X127.9722 Y-81.2803
G01 X127.9492 Y-81.3557
G01 X127.9265 Y-81.4324
G01 X127.9063 Y-81.5026
G01 X127.8667 Y-81.6452
G01 X127.8463 Y-81.7217
G01 X127.8253 Y-81.8032
G01 X127.7367 Y-82.1567
G01 X127.7053 Y-82.2871
G01 X127.6755 Y-82.4177
G01 X127.6585 Y-82.4958
G01 X127.6427 Y-82.5709
G01 X127.6269 Y-82.6492
G01 X127.6121 Y-82.7249
G01 X127.5987 Y-82.7965
G01 X127.5842 Y-82.8771
G01 X127.5711 Y-82.9528
G01 X127.5586 Y-83.0279
G01 X127.5379 Y-83.1608
G01 X127.4910 Y-83.4776
G01 X127.4805 Y-83.5504
G01 X127.4700 Y-83.6273
G01 X127.4597 Y-83.7066
G01 X127.4501 Y-83.7854
G01 X127.4408 Y-83.8668
G01 X127.4331 Y-83.9390
G01 X127.4256 Y-84.0142
G01 X127.4129 Y-84.1551
G01 X127.4022 Y-84.2952
G01 X127.3932 Y-84.4356
G01 X127.3817 Y-84.6622
G01 X127.3737 Y-84.8023
G01 X127.3680 Y-84.9291
G01 X127.3648 Y-85.0189
G01 X127.3625 Y-85.1029
G01 X127.3609 Y-85.1882
G01 X127.3599 Y-85.2763
G01 X127.3326 Y-85.3683
G01 X127.3067 Y-85.4584
G01 X127.2222 Y-85.7625
G01 X127.1845 Y-85.9035
G01 X127.1651 Y-85.9791
G01 X127.1475 Y-86.0495
G01 X127.1260 Y-86.1386
G01 X127.1065 Y-86.2226
G01 X127.0875 Y-86.3070
G01 X127.0703 Y-86.3867
G01 X127.0530 Y-86.4700
G01 X127.0366 Y-86.5520
G01 X127.0196 Y-86.6408
G01 X127.0046 Y-86.7228
G01 X125.1155 Y-86.7233
G01 X125.1155 Y-80.4596
G01 X125.3955 Y-80.6703
G01 X125.6562 Y-80.5921
G01 X125.7306 Y-80.5695
G01 X125.8388 Y-80.5355
